static/luts/BW Couture.cube
TITLE "Generated by Resolve"
LUT_3D_SIZE 5
#LUT data points
0.0118715 0.0118715 0.0118715
0.125795 0.125795 0.125795
0.28069 0.28069 0.28069
0.417044 0.417044 0.417044
0.546456 0.546456 0.546456
0.270222 0.270222 0.270222
0.40824 0.40824 0.40824
0.537438 0.537438 0.537438
0.657282 0.657282 0.657282
0.751324 0.751324 0.751324
0.528405 0.528405 0.528405
0.649668 0.649668 0.649668
0.74583 0.74583 0.74583
0.812314 0.812314 0.812314
0.849332 0.849332 0.849332
0.740154 0.740154 0.740154
0.808896 0.808896 0.808896
0.84744 0.84744 0.84744
0.870115 0.870115 0.870115
0.888029 0.888029 0.888029
0.845441 0.845441 0.845441
0.868803 0.868803 0.868803
0.886763 0.886763 0.886763
0.906661 0.906661 0.906661
0.925902 0.925902 0.925902
0 0 0
0.080766 0.080766 0.080766
0.233066 0.233066 0.233066
0.377737 0.377737 0.377737
0.506157 0.506157 0.506157
0.222339 0.222339 0.222339
0.368658 0.368658 0.368658
0.4972 0.4972 0.4972
0.622248 0.622248 0.622248
0.725216 0.725216 0.725216
0.488243 0.488243 0.488243
0.614176 0.614176 0.614176
0.718929 0.718929 0.718929
0.795071 0.795071 0.795071
0.840101 0.840101 0.840101
0.712718 0.712718 0.712718
0.790829 0.790829 0.790829
0.837842 0.837842 0.837842
0.864042 0.864042 0.864042
0.88246 0.88246 0.88246
0.835431 0.835431 0.835431
0.862531 0.862531 0.862531
0.881239 0.881239 0.881239
0.900649 0.900649 0.900649
0.919936 0.919936 0.919936
0 0 0
0.0430304 0.0430304 0.0430304
0.184543 0.184543 0.184543
0.336156 0.336156 0.336156
0.465843 0.465843 0.465843
0.173617 0.173617 0.173617
0.326436 0.326436 0.326436
0.456931 0.456931 0.456931
0.585245 0.585245 0.585245
0.6963 0.6963 0.6963
0.448081 0.448081 0.448081
0.576715 0.576715 0.576715
0.689479 0.689479 0.689479
0.774594 0.774594 0.774594
0.828962 0.828962 0.828962
0.682612 0.682612 0.682612
0.769726 0.769726 0.769726
0.826291 0.826291 0.826291
0.857176 0.857176 0.857176
0.876997 0.876997 0.876997
0.823468 0.823468 0.823468
0.855543 0.855543 0.855543
0.875746 0.875746 0.875746
0.893996 0.893996 0.893996
0.91397 0.91397 0.91397
0 0 0
0.0167391 0.0167391 0.0167391
0.136233 0.136233 0.136233
0.291371 0.291371 0.291371
0.425971 0.425971 0.425971
0.125795 0.125795 0.125795
0.280674 0.280674 0.280674
0.417044 0.417044 0.417044
0.546441 0.546441 0.546441
0.664744 0.664744 0.664744
0.408255 0.408255 0.408255
0.537438 0.537438 0.537438
0.657282 0.657282 0.657282
0.751324 0.751324 0.751324
0.815595 0.815595 0.815595
0.649668 0.649668 0.649668
0.74583 0.74583 0.74583
0.812314 0.812314 0.812314
0.849332 0.849332 0.849332
0.871397 0.871397 0.871397
0.808896 0.808896 0.808896
0.84744 0.84744 0.84744
0.870115 0.870115 0.870115
0.888029 0.888029 0.888029
0.908003 0.908003 0.908003
0 0 0
0 0 0
0.0903487 0.0903487 0.0903487
0.243732 0.243732 0.243732
0.386603 0.386603 0.386603
0.080766 0.080766 0.080766
0.233051 0.233051 0.233051
0.377722 0.377722 0.377722
0.506142 0.506142 0.506142
0.63035 0.63035 0.63035
0.368673 0.368673 0.368673
0.4972 0.4972 0.4972
0.622248 0.622248 0.622248
0.725216 0.725216 0.725216
0.799237 0.799237 0.799237
0.614176 0.614176 0.614176
0.718929 0.718929 0.718929
0.795087 0.795087 0.795087
0.840101 0.840101 0.840101
0.865431 0.865431 0.865431
0.790829 0.790829 0.790829
0.837842 0.837842 0.837842
0.864042 0.864042 0.864042
0.88246 0.88246 0.88246
0.902037 0.902037 0.902037
