static/luts/BW Couture.cube
TITLE "Generated by Resolve"
LUT_3D_SIZE 9
#LUT data points
0.0118715 0.0118715 0.0118715
0.0568399 0.0568399 0.0568399
0.125795 0.125795 0.125795
0.20322 0.20322 0.20322
0.28069 0.28069 0.28069
0.352483 0.352483 0.352483
0.417044 0.417044 0.417044
0.481682 0.481682 0.481682
0.546456 0.546456 0.546456
0.120851 0.120851 0.120851
0.198001 0.198001 0.198001
0.275654 0.275654 0.275654
0.347921 0.347921 0.347921
0.412726 0.412726 0.412726
0.477012 0.477012 0.477012
0.541863 0.541863 0.541863
0.604013 0.604013 0.604013
0.660883 0.660883 0.660883
0.270222 0.270222 0.270222
0.343084 0.343084 0.343084
0.40824 0.40824 0.40824
0.47248 0.47248 0.47248
0.537438 0.537438 0.537438
0.600076 0.600076 0.600076
0.657282 0.657282 0.657282
0.708049 0.708049 0.708049
0.751324 0.751324 0.751324
0.404105 0.404105 0.404105
0.468071 0.468071 0.468071
0.533013 0.533013 0.533013
0.595773 0.595773 0.595773
0.653391 0.653391 0.653391
0.704677 0.704677 0.704677
0.74847 0.74847 0.74847
0.785306 0.785306 0.785306
0.813901 0.813901 0.813901
0.528405 0.528405 0.528405
0.591424 0.591424 0.591424
0.649668 0.649668 0.649668
0.701427 0.701427 0.701427
0.74583 0.74583 0.74583
0.783093 0.783093 0.783093
0.812314 0.812314 0.812314
0.833585 0.833585 0.833585
0.849332 0.849332 0.849332
0.645884 0.645884 0.645884
0.698009 0.698009 0.698009
0.742947 0.742947 0.742947
0.780636 0.780636 0.780636
0.810559 0.810559 0.810559
0.832242 0.832242 0.832242
0.848371 0.848371 0.848371
0.860655 0.860655 0.860655
0.870787 0.870787 0.870787
0.740154 0.740154 0.740154
0.778286 0.778286 0.778286
0.808896 0.808896 0.808896
0.830991 0.830991 0.830991
0.84744 0.84744 0.84744
0.859922 0.859922 0.859922
0.870115 0.870115 0.870115
0.879103 0.879103 0.879103
0.888029 0.888029 0.888029
0.807019 0.807019 0.807019
0.829633 0.829633 0.829633
0.846418 0.846418 0.846418
0.859129 0.859129 0.859129
0.869429 0.869429 0.869429
0.878477 0.878477 0.878477
0.887388 0.887388 0.887388
0.897292 0.897292 0.897292
0.907332 0.907332 0.907332
0.845441 0.845441 0.845441
0.858381 0.858381 0.858381
0.868803 0.868803 0.868803
0.877897 0.877897 0.877897
0.886763 0.886763 0.886763
0.896513 0.896513 0.896513
0.906661 0.906661 0.906661
0.916289 0.916289 0.916289
0.925902 0.925902 0.925902
0 0 0
0.0393378 0.0393378 0.0393378
0.102892 0.102892 0.102892
0.178973 0.178973 0.178973
0.256992 0.256992 0.256992
0.331151 0.331151 0.331151
0.397467 0.397467 0.397467
0.461219 0.461219 0.461219
0.526497 0.526497 0.526497
0.0977798 0.0977798 0.0977798
0.173617 0.173617 0.173617
0.251896 0.251896 0.251896
0.326436 0.326436 0.326436
0.393301 0.393301 0.393301
0.456931 0.456931 0.456931
0.521904 0.521904 0.521904
0.585245 0.585245 0.585245
0.643961 0.643961 0.643961
0.246387 0.246387 0.246387
0.321309 0.321309 0.321309
0.388785 0.388785 0.388785
0.452323 0.452323 0.452323
0.517296 0.517296 0.517296
0.580819 0.580819 0.580819
0.640284 0.640284 0.640284
0.693019 0.693019 0.693019
0.738796 0.738796 0.738796
0.384573 0.384573 0.384573
0.448066 0.448066 0.448066
0.513024 0.513024 0.513024
0.576715 0.576715 0.576715
0.636286 0.636286 0.636286
0.689479 0.689479 0.689479
0.73579 0.73579 0.73579
0.774594 0.774594 0.774594
0.806088 0.806088 0.806088
0.5084 0.5084 0.5084
0.572259 0.572259 0.572259
0.632227 0.632227 0.632227
0.685908 0.685908 0.685908
0.732723 0.732723 0.732723
0.772259 0.772259 0.772259
0.804242 0.804242 0.804242
0.827695 0.827695 0.827695
0.844923 0.844923 0.844923
0.628428 0.628428 0.628428
0.682612 0.682612 0.682612
0.729824 0.729824 0.729824
0.769726 0.769726 0.769726
0.802197 0.802197 0.802197
0.826291 0.826291 0.826291
0.843824 0.843824 0.843824
0.857176 0.857176 0.857176
0.867765 0.867765 0.867765
0.72665 0.72665 0.72665
0.767147 0.767147 0.767147
0.800122 0.800122 0.800122
0.824948 0.824948 0.824948
0.842802 0.842802 0.842802
0.856397 0.856397 0.856397
0.867124 0.867124 0.867124
0.876387 0.876387 0.876387
0.885222 0.885222 0.885222
0.798154 0.798154 0.798154
0.823468 0.823468 0.823468
0.841688 0.841688 0.841688
0.855543 0.855543 0.855543
0.866423 0.866423 0.866423
0.875746 0.875746 0.875746
0.884581 0.884581 0.884581
0.893996 0.893996 0.893996
0.904341 0.904341 0.904341
0.840574 0.840574 0.840574
0.854688 0.854688 0.854688
0.865766 0.865766 0.865766
0.875151 0.875151 0.875151
0.883986 0.883986 0.883986
0.893324 0.893324 0.893324
0.903685 0.903685 0.903685
0.913298 0.913298 0.913298
0.922911 0.922911 0.922911
0 0 0
0.0261082 0.0261082 0.0261082
0.080766 0.080766 0.080766
0.154971 0.154971 0.154971
0.233066 0.233066 0.233066
0.308827 0.308827 0.308827
0.377737 0.377737 0.377737
0.44126 0.44126 0.44126
0.506157 0.506157 0.506157
0.0760204 0.0760204 0.0760204
0.149432 0.149432 0.149432
0.227481 0.227481 0.227481
0.30399 0.30399 0.30399
0.373388 0.373388 0.373388
0.436988 0.436988 0.436988
0.501854 0.501854 0.501854
0.565988 0.565988 0.565988
0.626413 0.626413 0.626413
0.222339 0.222339 0.222339
0.298772 0.298772 0.298772
0.368658 0.368658 0.368658
0.432395 0.432395 0.432395
0.4972 0.4972 0.4972
0.561517 0.561517 0.561517
0.622248 0.622248 0.622248
0.677317 0.677317 0.677317
0.725216 0.725216 0.725216
0.363912 0.363912 0.363912
0.428153 0.428153 0.428153
0.492882 0.492882 0.492882
0.557366 0.557366 0.557366
0.618372 0.618372 0.618372
0.673838 0.673838 0.673838
0.722148 0.722148 0.722148
0.763424 0.763424 0.763424
0.797131 0.797131 0.797131
0.488243 0.488243 0.488243
0.55285 0.55285 0.55285
0.614176 0.614176 0.614176
0.6701 0.6701 0.6701
0.718929 0.718929 0.718929
0.760708 0.760708 0.760708
0.795071 0.795071 0.795071
0.82121 0.82121 0.82121
0.840101 0.840101 0.840101
0.610285 0.610285 0.610285
0.66659 0.66659 0.66659
0.715953 0.715953 0.715953
0.758144 0.758144 0.758144
0.793011 0.793011 0.793011
0.819638 0.819638 0.819638
0.838956 0.838956 0.838956
0.853376 0.853376 0.853376
0.864713 0.864713 0.864713
0.712718 0.712718 0.712718
0.755337 0.755337 0.755337
0.790829 0.790829 0.790829
0.817975 0.817975 0.817975
0.837842 0.837842 0.837842
0.852506 0.852506 0.852506
0.864042 0.864042 0.864042
0.873594 0.873594 0.873594
0.88246 0.88246 0.88246
0.788754 0.788754 0.788754
0.816419 0.816419 0.816419
0.836667 0.836667 0.836667
0.851591 0.851591 0.851591
0.863294 0.863294 0.863294
0.872953 0.872953 0.872953
0.881819 0.881819 0.881819
0.890974 0.890974 0.890974
0.901366 0.901366 0.901366
0.835431 0.835431 0.835431
0.85066 0.85066 0.85066
0.862531 0.862531 0.862531
0.872343 0.872343 0.872343
0.881239 0.881239 0.881239
0.890333 0.890333 0.890333
0.900649 0.900649 0.900649
0.910323 0.910323 0.910323
0.919936 0.919936 0.919936
0 0 0
0.0142061 0.0142061 0.0142061
0.0611582 0.0611582 0.0611582
0.131182 0.131182 0.131182
0.20882 0.20882 0.20882
0.286061 0.286061 0.286061
0.357168 0.357168 0.357168
0.421424 0.421424 0.421424
0.485985 0.485985 0.485985
0.0568246 0.0568246 0.0568246
0.12578 0.12578 0.12578
0.203204 0.203204 0.203204
0.280674 0.280674 0.280674
0.352468 0.352468 0.352468
0.417044 0.417044 0.417044
0.481666 0.481666 0.481666
0.546441 0.546441 0.546441
0.60824 0.60824 0.60824
0.198016 0.198016 0.198016
0.275669 0.275669 0.275669
0.347921 0.347921 0.347921
0.412726 0.412726 0.412726
0.477012 0.477012 0.477012
0.541863 0.541863 0.541863
0.604013 0.604013 0.604013
0.660883 0.660883 0.660883
0.711116 0.711116 0.711116
0.343084 0.343084 0.343084
0.40824 0.40824 0.40824
0.47248 0.47248 0.47248
0.537438 0.537438 0.537438
0.600076 0.600076 0.600076
0.657282 0.657282 0.657282
0.708049 0.708049 0.708049
0.751324 0.751324 0.751324
0.787655 0.787655 0.787655
0.468071 0.468071 0.468071
0.533013 0.533013 0.533013
0.595773 0.595773 0.595773
0.653391 0.653391 0.653391
0.704677 0.704677 0.704677
0.74847 0.74847 0.74847
0.785306 0.785306 0.785306
0.813901 0.813901 0.813901
0.834806 0.834806 0.834806
0.59144 0.59144 0.59144
0.649668 0.649668 0.649668
0.701427 0.701427 0.701427
0.74583 0.74583 0.74583
0.783093 0.783093 0.783093
0.812314 0.812314 0.812314
0.833585 0.833585 0.833585
0.849332 0.849332 0.849332
0.861448 0.861448 0.861448
0.698009 0.698009 0.698009
0.742947 0.742947 0.742947
0.780636 0.780636 0.780636
0.810559 0.810559 0.810559
0.832242 0.832242 0.832242
0.848371 0.848371 0.848371
0.860655 0.860655 0.860655
0.870787 0.870787 0.870787
0.879728 0.879728 0.879728
0.778286 0.778286 0.778286
0.808896 0.808896 0.808896
0.830991 0.830991 0.830991
0.84744 0.84744 0.84744
0.859922 0.859922 0.859922
0.870115 0.870115 0.870115
0.879103 0.879103 0.879103
0.888029 0.888029 0.888029
0.898009 0.898009 0.898009
0.829633 0.829633 0.829633
0.846418 0.846418 0.846418
0.859129 0.859129 0.859129
0.869444 0.869444 0.869444
0.878477 0.878477 0.878477
0.887388 0.887388 0.887388
0.897292 0.897292 0.897292
0.907332 0.907332 0.907332
0.916945 0.916945 0.916945
0 0 0
0 0 0
0.0430304 0.0430304 0.0430304
0.108141 0.108141 0.108141
0.184543 0.184543 0.184543
0.262486 0.262486 0.262486
0.336156 0.336156 0.336156
0.401938 0.401938 0.401938
0.465843 0.465843 0.465843
0.0393378 0.0393378 0.0393378
0.102876 0.102876 0.102876
0.178958 0.178958 0.178958
0.256977 0.256977 0.256977
0.331136 0.331136 0.331136
0.397452 0.397452 0.397452
0.461204 0.461204 0.461204
0.526482 0.526482 0.526482
0.589639 0.589639 0.589639
0.173617 0.173617 0.173617
0.251896 0.251896 0.251896
0.326436 0.326436 0.326436
0.393301 0.393301 0.393301
0.456931 0.456931 0.456931
0.521904 0.521904 0.521904
0.585245 0.585245 0.585245
0.643961 0.643961 0.643961
0.6963 0.6963 0.6963
0.321309 0.321309 0.321309
0.388785 0.388785 0.388785
0.452323 0.452323 0.452323
0.517296 0.517296 0.517296
0.580819 0.580819 0.580819
0.640284 0.640284 0.640284
0.693019 0.693019 0.693019
0.738796 0.738796 0.738796
0.777111 0.777111 0.777111
0.448081 0.448081 0.448081
0.513024 0.513024 0.513024
0.576715 0.576715 0.576715
0.636286 0.636286 0.636286
0.689479 0.689479 0.689479
0.73579 0.73579 0.73579
0.774594 0.774594 0.774594
0.806088 0.806088 0.806088
0.828962 0.828962 0.828962
0.572274 0.572274 0.572274
0.632227 0.632227 0.632227
0.685908 0.685908 0.685908
0.732723 0.732723 0.732723
0.772259 0.772259 0.772259
0.804242 0.804242 0.804242
0.827695 0.827695 0.827695
0.844923 0.844923 0.844923
0.858 0.858 0.858
0.682612 0.682612 0.682612
0.729824 0.729824 0.729824
0.769726 0.769726 0.769726
0.802197 0.802197 0.802197
0.826291 0.826291 0.826291
0.843824 0.843824 0.843824
0.857176 0.857176 0.857176
0.867765 0.867765 0.867765
0.876997 0.876997 0.876997
0.767147 0.767147 0.767147
0.800122 0.800122 0.800122
0.824948 0.824948 0.824948
0.842802 0.842802 0.842802
0.856397 0.856397 0.856397
0.867124 0.867124 0.867124
0.876387 0.876387 0.876387
0.885222 0.885222 0.885222
0.894713 0.894713 0.894713
0.823468 0.823468 0.823468
0.841688 0.841688 0.841688
0.855543 0.855543 0.855543
0.866423 0.866423 0.866423
0.875746 0.875746 0.875746
0.884581 0.884581 0.884581
0.893996 0.893996 0.893996
0.904341 0.904341 0.904341
0.91397 0.91397 0.91397
0 0 0
0 0 0
0.028687 0.028687 0.028687
0.0855879 0.0855879 0.0855879
0.160449 0.160449 0.160449
0.238621 0.238621 0.238621
0.314015 0.314015 0.314015
0.382361 0.382361 0.382361
0.445853 0.445853 0.445853
0.0261082 0.0261082 0.0261082
0.0807507 0.0807507 0.0807507
0.154955 0.154955 0.154955
0.233051 0.233051 0.233051
0.308812 0.308812 0.308812
0.377722 0.377722 0.377722
0.441245 0.441245 0.441245
0.506142 0.506142 0.506142
0.570184 0.570184 0.570184
0.149432 0.149432 0.149432
0.227481 0.227481 0.227481
0.30399 0.30399 0.30399
0.373388 0.373388 0.373388
0.436988 0.436988 0.436988
0.501854 0.501854 0.501854
0.565988 0.565988 0.565988
0.626413 0.626413 0.626413
0.680858 0.680858 0.680858
0.298787 0.298787 0.298787
0.368658 0.368658 0.368658
0.432395 0.432395 0.432395
0.4972 0.4972 0.4972
0.561517 0.561517 0.561517
0.622248 0.622248 0.622248
0.677317 0.677317 0.677317
0.725216 0.725216 0.725216
0.766064 0.766064 0.766064
0.428168 0.428168 0.428168
0.492882 0.492882 0.492882
0.557366 0.557366 0.557366
0.618372 0.618372 0.618372
0.673838 0.673838 0.673838
0.722148 0.722148 0.722148
0.763424 0.763424 0.763424
0.797131 0.797131 0.797131
0.822721 0.822721 0.822721
0.552865 0.552865 0.552865
0.614176 0.614176 0.614176
0.6701 0.6701 0.6701
0.718929 0.718929 0.718929
0.760708 0.760708 0.760708
0.795071 0.795071 0.795071
0.82121 0.82121 0.82121
0.840101 0.840101 0.840101
0.854292 0.854292 0.854292
0.666606 0.666606 0.666606
0.715953 0.715953 0.715953
0.758144 0.758144 0.758144
0.793011 0.793011 0.793011
0.819638 0.819638 0.819638
0.838956 0.838956 0.838956
0.853376 0.853376 0.853376
0.864713 0.864713 0.864713
0.874205 0.874205 0.874205
0.755337 0.755337 0.755337
0.790829 0.790829 0.790829
0.817975 0.817975 0.817975
0.837842 0.837842 0.837842
0.852506 0.852506 0.852506
0.864042 0.864042 0.864042
0.873594 0.873594 0.873594
0.88246 0.88246 0.88246
0.891661 0.891661 0.891661
0.816419 0.816419 0.816419
0.836667 0.836667 0.836667
0.851591 0.851591 0.851591
0.863294 0.863294 0.863294
0.872953 0.872953 0.872953
0.881819 0.881819 0.881819
0.890974 0.890974 0.890974
0.901366 0.901366 0.901366
0.910979 0.910979 0.910979
0 0 0
0 0 0
0.0167391 0.0167391 0.0167391
0.0651865 0.0651865 0.0651865
0.136233 0.136233 0.136233
0.214115 0.214115 0.214115
0.291371 0.291371 0.291371
0.361959 0.361959 0.361959
0.425971 0.425971 0.425971
0.0142061 0.0142061 0.0142061
0.0611429 0.0611429 0.0611429
0.131167 0.131167 0.131167
0.208804 0.208804 0.208804
0.286046 0.286046 0.286046
0.357153 0.357153 0.357153
0.421408 0.421408 0.421408
0.485969 0.485969 0.485969
0.550652 0.550652 0.550652
0.125795 0.125795 0.125795
0.203204 0.203204 0.203204
0.280674 0.280674 0.280674
0.352468 0.352468 0.352468
0.417044 0.417044 0.417044
0.481666 0.481666 0.481666
0.546441 0.546441 0.546441
0.60824 0.60824 0.60824
0.664744 0.664744 0.664744
0.275669 0.275669 0.275669
0.347921 0.347921 0.347921
0.412726 0.412726 0.412726
0.477012 0.477012 0.477012
0.541863 0.541863 0.541863
0.604013 0.604013 0.604013
0.660883 0.660883 0.660883
0.711116 0.711116 0.711116
0.753964 0.753964 0.753964
0.408255 0.408255 0.408255
0.47248 0.47248 0.47248
0.537438 0.537438 0.537438
0.600076 0.600076 0.600076
0.657282 0.657282 0.657282
0.708049 0.708049 0.708049
0.751324 0.751324 0.751324
0.787655 0.787655 0.787655
0.815595 0.815595 0.815595
0.533013 0.533013 0.533013
0.595773 0.595773 0.595773
0.653391 0.653391 0.653391
0.704677 0.704677 0.704677
0.74847 0.74847 0.74847
0.785306 0.785306 0.785306
0.813901 0.813901 0.813901
0.834806 0.834806 0.834806
0.850278 0.850278 0.850278
0.649668 0.649668 0.649668
0.701427 0.701427 0.701427
0.74583 0.74583 0.74583
0.783093 0.783093 0.783093
0.812314 0.812314 0.812314
0.833585 0.833585 0.833585
0.849332 0.849332 0.849332
0.861448 0.861448 0.861448
0.871397 0.871397 0.871397
0.742947 0.742947 0.742947
0.780636 0.780636 0.780636
0.810559 0.810559 0.810559
0.832242 0.832242 0.832242
0.848371 0.848371 0.848371
0.860655 0.860655 0.860655
0.870787 0.870787 0.870787
0.879728 0.879728 0.879728
0.888701 0.888701 0.888701
0.808896 0.808896 0.808896
0.830991 0.830991 0.830991
0.84744 0.84744 0.84744
0.859922 0.859922 0.859922
0.870115 0.870115 0.870115
0.879103 0.879103 0.879103
0.888029 0.888029 0.888029
0.898009 0.898009 0.898009
0.908003 0.908003 0.908003
0 0 0
0 0 0
0.00134279 0.00134279 0.00134279
0.0466773 0.0466773 0.0466773
0.113008 0.113008 0.113008
0.189715 0.189715 0.189715
0.267567 0.267567 0.267567
0.340963 0.340963 0.340963
0.406363 0.406363 0.406363
0 0 0
0.0430152 0.0430152 0.0430152
0.108125 0.108125 0.108125
0.184527 0.184527 0.184527
0.26247 0.26247 0.26247
0.336141 0.336141 0.336141
0.401923 0.401923 0.401923
0.465827 0.465827 0.465827
0.530785 0.530785 0.530785
0.102876 0.102876 0.102876
0.178958 0.178958 0.178958
0.256977 0.256977 0.256977
0.331136 0.331136 0.331136
0.397452 0.397452 0.397452
0.461204 0.461204 0.461204
0.526482 0.526482 0.526482
0.589639 0.589639 0.589639
0.647898 0.647898 0.647898
0.251896 0.251896 0.251896
0.326436 0.326436 0.326436
0.393301 0.393301 0.393301
0.456931 0.456931 0.456931
0.521904 0.521904 0.521904
0.585245 0.585245 0.585245
0.643961 0.643961 0.643961
0.6963 0.6963 0.6963
0.741527 0.741527 0.741527
0.3888 0.3888 0.3888
0.452323 0.452323 0.452323
0.517296 0.517296 0.517296
0.580819 0.580819 0.580819
0.640284 0.640284 0.640284
0.693019 0.693019 0.693019
0.738796 0.738796 0.738796
0.777111 0.777111 0.777111
0.807996 0.807996 0.807996
0.513024 0.513024 0.513024
0.576715 0.576715 0.576715
0.636286 0.636286 0.636286
0.689479 0.689479 0.689479
0.73579 0.73579 0.73579
0.774594 0.774594 0.774594
0.806088 0.806088 0.806088
0.828962 0.828962 0.828962
0.845914 0.845914 0.845914
0.632242 0.632242 0.632242
0.685908 0.685908 0.685908
0.732723 0.732723 0.732723
0.772259 0.772259 0.772259
0.804242 0.804242 0.804242
0.827695 0.827695 0.827695
0.844923 0.844923 0.844923
0.858 0.858 0.858
0.868467 0.868467 0.868467
0.729824 0.729824 0.729824
0.769726 0.769726 0.769726
0.802197 0.802197 0.802197
0.826291 0.826291 0.826291
0.843824 0.843824 0.843824
0.857176 0.857176 0.857176
0.867765 0.867765 0.867765
0.876997 0.876997 0.876997
0.885847 0.885847 0.885847
0.800137 0.800137 0.800137
0.824948 0.824948 0.824948
0.842802 0.842802 0.842802
0.856397 0.856397 0.856397
0.867124 0.867124 0.867124
0.876387 0.876387 0.876387
0.885222 0.885222 0.885222
0.894713 0.894713 0.894713
0.905013 0.905013 0.905013
0 0 0
0 0 0
0 0 0
0.0315557 0.0315557 0.0315557
0.0903487 0.0903487 0.0903487
0.165606 0.165606 0.165606
0.243732 0.243732 0.243732
0.318822 0.318822 0.318822
0.386603 0.386603 0.386603
0 0 0
0.0286717 0.0286717 0.0286717
0.0855726 0.0855726 0.0855726
0.160433 0.160433 0.160433
0.23859 0.23859 0.23859
0.314 0.314 0.314
0.382345 0.382345 0.382345
0.445838 0.445838 0.445838
0.510781 0.510781 0.510781
0.080766 0.080766 0.080766
0.154955 0.154955 0.154955
0.233051 0.233051 0.233051
0.308812 0.308812 0.308812
0.377722 0.377722 0.377722
0.441245 0.441245 0.441245
0.506142 0.506142 0.506142
0.570184 0.570184 0.570184
0.63035 0.63035 0.63035
0.227497 0.227497 0.227497
0.30399 0.30399 0.30399
0.373388 0.373388 0.373388
0.436988 0.436988 0.436988
0.501854 0.501854 0.501854
0.565988 0.565988 0.565988
0.626413 0.626413 0.626413
0.680858 0.680858 0.680858
0.728283 0.728283 0.728283
0.368673 0.368673 0.368673
0.432395 0.432395 0.432395
0.4972 0.4972 0.4972
0.561517 0.561517 0.561517
0.622248 0.622248 0.622248
0.677317 0.677317 0.677317
0.725216 0.725216 0.725216
0.766064 0.766064 0.766064
0.799237 0.799237 0.799237
0.492897 0.492897 0.492897
0.557366 0.557366 0.557366
0.618372 0.618372 0.618372
0.673838 0.673838 0.673838
0.722148 0.722148 0.722148
0.763424 0.763424 0.763424
0.797131 0.797131 0.797131
0.822721 0.822721 0.822721
0.841138 0.841138 0.841138
0.614176 0.614176 0.614176
0.6701 0.6701 0.6701
0.718929 0.718929 0.718929
0.760708 0.760708 0.760708
0.795087 0.795087 0.795087
0.82121 0.82121 0.82121
0.840101 0.840101 0.840101
0.854292 0.854292 0.854292
0.865431 0.865431 0.865431
0.715953 0.715953 0.715953
0.758144 0.758144 0.758144
0.793011 0.793011 0.793011
0.819638 0.819638 0.819638
0.838956 0.838956 0.838956
0.853376 0.853376 0.853376
0.864713 0.864713 0.864713
0.874205 0.874205 0.874205
0.88304 0.88304 0.88304
0.790829 0.790829 0.790829
0.817975 0.817975 0.817975
0.837842 0.837842 0.837842
0.852506 0.852506 0.852506
0.864042 0.864042 0.864042
0.873594 0.873594 0.873594
0.88246 0.88246 0.88246
0.891661 0.891661 0.891661
0.902037 0.902037 0.902037
