static/luts/BW Couture.cube
TITLE "Generated by Resolve"
LUT_3D_SIZE 33
#LUT data points
0.0118715 0.0118715 0.0118715
0.0211795 0.0211795 0.0211795
0.030808 0.030808 0.030808
0.0425269 0.0425269 0.0425269
0.0568399 0.0568399 0.0568399
0.0723583 0.0723583 0.0723583
0.0890364 0.0890364 0.0890364
0.107454 0.107454 0.107454
0.125795 0.125795 0.125795
0.145052 0.145052 0.145052
0.164187 0.164187 0.164187
0.183825 0.183825 0.183825
0.20322 0.20322 0.20322
0.223056 0.223056 0.223056
0.242313 0.242313 0.242313
0.261784 0.261784 0.261784
0.28069 0.28069 0.28069
0.299458 0.299458 0.299458
0.317479 0.317479 0.317479
0.335515 0.335515 0.335515
0.352483 0.352483 0.352483
0.369284 0.369284 0.369284
0.385718 0.385718 0.385718
0.401358 0.401358 0.401358
0.417044 0.417044 0.417044
0.43299 0.43299 0.43299
0.449256 0.449256 0.449256
0.465248 0.465248 0.465248
0.481682 0.481682 0.481682
0.49781 0.49781 0.49781
0.514229 0.514229 0.514229
0.530205 0.530205 0.530205
0.546456 0.546456 0.546456
0.0300755 0.0300755 0.0300755
0.0415808 0.0415808 0.0415808
0.0557412 0.0557412 0.0557412
0.0712139 0.0712139 0.0712139
0.0877546 0.0877546 0.0877546
0.106126 0.106126 0.106126
0.124437 0.124437 0.124437
0.143664 0.143664 0.143664
0.162783 0.162783 0.162783
0.182406 0.182406 0.182406
0.201801 0.201801 0.201801
0.221637 0.221637 0.221637
0.241077 0.241077 0.241077
0.260395 0.260395 0.260395
0.279316 0.279316 0.279316
0.298131 0.298131 0.298131
0.316381 0.316381 0.316381
0.334249 0.334249 0.334249
0.351522 0.351522 0.351522
0.368078 0.368078 0.368078
0.384604 0.384604 0.384604
0.400229 0.400229 0.400229
0.416098 0.416098 0.416098
0.43183 0.43183 0.43183
0.448096 0.448096 0.448096
0.464073 0.464073 0.464073
0.480491 0.480491 0.480491
0.496635 0.496635 0.496635
0.513054 0.513054 0.513054
0.52903 0.52903 0.52903
0.545296 0.545296 0.545296
0.560983 0.560983 0.560983
0.576745 0.576745 0.576745
0.0546731 0.0546731 0.0546731
0.0700847 0.0700847 0.0700847
0.0865034 0.0865034 0.0865034
0.104814 0.104814 0.104814
0.12311 0.12311 0.12311
0.14229 0.14229 0.14229
0.16144 0.16144 0.16144
0.181018 0.181018 0.181018
0.200671 0.200671 0.200671
0.220233 0.220233 0.220233
0.239933 0.239933 0.239933
0.259022 0.259022 0.259022
0.278294 0.278294 0.278294
0.296834 0.296834 0.296834
0.315251 0.315251 0.315251
0.332998 0.332998 0.332998
0.350317 0.350317 0.350317
0.366888 0.366888 0.366888
0.383459 0.383459 0.383459
0.399115 0.399115 0.399115
0.414969 0.414969 0.414969
0.430701 0.430701 0.430701
0.446952 0.446952 0.446952
0.462913 0.462913 0.462913
0.479332 0.479332 0.479332
0.49546 0.49546 0.49546
0.511894 0.511894 0.511894
0.527886 0.527886 0.527886
0.544152 0.544152 0.544152
0.55993 0.55993 0.55993
0.575631 0.575631 0.575631
0.590936 0.590936 0.590936
0.606134 0.606134 0.606134
0.0855421 0.0855421 0.0855421
0.103502 0.103502 0.103502
0.12192 0.12192 0.12192
0.140917 0.140917 0.140917
0.160403 0.160403 0.160403
0.179629 0.179629 0.179629
0.199405 0.199405 0.199405
0.218845 0.218845 0.218845
0.238544 0.238544 0.238544
0.257633 0.257633 0.257633
0.277012 0.277012 0.277012
0.295521 0.295521 0.295521
0.313954 0.313954 0.313954
0.331746 0.331746 0.331746
0.349126 0.349126 0.349126
0.365698 0.365698 0.365698
0.382315 0.382315 0.382315
0.397986 0.397986 0.397986
0.41384 0.41384 0.41384
0.429557 0.429557 0.429557
0.445808 0.445808 0.445808
0.461769 0.461769 0.461769
0.478172 0.478172 0.478172
0.494301 0.494301 0.494301
0.510735 0.510735 0.510735
0.526894 0.526894 0.526894
0.543008 0.543008 0.543008
0.55906 0.55906 0.55906
0.574517 0.574517 0.574517
0.590051 0.590051 0.590051
0.605081 0.605081 0.605081
0.619959 0.619959 0.619959
0.634287 0.634287 0.634287
0.120851 0.120851 0.120851
0.139544 0.139544 0.139544
0.159045 0.159045 0.159045
0.178241 0.178241 0.178241
0.198001 0.198001 0.198001
0.217441 0.217441 0.217441
0.237171 0.237171 0.237171
0.256275 0.256275 0.256275
0.275654 0.275654 0.275654
0.294194 0.294194 0.294194
0.312657 0.312657 0.312657
0.33048 0.33048 0.33048
0.347921 0.347921 0.347921
0.364508 0.364508 0.364508
0.381155 0.381155 0.381155
0.396887 0.396887 0.396887
0.412726 0.412726 0.412726
0.428611 0.428611 0.428611
0.444648 0.444648 0.444648
0.46067 0.46067 0.46067
0.477012 0.477012 0.477012
0.4934 0.4934 0.4934
0.50959 0.50959 0.50959
0.525917 0.525917 0.525917
0.541863 0.541863 0.541863
0.557946 0.557946 0.557946
0.573404 0.573404 0.573404
0.589075 0.589075 0.589075
0.604013 0.604013 0.604013
0.618906 0.618906 0.618906
0.63328 0.63328 0.63328
0.647379 0.647379 0.647379
0.660883 0.660883 0.660883
0.157671 0.157671 0.157671
0.176837 0.176837 0.176837
0.196612 0.196612 0.196612
0.216037 0.216037 0.216037
0.235782 0.235782 0.235782
0.254902 0.254902 0.254902
0.274296 0.274296 0.274296
0.292943 0.292943 0.292943
0.31136 0.31136 0.31136
0.329213 0.329213 0.329213
0.346716 0.346716 0.346716
0.363424 0.363424 0.363424
0.380011 0.380011 0.380011
0.396048 0.396048 0.396048
0.411597 0.411597 0.411597
0.427604 0.427604 0.427604
0.443503 0.443503 0.443503
0.4598 0.4598 0.4598
0.475837 0.475837 0.475837
0.492317 0.492317 0.492317
0.508431 0.508431 0.508431
0.524773 0.524773 0.524773
0.540719 0.540719 0.540719
0.556817 0.556817 0.556817
0.572305 0.572305 0.572305
0.587976 0.587976 0.587976
0.602945 0.602945 0.602945
0.617853 0.617853 0.617853
0.632258 0.632258 0.632258
0.646403 0.646403 0.646403
0.659922 0.659922 0.659922
0.673381 0.673381 0.673381
0.685939 0.685939 0.685939
0.195209 0.195209 0.195209
0.214633 0.214633 0.214633
0.234394 0.234394 0.234394
0.253697 0.253697 0.253697
0.272938 0.272938 0.272938
0.291951 0.291951 0.291951
0.310063 0.310063 0.310063
0.328161 0.328161 0.328161
0.345495 0.345495 0.345495
0.362478 0.362478 0.362478
0.378836 0.378836 0.378836
0.394965 0.394965 0.394965
0.410483 0.410483 0.410483
0.426474 0.426474 0.426474
0.442344 0.442344 0.442344
0.45864 0.45864 0.45864
0.474678 0.474678 0.474678
0.491157 0.491157 0.491157
0.507271 0.507271 0.507271
0.523613 0.523613 0.523613
0.539559 0.539559 0.539559
0.555688 0.555688 0.555688
0.571191 0.571191 0.571191
0.586877 0.586877 0.586877
0.601892 0.601892 0.601892
0.616815 0.616815 0.616815
0.631235 0.631235 0.631235
0.645426 0.645426 0.645426
0.658976 0.658976 0.658976
0.67245 0.67245 0.67245
0.685237 0.685237 0.685237
0.697612 0.697612 0.697612
0.709712 0.709712 0.709712
0.233021 0.233021 0.233021
0.252552 0.252552 0.252552
0.271565 0.271565 0.271565
0.290639 0.290639 0.290639
0.308766 0.308766 0.308766
0.327047 0.327047 0.327047
0.344289 0.344289 0.344289
0.361288 0.361288 0.361288
0.377676 0.377676 0.377676
0.393835 0.393835 0.393835
0.409354 0.409354 0.409354
0.42533 0.42533 0.42533
0.441199 0.441199 0.441199
0.457496 0.457496 0.457496
0.473518 0.473518 0.473518
0.489998 0.489998 0.489998
0.506111 0.506111 0.506111
0.522469 0.522469 0.522469
0.538415 0.538415 0.538415
0.554559 0.554559 0.554559
0.570153 0.570153 0.570153
0.585779 0.585779 0.585779
0.601083 0.601083 0.601083
0.615763 0.615763 0.615763
0.630335 0.630335 0.630335
0.644434 0.644434 0.644434
0.658259 0.658259 0.658259
0.671519 0.671519 0.671519
0.684413 0.684413 0.684413
0.696727 0.696727 0.696727
0.708888 0.708888 0.708888
0.72015 0.72015 0.72015
0.731411 0.731411 0.731411
0.270222 0.270222 0.270222
0.289311 0.289311 0.289311
0.307454 0.307454 0.307454
0.32578 0.32578 0.32578
0.343084 0.343084 0.343084
0.360098 0.360098 0.360098
0.376516 0.376516 0.376516
0.392721 0.392721 0.392721
0.40824 0.40824 0.40824
0.424186 0.424186 0.424186
0.440055 0.440055 0.440055
0.456336 0.456336 0.456336
0.47248 0.47248 0.47248
0.488823 0.488823 0.488823
0.504952 0.504952 0.504952
0.521309 0.521309 0.521309
0.537438 0.537438 0.537438
0.553429 0.553429 0.553429
0.569284 0.569284 0.569284
0.584665 0.584665 0.584665
0.600076 0.600076 0.600076
0.61471 0.61471 0.61471
0.62948 0.62948 0.62948
0.643458 0.643458 0.643458
0.657282 0.657282 0.657282
0.670588 0.670588 0.670588
0.683528 0.683528 0.683528
0.695842 0.695842 0.695842
0.708049 0.708049 0.708049
0.719341 0.719341 0.719341
0.730632 0.730632 0.730632
0.741146 0.741146 0.741146
0.751324 0.751324 0.751324
0.306172 0.306172 0.306172
0.324498 0.324498 0.324498
0.341848 0.341848 0.341848
0.358892 0.358892 0.358892
0.375341 0.375341 0.375341
0.391592 0.391592 0.391592
0.407141 0.407141 0.407141
0.423056 0.423056 0.423056
0.439109 0.439109 0.439109
0.455192 0.455192 0.455192
0.47155 0.47155 0.47155
0.487663 0.487663 0.487663
0.504051 0.504051 0.504051
0.520165 0.520165 0.520165
0.536461 0.536461 0.536461
0.5523 0.5523 0.5523
0.568185 0.568185 0.568185
0.583566 0.583566 0.583566
0.598993 0.598993 0.598993
0.613657 0.613657 0.613657
0.628443 0.628443 0.628443
0.642466 0.642466 0.642466
0.656321 0.656321 0.656321
0.669642 0.669642 0.669642
0.682628 0.682628 0.682628
0.694957 0.694957 0.694957
0.70721 0.70721 0.70721
0.718547 0.718547 0.718547
0.729839 0.729839 0.729839
0.740459 0.740459 0.740459
0.750607 0.750607 0.750607
0.760372 0.760372 0.760372
0.769741 0.769741 0.769741
0.340902 0.340902 0.340902
0.357702 0.357702 0.357702
0.374289 0.374289 0.374289
0.390463 0.390463 0.390463
0.406302 0.406302 0.406302
0.421927 0.421927 0.421927
0.438087 0.438087 0.438087
0.454032 0.454032 0.454032
0.47039 0.47039 0.47039
0.486503 0.486503 0.486503
0.502968 0.502968 0.502968
0.519005 0.519005 0.519005
0.535302 0.535302 0.535302
0.551171 0.551171 0.551171
0.567071 0.567071 0.567071
0.582467 0.582467 0.582467
0.597925 0.597925 0.597925
0.612619 0.612619 0.612619
0.62742 0.62742 0.62742
0.641474 0.641474 0.641474
0.655344 0.655344 0.655344
0.668696 0.668696 0.668696
0.681727 0.681727 0.681727
0.694087 0.694087 0.694087
0.706371 0.706371 0.706371
0.717845 0.717845 0.717845
0.729046 0.729046 0.729046
0.739895 0.739895 0.739895
0.749905 0.749905 0.749905
0.759808 0.759808 0.759808
0.7691 0.7691 0.7691
0.778042 0.778042 0.778042
0.786496 0.786496 0.786496
0.373358 0.373358 0.373358
0.389334 0.389334 0.389334
0.405219 0.405219 0.405219
0.420783 0.420783 0.420783
0.436942 0.436942 0.436942
0.452888 0.452888 0.452888
0.46923 0.46923 0.46923
0.485344 0.485344 0.485344
0.501808 0.501808 0.501808
0.517861 0.517861 0.517861
0.534157 0.534157 0.534157
0.550027 0.550027 0.550027
0.565957 0.565957 0.565957
0.581353 0.581353 0.581353
0.596857 0.596857 0.596857
0.611566 0.611566 0.611566
0.626383 0.626383 0.626383
0.64065 0.64065 0.64065
0.654368 0.654368 0.654368
0.667796 0.667796 0.667796
0.680827 0.680827 0.680827
0.693385 0.693385 0.693385
0.705531 0.705531 0.705531
0.717174 0.717174 0.717174
0.728267 0.728267 0.728267
0.739147 0.739147 0.739147
0.749187 0.749187 0.749187
0.759197 0.759197 0.759197
0.76846 0.76846 0.76846
0.777417 0.777417 0.777417
0.785901 0.785901 0.785901
0.79382 0.79382 0.79382
0.801175 0.801175 0.801175
0.404105 0.404105 0.404105
0.419654 0.419654 0.419654
0.435798 0.435798 0.435798
0.451728 0.451728 0.451728
0.468071 0.468071 0.468071
0.484169 0.484169 0.484169
0.500648 0.500648 0.500648
0.516732 0.516732 0.516732
0.533013 0.533013 0.533013
0.548898 0.548898 0.548898
0.564843 0.564843 0.564843
0.580331 0.580331 0.580331
0.595773 0.595773 0.595773
0.610773 0.610773 0.610773
0.625345 0.625345 0.625345
0.63978 0.63978 0.63978
0.653391 0.653391 0.653391
0.667079 0.667079 0.667079
0.679927 0.679927 0.679927
0.692561 0.692561 0.692561
0.704677 0.704677 0.704677
0.716365 0.716365 0.716365
0.727474 0.727474 0.727474
0.738415 0.738415 0.738415
0.74847 0.74847 0.74847
0.758495 0.758495 0.758495
0.767819 0.767819 0.767819
0.776776 0.776776 0.776776
0.785306 0.785306 0.785306
0.793286 0.793286 0.793286
0.800656 0.800656 0.800656
0.807752 0.807752 0.807752
0.813901 0.813901 0.813901
0.434653 0.434653 0.434653
0.450584 0.450584 0.450584
0.466911 0.466911 0.466911
0.483131 0.483131 0.483131
0.499489 0.499489 0.499489
0.515877 0.515877 0.515877
0.531853 0.531853 0.531853
0.547936 0.547936 0.547936
0.563729 0.563729 0.563729
0.579461 0.579461 0.579461
0.59469 0.59469 0.59469
0.609766 0.609766 0.609766
0.624292 0.624292 0.624292
0.638788 0.638788 0.638788
0.652415 0.652415 0.652415
0.666133 0.666133 0.666133
0.679026 0.679026 0.679026
0.691676 0.691676 0.691676
0.703822 0.703822 0.703822
0.715557 0.715557 0.715557
0.726665 0.726665 0.726665
0.737652 0.737652 0.737652
0.747753 0.747753 0.747753
0.757809 0.757809 0.757809
0.767163 0.767163 0.767163
0.77615 0.77615 0.77615
0.78471 0.78471 0.78471
0.792752 0.792752 0.792752
0.800137 0.800137 0.800137
0.807279 0.807279 0.807279
0.81355 0.81355 0.81355
0.81944 0.81944 0.81944
0.824964 0.824964 0.824964
0.465766 0.465766 0.465766
0.482185 0.482185 0.482185
0.498329 0.498329 0.498329
0.514733 0.514733 0.514733
0.530709 0.530709 0.530709
0.54696 0.54696 0.54696
0.5626 0.5626 0.5626
0.578363 0.578363 0.578363
0.593606 0.593606 0.593606
0.608713 0.608713 0.608713
0.623255 0.623255 0.623255
0.637781 0.637781 0.637781
0.651438 0.651438 0.651438
0.665171 0.665171 0.665171
0.678126 0.678126 0.678126
0.690791 0.690791 0.690791
0.702968 0.702968 0.702968
0.714748 0.714748 0.714748
0.725872 0.725872 0.725872
0.736904 0.736904 0.736904
0.747082 0.747082 0.747082
0.757107 0.757107 0.757107
0.766659 0.766659 0.766659
0.775525 0.775525 0.775525
0.784176 0.784176 0.784176
0.792203 0.792203 0.792203
0.799741 0.799741 0.799741
0.806806 0.806806 0.806806
0.813169 0.813169 0.813169
0.819013 0.819013 0.819013
0.824598 0.824598 0.824598
0.829465 0.829465 0.829465
0.834241 0.834241 0.834241
0.497169 0.497169 0.497169
0.513573 0.513573 0.513573
0.529549 0.529549 0.529549
0.545815 0.545815 0.545815
0.561486 0.561486 0.561486
0.577249 0.577249 0.577249
0.592523 0.592523 0.592523
0.60766 0.60766 0.60766
0.622217 0.622217 0.622217
0.636774 0.636774 0.636774
0.650477 0.650477 0.650477
0.66421 0.66421 0.66421
0.677287 0.677287 0.677287
0.689906 0.689906 0.689906
0.702098 0.702098 0.702098
0.713939 0.713939 0.713939
0.725185 0.725185 0.725185
0.736156 0.736156 0.736156
0.746548 0.746548 0.746548
0.756405 0.756405 0.756405
0.766049 0.766049 0.766049
0.774899 0.774899 0.774899
0.783688 0.783688 0.783688
0.791669 0.791669 0.791669
0.799222 0.799222 0.799222
0.806317 0.806317 0.806317
0.812741 0.812741 0.812741
0.818601 0.818601 0.818601
0.824231 0.824231 0.824231
0.829129 0.829129 0.829129
0.833921 0.833921 0.833921
0.838239 0.838239 0.838239
0.842252 0.842252 0.842252
0.528405 0.528405 0.528405
0.544671 0.544671 0.544671
0.560372 0.560372 0.560372
0.576135 0.576135 0.576135
0.591424 0.591424 0.591424
0.606607 0.606607 0.606607
0.621164 0.621164 0.621164
0.635767 0.635767 0.635767
0.649668 0.649668 0.649668
0.663249 0.663249 0.663249
0.67657 0.67657 0.67657
0.689006 0.689006 0.689006
0.701427 0.701427 0.701427
0.71313 0.71313 0.71313
0.724514 0.724514 0.724514
0.735393 0.735393 0.735393
0.74583 0.74583 0.74583
0.755703 0.755703 0.755703
0.765393 0.765393 0.765393
0.774273 0.774273 0.774273
0.783093 0.783093 0.783093
0.791104 0.791104 0.791104
0.798688 0.798688 0.798688
0.805829 0.805829 0.805829
0.812314 0.812314 0.812314
0.818189 0.818189 0.818189
0.82385 0.82385 0.82385
0.828794 0.828794 0.828794
0.833585 0.833585 0.833585
0.837949 0.837949 0.837949
0.841978 0.841978 0.841978
0.845777 0.845777 0.845777
0.849332 0.849332 0.849332
0.559487 0.559487 0.559487
0.575021 0.575021 0.575021
0.590433 0.590433 0.590433
0.605554 0.605554 0.605554
0.620386 0.620386 0.620386
0.63476 0.63476 0.63476
0.648798 0.648798 0.648798
0.662287 0.662287 0.662287
0.675654 0.675654 0.675654
0.688121 0.688121 0.688121
0.700633 0.700633 0.700633
0.712306 0.712306 0.712306
0.72372 0.72372 0.72372
0.73463 0.73463 0.73463
0.745098 0.745098 0.745098
0.754986 0.754986 0.754986
0.764736 0.764736 0.764736
0.773648 0.773648 0.773648
0.782483 0.782483 0.782483
0.790555 0.790555 0.790555
0.798169 0.798169 0.798169
0.805341 0.805341 0.805341
0.811887 0.811887 0.811887
0.817761 0.817761 0.817761
0.823468 0.823468 0.823468
0.828489 0.828489 0.828489
0.833249 0.833249 0.833249
0.837736 0.837736 0.837736
0.841688 0.841688 0.841688
0.845548 0.845548 0.845548
0.849088 0.849088 0.849088
0.852415 0.852415 0.852415
0.855543 0.855543 0.855543
0.589578 0.589578 0.589578
0.604501 0.604501 0.604501
0.619379 0.619379 0.619379
0.633738 0.633738 0.633738
0.647837 0.647837 0.647837
0.661326 0.661326 0.661326
0.674723 0.674723 0.674723
0.687236 0.687236 0.687236
0.699763 0.699763 0.699763
0.711498 0.711498 0.711498
0.722911 0.722911 0.722911
0.733852 0.733852 0.733852
0.744381 0.744381 0.744381
0.754284 0.754284 0.754284
0.764065 0.764065 0.764065
0.773007 0.773007 0.773007
0.781872 0.781872 0.781872
0.790097 0.790097 0.790097
0.797635 0.797635 0.797635
0.804852 0.804852 0.804852
0.811444 0.811444 0.811444
0.817426 0.817426 0.817426
0.823087 0.823087 0.823087
0.828199 0.828199 0.828199
0.832929 0.832929 0.832929
0.83743 0.83743 0.83743
0.841413 0.841413 0.841413
0.845319 0.845319 0.845319
0.848844 0.848844 0.848844
0.852186 0.852186 0.852186
0.855329 0.855329 0.855329
0.858289 0.858289 0.858289
0.861051 0.861051 0.861051
0.618341 0.618341 0.618341
0.632715 0.632715 0.632715
0.646845 0.646845 0.646845
0.660349 0.660349 0.660349
0.673808 0.673808 0.673808
0.686336 0.686336 0.686336
0.698878 0.698878 0.698878
0.710689 0.710689 0.710689
0.722118 0.722118 0.722118
0.733089 0.733089 0.733089
0.743664 0.743664 0.743664
0.753613 0.753613 0.753613
0.763394 0.763394 0.763394
0.772519 0.772519 0.772519
0.781247 0.781247 0.781247
0.789609 0.789609 0.789609
0.797101 0.797101 0.797101
0.804486 0.804486 0.804486
0.811002 0.811002 0.811002
0.817044 0.817044 0.817044
0.822705 0.822705 0.822705
0.827863 0.827863 0.827863
0.832578 0.832578 0.832578
0.837125 0.837125 0.837125
0.841138 0.841138 0.841138
0.84506 0.84506 0.84506
0.848615 0.848615 0.848615
0.851942 0.851942 0.851942
0.855116 0.855116 0.855116
0.858091 0.858091 0.858091
0.860853 0.860853 0.860853
0.863584 0.863584 0.863584
0.866072 0.866072 0.866072
0.645884 0.645884 0.645884
0.659388 0.659388 0.659388
0.672877 0.672877 0.672877
0.685542 0.685542 0.685542
0.698009 0.698009 0.698009
0.710063 0.710063 0.710063
0.721309 0.721309 0.721309
0.732418 0.732418 0.732418
0.742947 0.742947 0.742947
0.753079 0.753079 0.753079
0.762722 0.762722 0.762722
0.771939 0.771939 0.771939
0.780636 0.780636 0.780636
0.789044 0.789044 0.789044
0.796582 0.796582 0.796582
0.803983 0.803983 0.803983
0.810559 0.810559 0.810559
0.816632 0.816632 0.816632
0.822309 0.822309 0.822309
0.827512 0.827512 0.827512
0.832242 0.832242 0.832242
0.836835 0.836835 0.836835
0.840848 0.840848 0.840848
0.844785 0.844785 0.844785
0.848371 0.848371 0.848371
0.851713 0.851713 0.851713
0.854887 0.854887 0.854887
0.857893 0.857893 0.857893
0.860655 0.860655 0.860655
0.863386 0.863386 0.863386
0.865934 0.865934 0.865934
0.868376 0.868376 0.868376
0.870787 0.870787 0.870787
0.671946 0.671946 0.671946
0.684825 0.684825 0.684825
0.697124 0.697124 0.697124
0.709255 0.709255 0.709255
0.720516 0.720516 0.720516
0.731762 0.731762 0.731762
0.742214 0.742214 0.742214
0.752361 0.752361 0.752361
0.762051 0.762051 0.762051
0.771298 0.771298 0.771298
0.780011 0.780011 0.780011
0.788479 0.788479 0.788479
0.796048 0.796048 0.796048
0.803479 0.803479 0.803479
0.810117 0.810117 0.810117
0.816205 0.816205 0.816205
0.821927 0.821927 0.821927
0.827161 0.827161 0.827161
0.831907 0.831907 0.831907
0.836515 0.836515 0.836515
0.840589 0.840589 0.840589
0.844511 0.844511 0.844511
0.848173 0.848173 0.848173
0.851484 0.851484 0.851484
0.854688 0.854688 0.854688
0.857679 0.857679 0.857679
0.860502 0.860502 0.860502
0.863203 0.863203 0.863203
0.865766 0.865766 0.865766
0.868208 0.868208 0.868208
0.870619 0.870619 0.870619
0.872877 0.872877 0.872877
0.875151 0.875151 0.875151
0.696254 0.696254 0.696254
0.708431 0.708431 0.708431
0.719707 0.719707 0.719707
0.730983 0.730983 0.730983
0.741482 0.741482 0.741482
0.751644 0.751644 0.751644
0.761364 0.761364 0.761364
0.770672 0.770672 0.770672
0.779385 0.779385 0.779385
0.787915 0.787915 0.787915
0.795514 0.795514 0.795514
0.80296 0.80296 0.80296
0.809705 0.809705 0.809705
0.815778 0.815778 0.815778
0.82153 0.82153 0.82153
0.82681 0.82681 0.82681
0.831617 0.831617 0.831617
0.83621 0.83621 0.83621
0.840375 0.840375 0.840375
0.844236 0.844236 0.844236
0.847944 0.847944 0.847944
0.851255 0.851255 0.851255
0.854505 0.854505 0.854505
0.857481 0.857481 0.857481
0.860319 0.860319 0.860319
0.86302 0.86302 0.86302
0.865599 0.865599 0.865599
0.868025 0.868025 0.868025
0.870451 0.870451 0.870451
0.872709 0.872709 0.872709
0.874998 0.874998 0.874998
0.877195 0.877195 0.877195
0.879423 0.879423 0.879423
0.718914 0.718914 0.718914
0.730205 0.730205 0.730205
0.740749 0.740749 0.740749
0.750942 0.750942 0.750942
0.760678 0.760678 0.760678
0.770031 0.770031 0.770031
0.778759 0.778759 0.778759
0.787335 0.787335 0.787335
0.795071 0.795071 0.795071
0.802457 0.802457 0.802457
0.809354 0.809354 0.809354
0.815366 0.815366 0.815366
0.82121 0.82121 0.82121
0.826459 0.826459 0.826459
0.831327 0.831327 0.831327
0.835904 0.835904 0.835904
0.840085 0.840085 0.840085
0.843961 0.843961 0.843961
0.8477 0.8477 0.8477
0.851011 0.851011 0.851011
0.854292 0.854292 0.854292
0.857282 0.857282 0.857282
0.860121 0.860121 0.860121
0.862821 0.862821 0.862821
0.865415 0.865415 0.865415
0.867857 0.867857 0.867857
0.870283 0.870283 0.870283
0.872557 0.872557 0.872557
0.87483 0.87483 0.87483
0.877043 0.877043 0.877043
0.879255 0.879255 0.879255
0.881437 0.881437 0.881437
0.88368 0.88368 0.88368
0.740154 0.740154 0.740154
0.750225 0.750225 0.750225
0.760037 0.760037 0.760037
0.76939 0.76939 0.76939
0.778286 0.778286 0.778286
0.786755 0.786755 0.786755
0.794598 0.794598 0.794598
0.801938 0.801938 0.801938
0.808896 0.808896 0.808896
0.814939 0.814939 0.814939
0.820844 0.820844 0.820844
0.826108 0.826108 0.826108
0.830991 0.830991 0.830991
0.835584 0.835584 0.835584
0.839811 0.839811 0.839811
0.843687 0.843687 0.843687
0.84744 0.84744 0.84744
0.850782 0.850782 0.850782
0.854063 0.854063 0.854063
0.857069 0.857069 0.857069
0.859922 0.859922 0.859922
0.862638 0.862638 0.862638
0.865248 0.865248 0.865248
0.867674 0.867674 0.867674
0.870115 0.870115 0.870115
0.872404 0.872404 0.872404
0.874678 0.874678 0.874678
0.876936 0.876936 0.876936
0.879103 0.879103 0.879103
0.8813 0.8813 0.8813
0.883513 0.883513 0.883513
0.885771 0.885771 0.885771
0.888029 0.888029 0.888029
0.759518 0.759518 0.759518
0.76875 0.76875 0.76875
0.777691 0.777691 0.777691
0.786175 0.786175 0.786175
0.794064 0.794064 0.794064
0.801404 0.801404 0.801404
0.808423 0.808423 0.808423
0.814511 0.814511 0.814511
0.820432 0.820432 0.820432
0.825742 0.825742 0.825742
0.830655 0.830655 0.830655
0.835264 0.835264 0.835264
0.839521 0.839521 0.839521
0.843412 0.843412 0.843412
0.847196 0.847196 0.847196
0.850553 0.850553 0.850553
0.853834 0.853834 0.853834
0.856886 0.856886 0.856886
0.859724 0.859724 0.859724
0.862455 0.862455 0.862455
0.865064 0.865064 0.865064
0.867536 0.867536 0.867536
0.869947 0.869947 0.869947
0.872282 0.872282 0.872282
0.87451 0.87451 0.87451
0.876768 0.876768 0.876768
0.87895 0.87895 0.87895
0.881163 0.881163 0.881163
0.88336 0.88336 0.88336
0.885618 0.885618 0.885618
0.887861 0.887861 0.887861
0.890242 0.890242 0.890242
0.892638 0.892638 0.892638
0.777081 0.777081 0.777081
0.78558 0.78558 0.78558
0.79353 0.79353 0.79353
0.800885 0.800885 0.800885
0.807965 0.807965 0.807965
0.814084 0.814084 0.814084
0.820035 0.820035 0.820035
0.825391 0.825391 0.825391
0.830304 0.830304 0.830304
0.834943 0.834943 0.834943
0.839231 0.839231 0.839231
0.843137 0.843137 0.843137
0.846937 0.846937 0.846937
0.85037 0.85037 0.85037
0.853605 0.853605 0.853605
0.856718 0.856718 0.856718
0.859525 0.859525 0.859525
0.862303 0.862303 0.862303
0.864881 0.864881 0.864881
0.867384 0.867384 0.867384
0.86978 0.86978 0.86978
0.872114 0.872114 0.872114
0.874357 0.874357 0.874357
0.876616 0.876616 0.876616
0.878798 0.878798 0.878798
0.88101 0.88101 0.88101
0.883192 0.883192 0.883192
0.885466 0.885466 0.885466
0.887694 0.887694 0.887694
0.890074 0.890074 0.890074
0.89247 0.89247 0.89247
0.894987 0.894987 0.894987
0.897612 0.897612 0.897612
0.792996 0.792996 0.792996
0.800366 0.800366 0.800366
0.807492 0.807492 0.807492
