static/luts/BW Journalist.cube
TITLE "Generated by Resolve"
LUT_3D_SIZE 9
#LUT data points
0.0296788 0.0296788 0.0296788
0.0356756 0.0356756 0.0356756
0.0452735 0.0452735 0.0452735
0.0590677 0.0590677 0.0590677
0.0771038 0.0771038 0.0771038
0.0995956 0.0995956 0.0995956
0.126284 0.126284 0.126284
0.157412 0.157412 0.157412
0.192142 0.192142 0.192142
0.0540627 0.0540627 0.0540627
0.0706951 0.0706951 0.0706951
0.0919356 0.0919356 0.0919356
0.117403 0.117403 0.117403
0.147204 0.147204 0.147204
0.180667 0.180667 0.180667
0.21709 0.21709 0.21709
0.25626 0.25626 0.25626
0.29723 0.29723 0.29723
0.108827 0.108827 0.108827
0.137163 0.137163 0.137163
0.169482 0.169482 0.169482
0.205005 0.205005 0.205005
0.24361 0.24361 0.24361
0.284092 0.284092 0.284092
0.325628 0.325628 0.325628
0.367117 0.367117 0.367117
0.408652 0.408652 0.408652
0.193606 0.193606 0.193606
0.231113 0.231113 0.231113
0.270985 0.270985 0.270985
0.312291 0.312291 0.312291
0.353811 0.353811 0.353811
0.395499 0.395499 0.395499
0.436316 0.436316 0.436316
0.475578 0.475578 0.475578
0.513527 0.513527 0.513527
0.299077 0.299077 0.299077
0.340459 0.340459 0.340459
0.382239 0.382239 0.382239
0.423438 0.423438 0.423438
0.463447 0.463447 0.463447
0.501686 0.501686 0.501686
0.538323 0.538323 0.538323
0.572915 0.572915 0.572915
0.605203 0.605203 0.605203
0.410468 0.410468 0.410468
0.450736 0.450736 0.450736
0.48954 0.48954 0.48954
0.526772 0.526772 0.526772
0.562127 0.562127 0.562127
0.595132 0.595132 0.595132
0.626337 0.626337 0.626337
0.655375 0.655375 0.655375
0.682094 0.682094 0.682094
0.515175 0.515175 0.515175
0.551186 0.551186 0.551186
0.584772 0.584772 0.584772
0.616571 0.616571 0.616571
0.646265 0.646265 0.646265
0.673869 0.673869 0.673869
0.699443 0.699443 0.699443
0.723186 0.723186 0.723186
0.745022 0.745022 0.745022
0.606607 0.606607 0.606607
0.637064 0.637064 0.637064
0.665446 0.665446 0.665446
0.691508 0.691508 0.691508
0.715801 0.715801 0.715801
0.738186 0.738186 0.738186
0.758648 0.758648 0.758648
0.77763 0.77763 0.77763
0.794949 0.794949 0.794949
0.683268 0.683268 0.683268
0.708186 0.708186 0.708186
0.731258 0.731258 0.731258
0.752361 0.752361 0.752361
0.771817 0.771817 0.771817
0.789578 0.789578 0.789578
0.805707 0.805707 0.805707
0.820356 0.820356 0.820356
0.833707 0.833707 0.833707
0.0352636 0.0352636 0.0352636
0.0447089 0.0447089 0.0447089
0.0580911 0.0580911 0.0580911
0.0758373 0.0758373 0.0758373
0.0980697 0.0980697 0.0980697
0.124544 0.124544 0.124544
0.155444 0.155444 0.155444
0.189944 0.189944 0.189944
0.227359 0.227359 0.227359
0.0695506 0.0695506 0.0695506
0.090547 0.090547 0.090547
0.115892 0.115892 0.115892
0.145266 0.145266 0.145266
0.1785 0.1785 0.1785
0.21503 0.21503 0.21503
0.253819 0.253819 0.253819
0.294697 0.294697 0.294697
0.336416 0.336416 0.336416
0.135271 0.135271 0.135271
0.167391 0.167391 0.167391
0.203098 0.203098 0.203098
0.241215 0.241215 0.241215
0.281575 0.281575 0.281575
0.323064 0.323064 0.323064
0.364843 0.364843 0.364843
0.406134 0.406134 0.406134
0.446708 0.446708 0.446708
0.228733 0.228733 0.228733
0.268482 0.268482 0.268482
0.309758 0.309758 0.309758
0.351415 0.351415 0.351415
0.39295 0.39295 0.39295
0.43386 0.43386 0.43386
0.473533 0.473533 0.473533
0.511284 0.511284 0.511284
0.547494 0.547494 0.547494
0.338293 0.338293 0.338293
0.379705 0.379705 0.379705
0.420966 0.420966 0.420966
0.461128 0.461128 0.461128
0.499367 0.499367 0.499367
0.536126 0.536126 0.536126
0.570855 0.570855 0.570855
0.603449 0.603449 0.603449
0.633982 0.633982 0.633982
0.448493 0.448493 0.448493
0.48719 0.48719 0.48719
0.524559 0.524559 0.524559
0.560037 0.560037 0.560037
0.593469 0.593469 0.593469
0.624491 0.624491 0.624491
0.653651 0.653651 0.653651
0.680735 0.680735 0.680735
0.705653 0.705653 0.705653
0.54905 0.54905 0.54905
0.583047 0.583047 0.583047
0.614664 0.614664 0.614664
0.644495 0.644495 0.644495
0.672343 0.672343 0.672343
0.697963 0.697963 0.697963
0.721798 0.721798 0.721798
0.743725 0.743725 0.743725
0.76376 0.76376 0.76376
0.635294 0.635294 0.635294
0.663783 0.663783 0.663783
0.689937 0.689937 0.689937
0.714351 0.714351 0.714351
0.736858 0.736858 0.736858
0.757626 0.757626 0.757626
0.776532 0.776532 0.776532
0.793942 0.793942 0.793942
0.80975 0.80975 0.80975
0.706737 0.706737 0.706737
0.729931 0.729931 0.729931
0.751293 0.751293 0.751293
0.770672 0.770672 0.770672
0.788525 0.788525 0.788525
0.804807 0.804807 0.804807
0.819516 0.819516 0.819516
0.832944 0.832944 0.832944
0.844999 0.844999 0.844999
0.0440375 0.0440375 0.0440375
0.0572671 0.0572671 0.0572671
0.0745708 0.0745708 0.0745708
0.0965744 0.0965744 0.0965744
0.123079 0.123079 0.123079
0.15349 0.15349 0.15349
0.187747 0.187747 0.187747
0.224979 0.224979 0.224979
0.264439 0.264439 0.264439
0.089189 0.089189 0.089189
0.114366 0.114366 0.114366
0.143328 0.143328 0.143328
0.176333 0.176333 0.176333
0.212711 0.212711 0.212711
0.251499 0.251499 0.251499
0.292195 0.292195 0.292195
0.333867 0.333867 0.333867
0.375692 0.375692 0.375692
0.165347 0.165347 0.165347
0.20087 0.20087 0.20087
0.23917 0.23917 0.23917
0.279057 0.279057 0.279057
0.320516 0.320516 0.320516
0.362417 0.362417 0.362417
0.403616 0.403616 0.403616
0.444251 0.444251 0.444251
0.483482 0.483482 0.483482
0.265995 0.265995 0.265995
0.30721 0.30721 0.30721
0.349096 0.349096 0.349096
0.390417 0.390417 0.390417
0.431388 0.431388 0.431388
0.471183 0.471183 0.471183
0.509377 0.509377 0.509377
0.545342 0.545342 0.545342
0.579538 0.579538 0.579538
0.37734 0.37734 0.37734
0.418479 0.418479 0.418479
0.458732 0.458732 0.458732
0.497353 0.497353 0.497353
0.533913 0.533913 0.533913
0.568795 0.568795 0.568795
0.601663 0.601663 0.601663
0.632197 0.632197 0.632197
0.660883 0.660883 0.660883
0.485206 0.485206 0.485206
0.522332 0.522332 0.522332
0.557961 0.557961 0.557961
0.591501 0.591501 0.591501
0.622629 0.622629 0.622629
0.651911 0.651911 0.651911
0.679133 0.679133 0.679133
0.704417 0.704417 0.704417
0.727596 0.727596 0.727596
0.581033 0.581033 0.581033
0.612848 0.612848 0.612848
0.642741 0.642741 0.642741
0.67071 0.67071 0.67071
0.696666 0.696666 0.696666
0.720394 0.720394 0.720394
0.742428 0.742428 0.742428
0.762676 0.762676 0.762676
0.781109 0.781109 0.781109
0.66212 0.66212 0.66212
0.688624 0.688624 0.688624
0.712901 0.712901 0.712901
0.735546 0.735546 0.735546
0.756436 0.756436 0.756436
0.775525 0.775525 0.775525
0.79292 0.79292 0.79292
0.80882 0.80882 0.80882
0.823209 0.823209 0.823209
0.728588 0.728588 0.728588
0.750042 0.750042 0.750042
0.769543 0.769543 0.769543
0.787472 0.787472 0.787472
0.803861 0.803861 0.803861
0.818784 0.818784 0.818784
0.832181 0.832181 0.832181
0.844297 0.844297 0.844297
0.855146 0.855146 0.855146
0.0563058 0.0563058 0.0563058
0.0734417 0.0734417 0.0734417
0.0951095 0.0951095 0.0951095
0.121386 0.121386 0.121386
0.151797 0.151797 0.151797
0.18555 0.18555 0.18555
0.222614 0.222614 0.222614
0.262119 0.262119 0.262119
0.302846 0.302846 0.302846
0.112734 0.112734 0.112734
0.141695 0.141695 0.141695
0.174182 0.174182 0.174182
0.210407 0.210407 0.210407
0.249348 0.249348 0.249348
0.289677 0.289677 0.289677
0.331319 0.331319 0.331319
0.373159 0.373159 0.373159
0.414572 0.414572 0.414572
0.198642 0.198642 0.198642
0.236789 0.236789 0.236789
0.276692 0.276692 0.276692
0.317952 0.317952 0.317952
0.359869 0.359869 0.359869
0.401389 0.401389 0.401389
0.441794 0.441794 0.441794
0.481132 0.481132 0.481132
0.518837 0.518837 0.518837
0.304692 0.304692 0.304692
0.346548 0.346548 0.346548
0.388281 0.388281 0.388281
0.428931 0.428931 0.428931
0.468818 0.468818 0.468818
0.507118 0.507118 0.507118
0.543175 0.543175 0.543175
0.577493 0.577493 0.577493
0.609751 0.609751 0.609751
0.416007 0.416007 0.416007
0.456321 0.456321 0.456321
0.495094 0.495094 0.495094
0.531777 0.531777 0.531777
0.56672 0.56672 0.56672
0.599741 0.599741 0.599741
0.630671 0.630671 0.630671
0.65919 0.65919 0.65919
0.685893 0.685893 0.685893
0.520439 0.520439 0.520439
0.555871 0.555871 0.555871
0.589532 0.589532 0.589532
0.621042 0.621042 0.621042
0.650156 0.650156 0.650156
0.677531 0.677531 0.677531
0.702953 0.702953 0.702953
0.726329 0.726329 0.726329
0.747875 0.747875 0.747875
0.611139 0.611139 0.611139
0.640986 0.640986 0.640986
0.669093 0.669093 0.669093
0.695155 0.695155 0.695155
0.719005 0.719005 0.719005
0.741115 0.741115 0.741115
0.761486 0.761486 0.761486
0.780194 0.780194 0.780194
0.797162 0.797162 0.797162
0.687053 0.687053 0.687053
0.71162 0.71162 0.71162
0.734218 0.734218 0.734218
0.75523 0.75523 0.75523
0.774487 0.774487 0.774487
0.791897 0.791897 0.791897
0.807874 0.807874 0.807874
0.822385 0.822385 0.822385
0.835416 0.835416 0.835416
0.748791 0.748791 0.748791
0.768536 0.768536 0.768536
0.786404 0.786404 0.786404
0.802899 0.802899 0.802899
0.817929 0.817929 0.817929
0.831525 0.831525 0.831525
0.843595 0.843595 0.843595
0.854505 0.854505 0.854505
0.864195 0.864195 0.864195
0.0723278 0.0723278 0.0723278
0.0936599 0.0936599 0.0936599
0.119707 0.119707 0.119707
0.149889 0.149889 0.149889
0.183444 0.183444 0.183444
0.220249 0.220249 0.220249
0.259648 0.259648 0.259648
0.300572 0.300572 0.300572
0.342138 0.342138 0.342138
0.139788 0.139788 0.139788
0.172366 0.172366 0.172366
0.208133 0.208133 0.208133
0.246937 0.246937 0.246937
0.287556 0.287556 0.287556
0.328756 0.328756 0.328756
0.370611 0.370611 0.370611
0.412085 0.412085 0.412085
0.45214 0.45214 0.45214
0.234409 0.234409 0.234409
0.274434 0.274434 0.274434
0.315404 0.315404 0.315404
0.357321 0.357321 0.357321
0.398978 0.398978 0.398978
0.439384 0.439384 0.439384
0.478782 0.478782 0.478782
0.516609 0.516609 0.516609
0.55256 0.55256 0.55256
0.343984 0.343984 0.343984
0.385748 0.385748 0.385748
0.426764 0.426764 0.426764
0.466438 0.466438 0.466438
0.504829 0.504829 0.504829
0.541329 0.541329 0.541329
0.575433 0.575433 0.575433
0.607843 0.607843 0.607843
0.638209 0.638209 0.638209
0.45391 0.45391 0.45391
0.492775 0.492775 0.492775
0.529839 0.529839 0.529839
0.56466 0.56466 0.56466
0.597803 0.597803 0.597803
0.628855 0.628855 0.628855
0.657481 0.657481 0.657481
0.684291 0.684291 0.684291
0.709133 0.709133 0.709133
0.553872 0.553872 0.553872
0.587549 0.587549 0.587549
0.619165 0.619165 0.619165
0.648585 0.648585 0.648585
0.675914 0.675914 0.675914
0.701473 0.701473 0.701473
0.725093 0.725093 0.725093
0.746593 0.746593 0.746593
0.766506 0.766506 0.766506
0.639506 0.639506 0.639506
0.66746 0.66746 0.66746
0.693629 0.693629 0.693629
0.717769 0.717769 0.717769
0.739803 0.739803 0.739803
0.760296 0.760296 0.760296
0.779126 0.779126 0.779126
0.796307 0.796307 0.796307
0.81181 0.81181 0.81181
0.710201 0.710201 0.710201
0.732937 0.732937 0.732937
0.754009 0.754009 0.754009
0.773373 0.773373 0.773373
0.790951 0.790951 0.790951
0.806928 0.806928 0.806928
0.82153 0.82153 0.82153
0.834745 0.834745 0.834745
0.846525 0.846525 0.846525
0.767361 0.767361 0.767361
0.785504 0.785504 0.785504
0.801953 0.801953 0.801953
0.817075 0.817075 0.817075
0.830747 0.830747 0.830747
0.842878 0.842878 0.842878
0.853864 0.853864 0.853864
0.86363 0.86363 0.86363
0.872251 0.872251 0.872251
0.0923629 0.0923629 0.0923629
0.118044 0.118044 0.118044
0.147951 0.147951 0.147951
0.181506 0.181506 0.181506
0.217899 0.217899 0.217899
0.257206 0.257206 0.257206
0.298192 0.298192 0.298192
0.339574 0.339574 0.339574
0.381369 0.381369 0.381369
0.170275 0.170275 0.170275
0.205859 0.205859 0.205859
0.244526 0.244526 0.244526
0.285039 0.285039 0.285039
0.326467 0.326467 0.326467
0.368078 0.368078 0.368078
0.409583 0.409583 0.409583
0.45008 0.45008 0.45008
0.488716 0.488716 0.488716
0.271946 0.271946 0.271946
0.313252 0.313252 0.313252
0.354772 0.354772 0.354772
0.396445 0.396445 0.396445
0.437263 0.437263 0.437263
0.476432 0.476432 0.476432
0.514382 0.514382 0.514382
0.550439 0.550439 0.550439
0.58407 0.58407 0.58407
0.383215 0.383215 0.383215
0.424369 0.424369 0.424369
0.464134 0.464134 0.464134
0.502556 0.502556 0.502556
0.539147 0.539147 0.539147
0.573571 0.573571 0.573571
0.60592 0.60592 0.60592
0.636439 0.636439 0.636439
0.664866 0.664866 0.664866
0.49044 0.49044 0.49044
0.527611 0.527611 0.527611
0.562905 0.562905 0.562905
0.595865 0.595865 0.595865
0.627024 0.627024 0.627024
0.656031 0.656031 0.656031
0.682704 0.682704 0.682704
0.707683 0.707683 0.707683
0.7308 0.7308 0.7308
0.585534 0.585534 0.585534
0.617273 0.617273 0.617273
0.646922 0.646922 0.646922
0.674327 0.674327 0.674327
0.699992 0.699992 0.699992
0.72372 0.72372 0.72372
0.745403 0.745403 0.745403
0.765316 0.765316 0.765316
0.783658 0.783658 0.783658
0.66601 0.66601 0.66601
0.692088 0.692088 0.692088
0.716335 0.716335 0.716335
0.738689 0.738689 0.738689
0.759091 0.759091 0.759091
0.778042 0.778042 0.778042
0.795331 0.795331 0.795331
0.810895 0.810895 0.810895
0.825101 0.825101 0.825101
0.731777 0.731777 0.731777
0.752789 0.752789 0.752789
0.772244 0.772244 0.772244
0.78999 0.78999 0.78999
0.805982 0.805982 0.805982
0.820676 0.820676 0.820676
0.833997 0.833997 0.833997
0.845945 0.845945 0.845945
0.856535 0.856535 0.856535
0.784436 0.784436 0.784436
0.801083 0.801083 0.801083
0.816205 0.816205 0.816205
0.829969 0.829969 0.829969
0.842268 0.842268 0.842268
0.853208 0.853208 0.853208
0.863066 0.863066 0.863066
0.871778 0.871778 0.871778
0.879332 0.879332 0.879332
0.116396 0.116396 0.116396
0.146014 0.146014 0.146014
0.179339 0.179339 0.179339
0.21593 0.21593 0.21593
0.254749 0.254749 0.254749
0.295674 0.295674 0.295674
0.337407 0.337407 0.337407
0.378836 0.378836 0.378836
0.420111 0.420111 0.420111
0.203937 0.203937 0.203937
0.24213 0.24213 0.24213
0.282521 0.282521 0.282521
0.324041 0.324041 0.324041
0.365576 0.365576 0.365576
0.40708 0.40708 0.40708
0.447639 0.447639 0.447639
0.486534 0.486534 0.486534
0.523781 0.523781 0.523781
0.310719 0.310719 0.310719
0.352224 0.352224 0.352224
0.393927 0.393927 0.393927
0.434791 0.434791 0.434791
0.474434 0.474434 0.474434
0.512139 0.512139 0.512139
0.548302 0.548302 0.548302
0.582345 0.582345 0.582345
0.613993 0.613993 0.613993
0.421912 0.421912 0.421912
0.462043 0.462043 0.462043
0.500252 0.500252 0.500252
0.53695 0.53695 0.53695
0.571649 0.571649 0.571649
0.604013 0.604013 0.604013
0.634668 0.634668 0.634668
0.663203 0.663203 0.663203
0.689479 0.689479 0.689479
0.525399 0.525399 0.525399
0.56083 0.56083 0.56083
0.59411 0.59411 0.59411
0.625193 0.625193 0.625193
0.654307 0.654307 0.654307
0.681346 0.681346 0.681346
0.706218 0.706218 0.706218
0.729458 0.729458 0.729458
0.750851 0.750851 0.750851
0.615381 0.615381 0.615381
0.645167 0.645167 0.645167
0.672953 0.672953 0.672953
0.698512 0.698512 0.698512
0.722332 0.722332 0.722332
0.744228 0.744228 0.744228
0.764141 0.764141 0.764141
0.782589 0.782589 0.782589
0.799466 0.799466 0.799466
0.690547 0.690547 0.690547
0.7149 0.7149 0.7149
0.737377 0.737377 0.737377
0.757992 0.757992 0.757992
0.776944 0.776944 0.776944
0.794324 0.794324 0.794324
0.810086 0.810086 0.810086
0.824262 0.824262 0.824262
0.837156 0.837156 0.837156
0.751766 0.751766 0.751766
0.771099 0.771099 0.771099
0.788937 0.788937 0.788937
0.805173 0.805173 0.805173
0.819837 0.819837 0.819837
0.833234 0.833234 0.833234
0.845258 0.845258 0.845258
0.855909 0.855909 0.855909
0.865431 0.865431 0.865431
0.800183 0.800183 0.800183
0.815335 0.815335 0.815335
0.82916 0.82916 0.82916
0.84155 0.84155 0.84155
0.852598 0.852598 0.852598
0.862501 0.862501 0.862501
0.87129 0.87129 0.87129
0.878965 0.878965 0.878965
0.885496 0.885496 0.885496
0.144076 0.144076 0.144076
0.177172 0.177172 0.177172
0.213596 0.213596 0.213596
0.252323 0.252323 0.252323
0.293156 0.293156 0.293156
0.334859 0.334859 0.334859
0.376684 0.376684 0.376684
0.417624 0.417624 0.417624
0.457908 0.457908 0.457908
0.239857 0.239857 0.239857
0.280018 0.280018 0.280018
0.321477 0.321477 0.321477
0.363394 0.363394 0.363394
0.404578 0.404578 0.404578
0.445197 0.445197 0.445197
0.484382 0.484382 0.484382
0.521569 0.521569 0.521569
0.557229 0.557229 0.557229
0.350072 0.350072 0.350072
0.391394 0.391394 0.391394
0.432334 0.432334 0.432334
0.472084 0.472084 0.472084
0.510079 0.510079 0.510079
0.546151 0.546151 0.546151
0.580316 0.580316 0.580316
0.61236 0.61236 0.61236
0.64213 0.64213 0.64213
0.459648 0.459648 0.459648
0.498024 0.498024 0.498024
0.534752 0.534752 0.534752
0.569574 0.569574 0.569574
0.602396 0.602396 0.602396
0.632868 0.632868 0.632868
0.661524 0.661524 0.661524
0.688075 0.688075 0.688075
0.712383 0.712383 0.712383
0.558755 0.558755 0.558755
0.592264 0.592264 0.592264
0.623331 0.623331 0.623331
0.652567 0.652567 0.652567
0.679744 0.679744 0.679744
0.704845 0.704845 0.704845
0.728115 0.728115 0.728115
0.749615 0.749615 0.749615
0.769253 0.769253 0.769253
0.643412 0.643412 0.643412
0.671336 0.671336 0.671336
0.697246 0.697246 0.697246
0.720928 0.720928 0.720928
0.742931 0.742931 0.742931
0.763134 0.763134 0.763134
0.781521 0.781521 0.781521
0.798505 0.798505 0.798505
0.813947 0.813947 0.813947
0.713451 0.713451 0.713451
0.736049 0.736049 0.736049
0.756893 0.756893 0.756893
0.775845 0.775845 0.775845
0.793317 0.793317 0.793317
0.809171 0.809171 0.809171
0.823453 0.823453 0.823453
0.836408 0.836408 0.836408
0.848112 0.848112 0.848112
0.769955 0.769955 0.769955
0.787869 0.787869 0.787869
0.804227 0.804227 0.804227
0.819104 0.819104 0.819104
0.832471 0.832471 0.832471
0.844572 0.844572 0.844572
0.855375 0.855375 0.855375
0.864881 0.864881 0.864881
0.873335 0.873335 0.873335
0.814603 0.814603 0.814603
0.828367 0.828367 0.828367
0.840818 0.840818 0.840818
0.852018 0.852018 0.852018
0.861936 0.861936 0.861936
0.870802 0.870802 0.870802
0.878538 0.878538 0.878538
0.88513 0.88513 0.88513
0.890745 0.890745 0.890745
0.175021 0.175021 0.175021
0.211292 0.211292 0.211292
0.250278 0.250278 0.250278
0.290654 0.290654 0.290654
0.332296 0.332296 0.332296
0.374136 0.374136 0.374136
0.415305 0.415305 0.415305
0.455497 0.455497 0.455497
0.494301 0.494301 0.494301
0.277516 0.277516 0.277516
0.318929 0.318929 0.318929
0.360845 0.360845 0.360845
0.402106 0.402106 0.402106
0.442741 0.442741 0.442741
0.482033 0.482033 0.482033
0.519692 0.519692 0.519692
0.555138 0.555138 0.555138
0.58883 0.58883 0.58883
0.389166 0.389166 0.389166
0.429862 0.429862 0.429862
0.469718 0.469718 0.469718
0.507973 0.507973 0.507973
0.543999 0.543999 0.543999
0.578271 0.578271 0.578271
0.610468 0.610468 0.610468
0.640452 0.640452 0.640452
0.668528 0.668528 0.668528
0.495995 0.495995 0.495995
0.53254 0.53254 0.53254
0.567514 0.567514 0.567514
0.600473 0.600473 0.600473
0.631342 0.631342 0.631342
0.659831 0.659831 0.659831
0.686488 0.686488 0.686488
0.711162 0.711162 0.711162
0.733761 0.733761 0.733761
0.590295 0.590295 0.590295
0.621668 0.621668 0.621668
0.650828 0.650828 0.650828
0.678141 0.678141 0.678141
0.703517 0.703517 0.703517
0.726772 0.726772 0.726772
0.748348 0.748348 0.748348
0.768124 0.768124 0.768124
0.786068 0.786068 0.786068
0.669718 0.669718 0.669718
0.695735 0.695735 0.695735
0.719524 0.719524 0.719524
0.741619 0.741619 0.741619
0.761944 0.761944 0.761944
0.780575 0.780575 0.780575
0.797528 0.797528 0.797528
0.813046 0.813046 0.813046
0.82707 0.82707 0.82707
0.734722 0.734722 0.734722
0.755688 0.755688 0.755688
0.774914 0.774914 0.774914
0.792294 0.792294 0.792294
0.80824 0.80824 0.80824
0.822705 0.822705 0.822705
0.83566 0.83566 0.83566
0.84744 0.84744 0.84744
0.857984 0.857984 0.857984
0.786816 0.786816 0.786816
0.803265 0.803265 0.803265
0.818265 0.818265 0.818265
0.831739 0.831739 0.831739
0.84387 0.84387 0.84387
0.854749 0.854749 0.854749
0.864378 0.864378 0.864378
0.872862 0.872862 0.872862
0.880323 0.880323 0.880323
0.827558 0.827558 0.827558
0.840085 0.840085 0.840085
0.851362 0.851362 0.851362
0.861448 0.861448 0.861448
0.870298 0.870298 0.870298
0.878096 0.878096 0.878096
0.88481 0.88481 0.88481
0.890425 0.890425 0.890425
0.895171 0.895171 0.895171
