static/luts/BW Journalist.cube
TITLE "Generated by Resolve"
LUT_3D_SIZE 33
#LUT data points
0.0296788 0.0296788 0.0296788
0.0310521 0.0310521 0.0310521
0.0325322 0.0325322 0.0325322
0.0340734 0.0340734 0.0340734
0.0356756 0.0356756 0.0356756
0.0375982 0.0375982 0.0375982
0.0399329 0.0399329 0.0399329
0.0425574 0.0425574 0.0425574
0.0452735 0.0452735 0.0452735
0.048249 0.048249 0.048249
0.0514839 0.0514839 0.0514839
0.0551461 0.0551461 0.0551461
0.0590677 0.0590677 0.0590677
0.0630808 0.0630808 0.0630808
0.0673228 0.0673228 0.0673228
0.0720684 0.0720684 0.0720684
0.0771038 0.0771038 0.0771038
0.0823987 0.0823987 0.0823987
0.0877699 0.0877699 0.0877699
0.0933547 0.0933547 0.0933547
0.0995956 0.0995956 0.0995956
0.10602 0.10602 0.10602
0.112642 0.112642 0.112642
0.119341 0.119341 0.119341
0.126284 0.126284 0.126284
0.13373 0.13373 0.13373
0.141604 0.141604 0.141604
0.149477 0.149477 0.149477
0.157412 0.157412 0.157412
0.165576 0.165576 0.165576
0.17409 0.17409 0.17409
0.183093 0.183093 0.183093
0.192142 0.192142 0.192142
0.0335851 0.0335851 0.0335851
0.0351263 0.0351263 0.0351263
0.0369268 0.0369268 0.0369268
0.0391241 0.0391241 0.0391241
0.0417639 0.0417639 0.0417639
0.0444648 0.0444648 0.0444648
0.0472572 0.0472572 0.0472572
0.0503548 0.0503548 0.0503548
0.0538796 0.0538796 0.0538796
0.0577554 0.0577554 0.0577554
0.0618906 0.0618906 0.0618906
0.0660105 0.0660105 0.0660105
0.0704814 0.0704814 0.0704814
0.0753948 0.0753948 0.0753948
0.0806287 0.0806287 0.0806287
0.0860151 0.0860151 0.0860151
0.0916762 0.0916762 0.0916762
0.0975509 0.0975509 0.0975509
0.103853 0.103853 0.103853
0.11043 0.11043 0.11043
0.117098 0.117098 0.117098
0.124041 0.124041 0.124041
0.131411 0.131411 0.131411
0.139025 0.139025 0.139025
0.146853 0.146853 0.146853
0.154757 0.154757 0.154757
0.162829 0.162829 0.162829
0.171542 0.171542 0.171542
0.18027 0.18027 0.18027
0.189166 0.189166 0.189166
0.198123 0.198123 0.198123
0.207218 0.207218 0.207218
0.216785 0.216785 0.216785
0.0384375 0.0384375 0.0384375
0.0408942 0.0408942 0.0408942
0.0435645 0.0435645 0.0435645
0.0463111 0.0463111 0.0463111
0.0492866 0.0492866 0.0492866
0.0528115 0.0528115 0.0528115
0.0565957 0.0565957 0.0565957
0.0605631 0.0605631 0.0605631
0.064622 0.064622 0.064622
0.0689555 0.0689555 0.0689555
0.0737163 0.0737163 0.0737163
0.0790723 0.0790723 0.0790723
0.0843977 0.0843977 0.0843977
0.0898299 0.0898299 0.0898299
0.095552 0.095552 0.095552
0.101717 0.101717 0.101717
0.108278 0.108278 0.108278
0.115145 0.115145 0.115145
0.121904 0.121904 0.121904
0.128985 0.128985 0.128985
0.136461 0.136461 0.136461
0.144244 0.144244 0.144244
0.152239 0.152239 0.152239
0.160433 0.160433 0.160433
0.168719 0.168719 0.168719
0.177356 0.177356 0.177356
0.186221 0.186221 0.186221
0.195148 0.195148 0.195148
0.204364 0.204364 0.204364
0.213809 0.213809 0.213809
0.223331 0.223331 0.223331
0.233021 0.233021 0.233021
0.242741 0.242741 0.242741
0.0453956 0.0453956 0.0453956
0.0483864 0.0483864 0.0483864
0.0516365 0.0516365 0.0516365
0.055314 0.055314 0.055314
0.0592508 0.0592508 0.0592508
0.0632639 0.0632639 0.0632639
0.0674754 0.0674754 0.0674754
0.072282 0.072282 0.072282
0.0773327 0.0773327 0.0773327
0.0826276 0.0826276 0.0826276
0.088014 0.088014 0.088014
0.0936141 0.0936141 0.0936141
0.0998703 0.0998703 0.0998703
0.10631 0.10631 0.10631
0.112932 0.112932 0.112932
0.119646 0.119646 0.119646
0.126589 0.126589 0.126589
0.133989 0.133989 0.133989
0.141955 0.141955 0.141955
0.149813 0.149813 0.149813
0.157763 0.157763 0.157763
0.165942 0.165942 0.165942
0.174472 0.174472 0.174472
0.183383 0.183383 0.183383
0.192523 0.192523 0.192523
0.201526 0.201526 0.201526
0.210697 0.210697 0.210697
0.220157 0.220157 0.220157
0.229801 0.229801 0.229801
0.239704 0.239704 0.239704
0.249653 0.249653 0.249653
0.259556 0.259556 0.259556
0.269612 0.269612 0.269612
0.0540627 0.0540627 0.0540627
0.0579232 0.0579232 0.0579232
0.0620737 0.0620737 0.0620737
0.0662089 0.0662089 0.0662089
0.0706951 0.0706951 0.0706951
0.0756237 0.0756237 0.0756237
0.0808728 0.0808728 0.0808728
0.0862135 0.0862135 0.0862135
0.0919356 0.0919356 0.0919356
0.0978256 0.0978256 0.0978256
0.104143 0.104143 0.104143
0.110735 0.110735 0.110735
0.117403 0.117403 0.117403
0.124285 0.124285 0.124285
0.131746 0.131746 0.131746
0.139376 0.139376 0.139376
0.147204 0.147204 0.147204
0.155108 0.155108 0.155108
0.163195 0.163195 0.163195
0.171923 0.171923 0.171923
0.180667 0.180667 0.180667
0.189578 0.189578 0.189578
0.19852 0.19852 0.19852
0.20763 0.20763 0.20763
0.21709 0.21709 0.21709
0.226963 0.226963 0.226963
0.236667 0.236667 0.236667
0.246403 0.246403 0.246403
0.25626 0.25626 0.25626
0.26627 0.26627 0.26627
0.276585 0.276585 0.276585
0.287007 0.287007 0.287007
0.29723 0.29723 0.29723
0.0648051 0.0648051 0.0648051
0.0691539 0.0691539 0.0691539
0.0739452 0.0739452 0.0739452
0.0792859 0.0792859 0.0792859
0.0846418 0.0846418 0.0846418
0.090074 0.090074 0.090074
0.0958267 0.0958267 0.0958267
0.102007 0.102007 0.102007
0.108537 0.108537 0.108537
0.115434 0.115434 0.115434
0.12221 0.12221 0.12221
0.129305 0.129305 0.129305
0.136812 0.136812 0.136812
0.144594 0.144594 0.144594
0.152499 0.152499 0.152499
0.1608 0.1608 0.1608
0.1691 0.1691 0.1691
0.177752 0.177752 0.177752
0.186618 0.186618 0.186618
0.19556 0.19556 0.19556
0.204685 0.204685 0.204685
0.214221 0.214221 0.214221
0.223774 0.223774 0.223774
0.233448 0.233448 0.233448
0.243168 0.243168 0.243168
0.252979 0.252979 0.252979
0.263325 0.263325 0.263325
0.273442 0.273442 0.273442
0.283619 0.283619 0.283619
0.293843 0.293843 0.293843
0.304082 0.304082 0.304082
0.314549 0.314549 0.314549
0.325154 0.325154 0.325154
0.0775769 0.0775769 0.0775769
0.0828717 0.0828717 0.0828717
0.0882582 0.0882582 0.0882582
0.0938735 0.0938735 0.0938735
0.100114 0.100114 0.100114
0.1066 0.1066 0.1066
0.113237 0.113237 0.113237
0.119951 0.119951 0.119951
0.126909 0.126909 0.126909
0.134279 0.134279 0.134279
0.142306 0.142306 0.142306
0.150164 0.150164 0.150164
0.158114 0.158114 0.158114
0.166308 0.166308 0.166308
0.174853 0.174853 0.174853
0.183673 0.183673 0.183673
0.192935 0.192935 0.192935
0.201923 0.201923 0.201923
0.211124 0.211124 0.211124
0.220584 0.220584 0.220584
0.230243 0.230243 0.230243
0.240024 0.240024 0.240024
0.250095 0.250095 0.250095
0.259998 0.259998 0.259998
0.270069 0.270069 0.270069
0.280247 0.280247 0.280247
0.290455 0.290455 0.290455
0.300832 0.300832 0.300832
0.311376 0.311376 0.311376
0.321721 0.321721 0.321721
0.332097 0.332097 0.332097
0.342504 0.342504 0.342504
0.35288 0.35288 0.35288
0.0921492 0.0921492 0.0921492
0.0981003 0.0981003 0.0981003
0.104433 0.104433 0.104433
0.111025 0.111025 0.111025
0.117708 0.117708 0.117708
0.124575 0.124575 0.124575
0.132082 0.132082 0.132082
0.139712 0.139712 0.139712
0.14757 0.14757 0.14757
0.155474 0.155474 0.155474
0.163561 0.163561 0.163561
0.17232 0.17232 0.17232
0.181064 0.181064 0.181064
0.189975 0.189975 0.189975
0.198932 0.198932 0.198932
0.208042 0.208042 0.208042
0.217426 0.217426 0.217426
0.22739 0.22739 0.22739
0.23711 0.23711 0.23711
0.246845 0.246845 0.246845
0.256703 0.256703 0.256703
0.266728 0.266728 0.266728
0.276936 0.276936 0.276936
0.287465 0.287465 0.287465
0.297688 0.297688 0.297688
0.307958 0.307958 0.307958
0.318288 0.318288 0.318288
0.328664 0.328664 0.328664
0.339193 0.339193 0.339193
0.349844 0.349844 0.349844
0.360204 0.360204 0.360204
0.370535 0.370535 0.370535
0.38085 0.38085 0.38085
0.108827 0.108827 0.108827
0.115694 0.115694 0.115694
0.12253 0.12253 0.12253
0.129641 0.129641 0.129641
0.137163 0.137163 0.137163
0.144961 0.144961 0.144961
0.152834 0.152834 0.152834
0.161151 0.161151 0.161151
0.169482 0.169482 0.169482
0.178149 0.178149 0.178149
0.187015 0.187015 0.187015
0.195956 0.195956 0.195956
0.205005 0.205005 0.205005
0.214649 0.214649 0.214649
0.224201 0.224201 0.224201
0.23389 0.23389 0.23389
0.24361 0.24361 0.24361
0.253422 0.253422 0.253422
0.263767 0.263767 0.263767
0.273899 0.273899 0.273899
0.284092 0.284092 0.284092
0.294301 0.294301 0.294301
0.304555 0.304555 0.304555
0.3149 0.3149 0.3149
0.325628 0.325628 0.325628
0.336019 0.336019 0.336019
0.34641 0.34641 0.34641
0.356771 0.356771 0.356771
0.367117 0.367117 0.367117
0.377554 0.377554 0.377554
0.388144 0.388144 0.388144
0.398428 0.398428 0.398428
0.408652 0.408652 0.408652
0.127245 0.127245 0.127245
0.13463 0.13463 0.13463
0.14258 0.14258 0.14258
0.15053 0.15053 0.15053
0.15848 0.15848 0.15848
0.16669 0.16669 0.16669
0.17525 0.17525 0.17525
0.18407 0.18407 0.18407
0.193301 0.193301 0.193301
0.202335 0.202335 0.202335
0.211551 0.211551 0.211551
0.221027 0.221027 0.221027
0.230671 0.230671 0.230671
0.240391 0.240391 0.240391
0.250538 0.250538 0.250538
0.260456 0.260456 0.260456
0.270527 0.270527 0.270527
0.280705 0.280705 0.280705
0.290913 0.290913 0.290913
0.301183 0.301183 0.301183
0.311833 0.311833 0.311833
0.322179 0.322179 0.322179
0.33257 0.33257 0.33257
0.342962 0.342962 0.342962
0.353338 0.353338 0.353338
0.364096 0.364096 0.364096
0.374411 0.374411 0.374411
0.384726 0.384726 0.384726
0.395026 0.395026 0.395026
0.405264 0.405264 0.405264
0.415518 0.415518 0.415518
0.425849 0.425849 0.425849
0.435874 0.435874 0.435874
0.147921 0.147921 0.147921
0.155825 0.155825 0.155825
0.163928 0.163928 0.163928
0.17261 0.17261 0.17261
0.181476 0.181476 0.181476
0.190372 0.190372 0.190372
0.199344 0.199344 0.199344
0.208469 0.208469 0.208469
0.217853 0.217853 0.217853
0.227787 0.227787 0.227787
0.237537 0.237537 0.237537
0.247288 0.247288 0.247288
0.257145 0.257145 0.257145
0.26717 0.26717 0.26717
0.277333 0.277333 0.277333
0.287922 0.287922 0.287922
0.298146 0.298146 0.298146
0.308415 0.308415 0.308415
0.318761 0.318761 0.318761
0.329137 0.329137 0.329137
0.339544 0.339544 0.339544
0.350301 0.350301 0.350301
0.360662 0.360662 0.360662
0.370993 0.370993 0.370993
0.381308 0.381308 0.381308
0.391623 0.391623 0.391623
0.401984 0.401984 0.401984
0.412451 0.412451 0.412451
0.422538 0.422538 0.422538
0.432563 0.432563 0.432563
0.442557 0.442557 0.442557
0.452491 0.452491 0.452491
0.462654 0.462654 0.462654
0.169863 0.169863 0.169863
0.178546 0.178546 0.178546
0.187427 0.187427 0.187427
0.196353 0.196353 0.196353
0.205417 0.205417 0.205417
0.215076 0.215076 0.215076
0.224628 0.224628 0.224628
0.234318 0.234318 0.234318
0.244053 0.244053 0.244053
0.253864 0.253864 0.253864
0.264164 0.264164 0.264164
0.274357 0.274357 0.274357
0.28455 0.28455 0.28455
0.294759 0.294759 0.294759
0.305013 0.305013 0.305013
0.315328 0.315328 0.315328
0.326085 0.326085 0.326085
0.336477 0.336477 0.336477
0.346868 0.346868 0.346868
0.357244 0.357244 0.357244
0.367575 0.367575 0.367575
0.377905 0.377905 0.377905
0.388602 0.388602 0.388602
0.398886 0.398886 0.398886
0.409094 0.409094 0.409094
0.419211 0.419211 0.419211
0.429236 0.429236 0.429236
0.439323 0.439323 0.439323
0.449607 0.449607 0.449607
0.459434 0.459434 0.459434
0.469108 0.469108 0.469108
0.478706 0.478706 0.478706
0.488258 0.488258 0.488258
0.193606 0.193606 0.193606
0.202747 0.202747 0.202747
0.211963 0.211963 0.211963
0.221454 0.221454 0.221454
0.231113 0.231113 0.231113
0.240818 0.240818 0.240818
0.250904 0.250904 0.250904
0.260899 0.260899 0.260899
0.270985 0.270985 0.270985
0.281163 0.281163 0.281163
0.291371 0.291371 0.291371
0.30161 0.30161 0.30161
0.312291 0.312291 0.312291
0.322652 0.322652 0.322652
0.333043 0.333043 0.333043
0.343435 0.343435 0.343435
0.353811 0.353811 0.353811
0.364538 0.364538 0.364538
0.374884 0.374884 0.374884
0.385183 0.385183 0.385183
0.395499 0.395499 0.395499
0.405737 0.405737 0.405737
0.415869 0.415869 0.415869
0.426307 0.426307 0.426307
0.436316 0.436316 0.436316
0.446311 0.446311 0.446311
0.456199 0.456199 0.456199
0.465919 0.465919 0.465919
0.475578 0.475578 0.475578
0.485466 0.485466 0.485466
0.494972 0.494972 0.494972
0.504341 0.504341 0.504341
0.513527 0.513527 0.513527
0.21828 0.21828 0.21828
0.228122 0.228122 0.228122
0.23798 0.23798 0.23798
0.24773 0.24773 0.24773
0.257603 0.257603 0.257603
0.267628 0.267628 0.267628
0.27779 0.27779 0.27779
0.288289 0.288289 0.288289
0.298604 0.298604 0.298604
0.308873 0.308873 0.308873
0.319219 0.319219 0.319219
0.329595 0.329595 0.329595
0.339986 0.339986 0.339986
0.350744 0.350744 0.350744
0.361135 0.361135 0.361135
0.371466 0.371466 0.371466
0.381781 0.381781 0.381781
0.392081 0.392081 0.392081
0.40235 0.40235 0.40235
0.412909 0.412909 0.412909
0.42298 0.42298 0.42298
0.433005 0.433005 0.433005
0.443015 0.443015 0.443015
0.452934 0.452934 0.452934
0.463096 0.463096 0.463096
0.472724 0.472724 0.472724
0.482292 0.482292 0.482292
0.491829 0.491829 0.491829
0.501259 0.501259 0.501259
0.510536 0.510536 0.510536
0.519936 0.519936 0.519936
0.528954 0.528954 0.528954
0.537926 0.537926 0.537926
0.244495 0.244495 0.244495
0.254307 0.254307 0.254307
0.2645 0.2645 0.2645
0.274815 0.274815 0.274815
0.285008 0.285008 0.285008
0.295216 0.295216 0.295216
0.30547 0.30547 0.30547
0.315785 0.315785 0.315785
0.326452 0.326452 0.326452
0.33695 0.33695 0.33695
0.347326 0.347326 0.347326
0.357702 0.357702 0.357702
0.368048 0.368048 0.368048
0.378363 0.378363 0.378363
0.389029 0.389029 0.389029
0.399359 0.399359 0.399359
0.409552 0.409552 0.409552
0.419654 0.419654 0.419654
0.429694 0.429694 0.429694
0.439704 0.439704 0.439704
0.45005 0.45005 0.45005
0.459876 0.459876 0.459876
0.469551 0.469551 0.469551
0.479133 0.479133 0.479133
0.488685 0.488685 0.488685
0.498177 0.498177 0.498177
0.50782 0.50782 0.50782
0.516945 0.516945 0.516945
0.525963 0.525963 0.525963
0.534966 0.534966 0.534966
0.543847 0.543847 0.543847
0.552865 0.552865 0.552865
0.561364 0.561364 0.561364
0.271443 0.271443 0.271443
0.281621 0.281621 0.281621
0.291829 0.291829 0.291829
0.302068 0.302068 0.302068
0.312764 0.312764 0.312764
0.323125 0.323125 0.323125
0.333501 0.333501 0.333501
0.343893 0.343893 0.343893
0.354269 0.354269 0.354269
0.364889 0.364889 0.364889
0.375341 0.375341 0.375341
0.385657 0.385657 0.385657
0.395956 0.395956 0.395956
0.406195 0.406195 0.406195
0.416327 0.416327 0.416327
0.426703 0.426703 0.426703
0.436774 0.436774 0.436774
0.446769 0.446769 0.446769
0.456626 0.456626 0.456626
0.466361 0.466361 0.466361
0.475959 0.475959 0.475959
0.485893 0.485893 0.485893
0.495399 0.495399 0.495399
0.504753 0.504753 0.504753
0.513939 0.513939 0.513939
0.522988 0.522988 0.522988
0.531991 0.531991 0.531991
0.541268 0.541268 0.541268
0.550011 0.550011 0.550011
0.558572 0.558572 0.558572
0.566995 0.566995 0.566995
0.575372 0.575372 0.575372
0.583734 0.583734 0.583734
0.299077 0.299077 0.299077
0.309346 0.309346 0.309346
0.319677 0.319677 0.319677
0.330068 0.330068 0.330068
0.340459 0.340459 0.340459
0.351095 0.351095 0.351095
0.361593 0.361593 0.361593
0.371923 0.371923 0.371923
0.382239 0.382239 0.382239
0.392554 0.392554 0.392554
0.402808 0.402808 0.402808
0.413367 0.413367 0.413367
0.423438 0.423438 0.423438
0.433463 0.433463 0.433463
0.443458 0.443458 0.443458
0.453376 0.453376 0.453376
0.463447 0.463447 0.463447
0.473152 0.473152 0.473152
0.482734 0.482734 0.482734
0.492256 0.492256 0.492256
0.501686 0.501686 0.501686
0.510918 0.510918 0.510918
0.520348 0.520348 0.520348
0.529351 0.529351 0.529351
0.538323 0.538323 0.538323
0.547143 0.547143 0.547143
0.555764 0.555764 0.555764
0.564202 0.564202 0.564202
0.572915 0.572915 0.572915
0.581262 0.581262 0.581262
0.589426 0.589426 0.589426
0.597391 0.597391 0.597391
0.605203 0.605203 0.605203
0.326802 0.326802 0.326802
0.337407 0.337407 0.337407
0.347799 0.347799 0.347799
0.35816 0.35816 0.35816
0.368505 0.368505 0.368505
0.378836 0.378836 0.378836
0.38938 0.38938 0.38938
0.399817 0.399817 0.399817
0.41001 0.41001 0.41001
0.420111 0.420111 0.420111
0.430152 0.430152 0.430152
0.440162 0.440162 0.440162
0.450401 0.450401 0.450401
0.460304 0.460304 0.460304
0.469978 0.469978 0.469978
0.479561 0.479561 0.479561
0.489113 0.489113 0.489113
0.498589 0.498589 0.498589
0.508232 0.508232 0.508232
0.517357 0.517357 0.517357
0.526375 0.526375 0.526375
0.535363 0.535363 0.535363
0.544244 0.544244 0.544244
0.553231 0.553231 0.553231
0.561746 0.561746 0.561746
0.570153 0.570153 0.570153
0.5785 0.5785 0.5785
0.58674 0.58674 0.58674
0.594781 0.594781 0.594781
0.602914 0.602914 0.602914
0.610697 0.610697 0.610697
0.618418 0.618418 0.618418
0.626001 0.626001 0.626001
0.354742 0.354742 0.354742
0.36524 0.36524 0.36524
0.375799 0.375799 0.375799
0.386114 0.386114 0.386114
0.396414 0.396414 0.396414
0.406638 0.406638 0.406638
0.41677 0.41677 0.41677
0.427039 0.427039 0.427039
0.437232 0.437232 0.437232
0.447211 0.447211 0.447211
0.457084 0.457084 0.457084
0.466789 0.466789 0.466789
0.476387 0.476387 0.476387
0.486229 0.486229 0.486229
0.495827 0.495827 0.495827
0.50518 0.50518 0.50518
0.514351 0.514351 0.514351
0.523384 0.523384 0.523384
0.532403 0.532403 0.532403
0.541634 0.541634 0.541634
0.550408 0.550408 0.550408
0.558953 0.558953 0.558953
0.567361 0.567361 0.567361
0.575753 0.575753 0.575753
0.584039 0.584039 0.584039
0.592447 0.592447 0.592447
0.600336 0.600336 0.600336
0.608118 0.608118 0.608118
0.615869 0.615869 0.615869
0.623514 0.623514 0.623514
0.631235 0.631235 0.631235
0.638468 0.638468 0.638468
0.645624 0.645624 0.645624
0.382712 0.382712 0.382712
0.393011 0.393011 0.393011
0.403265 0.403265 0.403265
0.413825 0.413825 0.413825
0.42388 0.42388 0.42388
0.433906 0.433906 0.433906
0.4439 0.4439 0.4439
0.453819 0.453819 0.453819
0.463783 0.463783 0.463783
0.473579 0.473579 0.473579
0.483162 0.483162 0.483162
0.492683 0.492683 0.492683
0.502098 0.502098 0.502098
0.51133 0.51133 0.51133
0.520653 0.520653 0.520653
0.529763 0.529763 0.529763
0.53872 0.53872 0.53872
0.547539 0.547539 0.547539
0.55613 0.55613 0.55613
0.564584 0.564584 0.564584
0.573251 0.573251 0.573251
0.581628 0.581628 0.581628
0.589792 0.589792 0.589792
0.597742 0.597742 0.597742
0.605554 0.605554 0.605554
0.613306 0.613306 0.613306
0.621286 0.621286 0.621286
0.628794 0.628794 0.628794
0.636088 0.636088 0.636088
0.643259 0.643259 0.643259
0.650385 0.650385 0.650385
0.657435 0.657435 0.657435
0.66453 0.66453 0.66453
0.410468 0.410468 0.410468
0.420569 0.420569 0.420569
0.430594 0.430594 0.430594
0.440604 0.440604 0.440604
0.450736 0.450736 0.450736
0.460746 0.460746 0.460746
0.470405 0.470405 0.470405
0.479988 0.479988 0.479988
0.48954 0.48954 0.48954
0.499001 0.499001 0.499001
0.508644 0.508644 0.508644
0.517754 0.517754 0.517754
0.526772 0.526772 0.526772
0.53576 0.53576 0.53576
0.54464 0.54464 0.54464
0.553521 0.553521 0.553521
0.562127 0.562127 0.562127
0.57052 0.57052 0.57052
0.578882 0.578882 0.578882
0.587106 0.587106 0.587106
0.595132 0.595132 0.595132
0.60322 0.60322 0.60322
0.611032 0.611032 0.611032
0.618769 0.618769 0.618769
0.626337 0.626337 0.626337
0.633692 0.633692 0.633692
0.640894 0.640894 0.640894
0.64831 0.64831 0.64831
0.655375 0.655375 0.655375
0.662303 0.662303 0.662303
0.669001 0.669001 0.669001
0.675578 0.675578 0.675578
0.682094 0.682094 0.682094
0.437675 0.437675 0.437675
0.447654 0.447654 0.447654
0.457511 0.457511 0.457511
0.467231 0.467231 0.467231
0.476829 0.476829 0.476829
0.486549 0.486549 0.486549
0.496239 0.496239 0.496239
0.505592 0.505592 0.505592
0.514763 0.514763 0.514763
0.523796 0.523796 0.523796
0.532799 0.532799 0.532799
0.541939 0.541939 0.541939
0.55079 0.55079 0.55079
0.559335 0.559335 0.559335
0.567742 0.567742 0.567742
0.57612 0.57612 0.57612
0.584405 0.584405 0.584405
0.592798 0.592798 0.592798
0.600687 0.600687 0.600687
0.608469 0.608469 0.608469
0.61622 0.61622 0.61622
0.62385 0.62385 0.62385
0.631495 0.631495 0.631495
0.638788 0.638788 0.638788
0.645945 0.645945 0.645945
0.653056 0.653056 0.653056
0.660029 0.660029 0.660029
0.666804 0.666804 0.666804
0.673655 0.673655 0.673655
0.680186 0.680186 0.680186
0.686671 0.686671 0.686671
0.693019 0.693019 0.693019
0.699168 0.699168 0.699168
0.464118 0.464118 0.464118
0.474022 0.474022 0.474022
0.483589 0.483589 0.483589
0.493111 0.493111 0.493111
0.502525 0.502525 0.502525
0.511742 0.511742 0.511742
0.520943 0.520943 0.520943
0.530159 0.530159 0.530159
0.539117 0.539117 0.539117
0.547921 0.547921 0.547921
0.556527 0.556527 0.556527
0.564965 0.564965 0.564965
0.573541 0.573541 0.573541
0.581994 0.581994 0.581994
0.590143 0.590143 0.590143
0.598093 0.598093 0.598093
0.60589 0.60589 0.60589
0.613657 0.613657 0.613657
0.621561 0.621561 0.621561
0.629129 0.629129 0.629129
0.636408 0.636408 0.636408
0.64358 0.64358 0.64358
0.650706 0.650706 0.650706
0.65774 0.65774 0.65774
0.664851 0.664851 0.664851
0.671489 0.671489 0.671489
0.678035 0.678035 0.678035
0.684535 0.684535 0.684535
0.690929 0.690929 0.690929
0.697368 0.697368 0.697368
0.70341 0.70341 0.70341
0.709361 0.709361 0.709361
0.715267 0.715267 0.715267
0.489967 0.489967 0.489967
0.499428 0.499428 0.499428
0.509056 0.509056 0.509056
0.518166 0.518166 0.518166
0.527184 0.527184 0.527184
0.536171 0.536171 0.536171
0.545037 0.545037 0.545037
0.553811 0.553811 0.553811
0.562509 0.562509 0.562509
0.570901 0.570901 0.570901
0.579248 0.579248 0.579248
0.587472 0.587472 0.587472
0.595483 0.595483 0.595483
0.603479 0.603479 0.603479
0.611399 0.611399 0.611399
0.619104 0.619104 0.619104
0.626673 0.626673 0.626673
0.634028 0.634028 0.634028
0.641215 0.641215 0.641215
0.648554 0.648554 0.648554
0.655695 0.655695 0.655695
0.662608 0.662608 0.662608
0.669306 0.669306 0.669306
0.675868 0.675868 0.675868
0.682383 0.682383 0.682383
0.689052 0.689052 0.689052
0.695354 0.695354 0.695354
0.701427 0.701427 0.701427
0.707393 0.707393 0.707393
0.713314 0.713314 0.713314
0.719158 0.719158 0.719158
0.725048 0.725048 0.725048
0.730541 0.730541 0.730541
0.515175 0.515175 0.515175
0.524208 0.524208 0.524208
0.533196 0.533196 0.533196
0.542229 0.542229 0.542229
0.551186 0.551186 0.551186
0.559701 0.559701 0.559701
0.568124 0.568124 0.568124
0.576501 0.576501 0.576501
0.584772 0.584772 0.584772
0.593164 0.593164 0.593164
0.601038 0.601038 0.601038
0.60882 0.60882 0.60882
0.616571 0.616571 0.616571
0.624186 0.624186 0.624186
0.631754 0.631754 0.631754
0.639124 0.639124 0.639124
0.646265 0.646265 0.646265
0.653361 0.653361 0.653361
0.660334 0.660334 0.660334
0.667109 0.667109 0.667109
0.673869 0.673869 0.673869
0.680476 0.680476 0.680476
0.686961 0.686961 0.686961
0.693294 0.693294 0.693294
0.699443 0.699443 0.699443
0.705425 0.705425 0.705425
0.711559 0.711559 0.711559
0.717464 0.717464 0.717464
0.723186 0.723186 0.723186
0.72874 0.72874 0.72874
0.734142 0.734142 0.734142
0.739513 0.739513 0.739513
0.745022 0.745022 0.745022
0.539528 0.539528 0.539528
0.548318 0.548318 0.548318
0.556909 0.556909 0.556909
0.565347 0.565347 0.565347
0.573816 0.573816 0.573816
0.582361 0.582361 0.582361
0.590509 0.590509 0.590509
0.598444 0.598444 0.598444
0.606241 0.606241 0.606241
0.614008 0.614008 0.614008
0.62182 0.62182 0.62182
0.629465 0.629465 0.629465
0.636744 0.636744 0.636744
0.6439 0.6439 0.6439
0.651026 0.651026 0.651026
0.658045 0.658045 0.658045
0.665141 0.665141 0.665141
0.671778 0.671778 0.671778
0.678325 0.678325 0.678325
0.684825 0.684825 0.684825
0.691218 0.691218 0.691218
0.697566 0.697566 0.697566
0.703685 0.703685 0.703685
0.709621 0.709621 0.709621
0.715526 0.715526 0.715526
0.721309 0.721309 0.721309
0.726909 0.726909 0.726909
0.732525 0.732525 0.732525
0.737942 0.737942 0.737942
0.743282 0.743282 0.743282
0.748501 0.748501 0.748501
0.753536 0.753536 0.753536
0.758419 0.758419 0.758419
0.56289 0.56289 0.56289
0.571283 0.571283 0.571283
0.579629 0.579629 0.579629
0.587839 0.587839 0.587839
0.595834 0.595834 0.595834
0.603738 0.603738 0.603738
0.611734 0.611734 0.611734
0.619455 0.619455 0.619455
0.627008 0.627008 0.627008
0.634348 0.634348 0.634348
0.641535 0.641535 0.641535
0.648783 0.648783 0.648783
0.656016 0.656016 0.656016
0.662913 0.662913 0.662913
0.669596 0.669596 0.669596
0.676158 0.676158 0.676158
0.682673 0.682673 0.682673
0.689265 0.689265 0.689265
0.695628 0.695628 0.695628
0.701701 0.701701 0.701701
0.707652 0.707652 0.707652
0.713588 0.713588 0.713588
0.719417 0.719417 0.719417
0.725292 0.725292 0.725292
0.730785 0.730785 0.730785
0.736171 0.736171 0.736171
0.741527 0.741527 0.741527
0.746792 0.746792 0.746792
0.752026 0.752026 0.752026
