static/luts/BW Journalist.cube
TITLE "Generated by Resolve"
LUT_3D_SIZE 5
#LUT data points
0.0296788 0.0296788 0.0296788
0.0452735 0.0452735 0.0452735
0.0771038 0.0771038 0.0771038
0.126284 0.126284 0.126284
0.192142 0.192142 0.192142
0.108827 0.108827 0.108827
0.169482 0.169482 0.169482
0.24361 0.24361 0.24361
0.325628 0.325628 0.325628
0.408652 0.408652 0.408652
0.299077 0.299077 0.299077
0.382239 0.382239 0.382239
0.463447 0.463447 0.463447
0.538323 0.538323 0.538323
0.605203 0.605203 0.605203
0.515175 0.515175 0.515175
0.584772 0.584772 0.584772
0.646265 0.646265 0.646265
0.699443 0.699443 0.699443
0.745022 0.745022 0.745022
0.683268 0.683268 0.683268
0.731258 0.731258 0.731258
0.771817 0.771817 0.771817
0.805707 0.805707 0.805707
0.833707 0.833707 0.833707
0.0440375 0.0440375 0.0440375
0.0745708 0.0745708 0.0745708
0.123079 0.123079 0.123079
0.187747 0.187747 0.187747
0.264439 0.264439 0.264439
0.165347 0.165347 0.165347
0.23917 0.23917 0.23917
0.320516 0.320516 0.320516
0.403616 0.403616 0.403616
0.483482 0.483482 0.483482
0.37734 0.37734 0.37734
0.458732 0.458732 0.458732
0.533913 0.533913 0.533913
0.601663 0.601663 0.601663
0.660883 0.660883 0.660883
0.581033 0.581033 0.581033
0.642741 0.642741 0.642741
0.696666 0.696666 0.696666
0.742428 0.742428 0.742428
0.781109 0.781109 0.781109
0.728588 0.728588 0.728588
0.769543 0.769543 0.769543
0.803861 0.803861 0.803861
0.832181 0.832181 0.832181
0.855146 0.855146 0.855146
0.0723278 0.0723278 0.0723278
0.119707 0.119707 0.119707
0.183444 0.183444 0.183444
0.259648 0.259648 0.259648
0.342138 0.342138 0.342138
0.234409 0.234409 0.234409
0.315404 0.315404 0.315404
0.398978 0.398978 0.398978
0.478782 0.478782 0.478782
0.55256 0.55256 0.55256
0.45391 0.45391 0.45391
0.529839 0.529839 0.529839
0.597803 0.597803 0.597803
0.657481 0.657481 0.657481
0.709133 0.709133 0.709133
0.639506 0.639506 0.639506
0.693629 0.693629 0.693629
0.739803 0.739803 0.739803
0.779126 0.779126 0.779126
0.81181 0.81181 0.81181
0.767361 0.767361 0.767361
0.801953 0.801953 0.801953
0.830747 0.830747 0.830747
0.853864 0.853864 0.853864
0.872251 0.872251 0.872251
0.116396 0.116396 0.116396
0.179339 0.179339 0.179339
0.254749 0.254749 0.254749
0.337407 0.337407 0.337407
0.420111 0.420111 0.420111
0.310719 0.310719 0.310719
0.393927 0.393927 0.393927
0.474434 0.474434 0.474434
0.548302 0.548302 0.548302
0.613993 0.613993 0.613993
0.525399 0.525399 0.525399
0.59411 0.59411 0.59411
0.654307 0.654307 0.654307
0.706218 0.706218 0.706218
0.750851 0.750851 0.750851
0.690547 0.690547 0.690547
0.737377 0.737377 0.737377
0.776944 0.776944 0.776944
0.810086 0.810086 0.810086
0.837156 0.837156 0.837156
0.800183 0.800183 0.800183
0.82916 0.82916 0.82916
0.852598 0.852598 0.852598
0.87129 0.87129 0.87129
0.885496 0.885496 0.885496
0.175021 0.175021 0.175021
0.250278 0.250278 0.250278
0.332296 0.332296 0.332296
0.415305 0.415305 0.415305
0.494301 0.494301 0.494301
0.389166 0.389166 0.389166
0.469718 0.469718 0.469718
0.543999 0.543999 0.543999
0.610468 0.610468 0.610468
0.668528 0.668528 0.668528
0.590295 0.590295 0.590295
0.650828 0.650828 0.650828
0.703517 0.703517 0.703517
0.748348 0.748348 0.748348
0.786068 0.786068 0.786068
0.734722 0.734722 0.734722
0.774914 0.774914 0.774914
0.80824 0.80824 0.80824
0.83566 0.83566 0.83566
0.857984 0.857984 0.857984
0.827558 0.827558 0.827558
0.851362 0.851362 0.851362
0.870298 0.870298 0.870298
0.88481 0.88481 0.88481
0.895171 0.895171 0.895171
