static/luts/Warm Haze.cube
#Created by: Adobe Photoshop Export Color Lookup Plugin
#Copyright: (C) Copyright 2018 https://www.presetpro.com and Tim Martin
TITLE "Presetpro - Warm Haze"
#LUT size
LUT_3D_SIZE 8
#data domain
#LUT data points
DOMAIN_MIN 0.000000 0.000000 0.000000
DOMAIN_MAX 0.903226 0.903226 0.903226
0.106873 0.091064 0.076080
0.215424 0.099792 0.076233
0.370941 0.111694 0.073914
0.527130 0.116760 0.067535
0.646698 0.115906 0.060852
0.743958 0.114258 0.055176
0.821136 0.117249 0.051910
0.895508 0.121216 0.051880
0.111084 0.196075 0.087219
0.206482 0.194946 0.085480
0.343903 0.203766 0.082672
0.506104 0.214386 0.075836
0.655060 0.219727 0.065918
0.764465 0.221741 0.058167
0.847168 0.224426 0.054077
0.922546 0.228424 0.052643
0.075165 0.342621 0.094940
0.200897 0.335419 0.092804
0.354584 0.339661 0.087738
0.521088 0.350159 0.078247
0.677765 0.357178 0.065308
0.793579 0.358887 0.054565
0.881683 0.359558 0.048981
0.956879 0.360931 0.045715
0.000000 0.475006 0.094238
0.171448 0.470947 0.092316
0.352875 0.478241 0.085205
0.527985 0.491058 0.072571
0.690002 0.501221 0.055084
0.816101 0.505005 0.038666
0.911804 0.506042 0.028625
0.973053 0.506073 0.026520
0.000000 0.590546 0.090515
0.107361 0.591064 0.087982
0.341278 0.601044 0.078918
0.525299 0.616852 0.062134
0.693878 0.630676 0.037079
0.827789 0.637573 0.016571
0.931305 0.640778 0.005890
0.973053 0.641571 0.007080
0.000000 0.685150 0.089020
0.077148 0.690521 0.086304
0.325165 0.704407 0.077667
0.516968 0.724365 0.060364
0.689606 0.742523 0.033569
0.831512 0.754059 0.010010
0.937134 0.760345 0.000763
0.973053 0.762878 0.003021
0.000000 0.767365 0.100067
0.036987 0.778839 0.096436
0.308441 0.795837 0.088135
0.507599 0.817535 0.073578
0.682098 0.836548 0.053040
0.829041 0.849548 0.030792
0.937134 0.857025 0.019745
0.973053 0.860291 0.024170
0.000000 0.842926 0.117157
0.035919 0.855469 0.114471
0.296143 0.871826 0.109100
0.500183 0.895050 0.099152
0.674988 0.916870 0.086548
0.825592 0.934021 0.075439
0.937134 0.944763 0.073181
0.973053 0.951141 0.079834
0.103943 0.095581 0.155640
0.192719 0.102325 0.173553
0.311218 0.111115 0.178436
0.446899 0.118011 0.175232
0.585052 0.120239 0.172180
0.694733 0.118927 0.170441
0.789886 0.117401 0.170837
0.869507 0.119965 0.173767
0.108856 0.167023 0.139832
0.184631 0.169403 0.146729
0.301117 0.178741 0.150909
0.437744 0.190033 0.154541
0.584717 0.199066 0.156769
0.710876 0.203857 0.159149
0.812317 0.207367 0.162994
0.892578 0.211884 0.168213
0.092255 0.297516 0.151917
0.188232 0.292023 0.157166
0.318512 0.295868 0.159454
0.460663 0.306335 0.160919
0.610352 0.316742 0.161011
0.742523 0.323608 0.161865
0.845886 0.328247 0.164978
0.926270 0.332458 0.169891
0.007782 0.443024 0.160767
0.165405 0.437439 0.165771
0.324524 0.441895 0.166901
0.479095 0.453094 0.166779
0.635681 0.465027 0.165680
0.775146 0.472992 0.164734
0.880768 0.477448 0.166992
0.963135 0.480469 0.171478
0.000000 0.568268 0.166779
0.102234 0.566010 0.170593
0.315552 0.573517 0.171906
0.483887 0.587555 0.171783
0.648346 0.602295 0.169495
0.794739 0.612976 0.166718
0.903839 0.618286 0.168121
0.973053 0.621460 0.174164
0.000000 0.673309 0.174530
0.045471 0.678436 0.178497
0.297485 0.690765 0.179504
0.481018 0.708527 0.178589
0.652618 0.726654 0.175446
0.804993 0.739777 0.172882
0.917542 0.745636 0.175629
0.973053 0.748901 0.181946
0.000000 0.765411 0.188263
0.035919 0.775391 0.191772
0.277130 0.788849 0.193481
0.475464 0.807129 0.193512
0.651367 0.825958 0.191620
0.807465 0.841187 0.189423
0.922882 0.849304 0.191803
0.973053 0.854584 0.197601
0.000000 0.843506 0.209229
0.035919 0.855225 0.212555
0.261078 0.870819 0.214783
0.470245 0.892303 0.215210
0.648163 0.913940 0.214142
0.807037 0.932495 0.213135
0.924805 0.943207 0.215973
0.973053 0.950043 0.221649
0.098114 0.101349 0.296692
0.190094 0.105927 0.320923
0.297852 0.112335 0.325104
0.421539 0.118500 0.319885
0.556030 0.121582 0.316467
0.677094 0.120483 0.313965
0.770996 0.119171 0.313782
0.861145 0.118103 0.316010
0.102844 0.166229 0.239685
0.178650 0.168213 0.252014
0.284821 0.175507 0.262756
0.407898 0.185059 0.273285
0.549774 0.194153 0.282776
0.687042 0.199615 0.290527
0.788452 0.202942 0.297638
0.881012 0.206085 0.304810
0.085602 0.281281 0.247833
0.179535 0.278198 0.259430
0.298584 0.282776 0.267731
0.427185 0.291779 0.275970
0.572479 0.302155 0.284454
0.714844 0.310059 0.291534
0.818329 0.314911 0.298676
0.911194 0.319794 0.306244
0.006042 0.427155 0.260864
0.153595 0.422485 0.271149
0.302368 0.425568 0.279358
0.444855 0.434448 0.286041
0.598206 0.445923 0.293121
0.746765 0.455353 0.298981
0.852997 0.460266 0.305542
0.947327 0.464783 0.312744
0.000000 0.555450 0.271698
0.077332 0.553986 0.280945
0.290375 0.560242 0.288605
0.449921 0.571594 0.295349
0.613251 0.584961 0.301605
0.767365 0.596130 0.306641
0.877869 0.601654 0.312897
0.973053 0.606232 0.319916
0.000000 0.669403 0.283234
0.035919 0.674042 0.291321
0.265533 0.684296 0.299011
0.447235 0.698517 0.305908
0.620331 0.713715 0.311523
0.780212 0.726898 0.315979
0.894592 0.733154 0.322083
0.973053 0.738129 0.328949
0.000000 0.766815 0.298248
0.035919 0.773529 0.306030
0.238739 0.784668 0.312836
0.442444 0.800995 0.319305
0.622009 0.819366 0.324554
0.785583 0.835632 0.328766
0.903137 0.844086 0.334656
0.973053 0.850708 0.341461
0.000000 0.847626 0.317535
0.035919 0.858429 0.323822
0.212372 0.872711 0.330231
0.437927 0.892578 0.336334
0.621490 0.913635 0.341431
0.787628 0.931732 0.345581
0.907166 0.940460 0.351624
0.973053 0.947388 0.358459
0.098053 0.098236 0.442535
0.194519 0.100708 0.464172
0.293060 0.106110 0.463135
0.407837 0.111938 0.459656
0.538452 0.115479 0.457825
0.658722 0.115082 0.456146
0.756989 0.113556 0.455566
0.847626 0.111755 0.456848
0.096771 0.165253 0.365295
0.178650 0.166840 0.380005
0.277985 0.172699 0.393372
0.393005 0.180420 0.406647
0.529541 0.188385 0.419159
0.664215 0.193237 0.429474
0.771576 0.195831 0.437653
0.865875 0.198395 0.444946
0.076721 0.273987 0.370605
0.176392 0.271851 0.383972
0.287811 0.275208 0.396149
0.408142 0.282440 0.408875
0.548920 0.291870 0.420959
0.689087 0.299194 0.431335
0.798279 0.303955 0.439911
0.893951 0.308411 0.447815
0.001617 0.417542 0.385681
0.144714 0.413422 0.397797
0.287415 0.415588 0.409271
0.422211 0.421906 0.420746
0.571960 0.431580 0.431885
0.717651 0.439850 0.441559
0.830505 0.444946 0.449677
0.928040 0.449432 0.457275
0.000000 0.548859 0.398285
0.058563 0.547913 0.409576
0.269928 0.551788 0.420563
0.424377 0.559998 0.431580
0.586304 0.572021 0.441864
0.737671 0.581970 0.450775
0.855530 0.587769 0.458710
0.955627 0.592224 0.466339
0.000000 0.669250 0.411041
0.035919 0.672119 0.421387
0.234222 0.678192 0.431671
0.418915 0.688507 0.441956
0.592773 0.702637 0.451569
0.750488 0.714935 0.459900
0.872803 0.722137 0.467560
0.973053 0.727356 0.475128
0.000000 0.767822 0.424133
0.035919 0.773285 0.433319
0.190430 0.782928 0.442566
0.411224 0.797028 0.452301
0.594238 0.814270 0.461395
0.756714 0.829498 0.469330
0.882477 0.838837 0.476746
0.973053 0.845520 0.484009
0.000000 0.853912 0.438965
0.035919 0.863342 0.446747
0.128174 0.876068 0.455200
0.404449 0.892731 0.464417
0.594086 0.910614 0.472992
0.759827 0.926270 0.480469
0.887238 0.935699 0.487518
0.973053 0.942413 0.494629
0.113312 0.088684 0.564728
0.202850 0.091309 0.573608
0.293945 0.095764 0.574493
0.401245 0.100647 0.575897
0.526855 0.103760 0.578430
0.642792 0.103424 0.579742
0.745300 0.101349 0.581177
0.833527 0.099396 0.582977
0.101807 0.160614 0.483582
0.185699 0.162659 0.498871
0.277802 0.166931 0.513245
0.386658 0.173004 0.528412
0.516510 0.179535 0.543488
0.646790 0.183472 0.556274
0.758270 0.185516 0.565979
0.850281 0.187286 0.573608
0.081146 0.265167 0.487946
0.181671 0.263947 0.500488
0.284424 0.266541 0.513672
0.398651 0.272186 0.528137
0.532654 0.279999 0.542694
0.668365 0.286530 0.555695
0.781982 0.291321 0.566284
0.875824 0.295471 0.575470
0.002350 0.406769 0.505737
0.149445 0.403534 0.516754
0.281189 0.404358 0.528473
0.409821 0.409180 0.541412
0.553192 0.417328 0.555054
0.694397 0.424622 0.566956
0.812042 0.429749 0.576691
0.907928 0.433868 0.585083
0.000000 0.541382 0.520416
0.057037 0.539917 0.530823
0.258820 0.542358 0.541992
0.408844 0.548584 0.554291
0.565857 0.558655 0.566895
0.713470 0.567657 0.577942
0.836548 0.573792 0.587585
0.935242 0.577881 0.595978
0.000000 0.664185 0.533356
0.035919 0.664917 0.543030
0.215088 0.669647 0.553650
0.399445 0.678375 0.565399
0.570923 0.691040 0.577454
0.725647 0.702393 0.587921
0.853607 0.710114 0.597046
0.955414 0.715027 0.605347
0.000000 0.766724 0.544617
0.035919 0.771790 0.553741
0.143433 0.780090 0.563843
0.386993 0.792480 0.575195
0.571381 0.808319 0.586639
0.731842 0.822357 0.596680
0.863647 0.831421 0.605438
0.968048 0.836792 0.613434
0.000000 0.858948 0.556488
0.035919 0.866638 0.564758
0.087189 0.875824 0.574066
0.377472 0.889221 0.584747
0.571075 0.905243 0.595490
0.735382 0.919739 0.605042
0.868835 0.929749 0.613525
0.973053 0.936157 0.621307
0.135956 0.078003 0.658569
0.214539 0.080383 0.663391
0.299683 0.083527 0.667572
0.400574 0.087097 0.672546
0.520782 0.089233 0.678497
0.632446 0.088654 0.681366
0.736847 0.085907 0.683807
0.822693 0.083710 0.685822
0.115570 0.153687 0.590454
0.197205 0.155487 0.602783
0.282654 0.158630 0.615479
0.385712 0.163544 0.629822
0.509735 0.169037 0.644958
0.634766 0.172333 0.658051
0.747894 0.173584 0.668579
0.837769 0.175354 0.676605
0.099091 0.255035 0.596344
0.193115 0.254456 0.607330
0.287231 0.256439 0.619354
0.395294 0.261536 0.633240
0.523132 0.268402 0.647980
0.653625 0.274017 0.661194
0.768951 0.277863 0.672028
0.860474 0.281403 0.680695
0.011993 0.394684 0.616364
0.166229 0.392090 0.626129
0.282684 0.392670 0.636993
0.404449 0.396362 0.649597
0.541260 0.403198 0.663330
0.677307 0.409546 0.675720
0.796936 0.414520 0.686035
0.890656 0.418213 0.694183
0.000000 0.531677 0.633179
0.074341 0.530548 0.642517
0.258423 0.532349 0.653198
0.401642 0.537445 0.665314
0.552490 0.546112 0.678284
0.695526 0.554077 0.689972
0.820953 0.560181 0.699738
0.917572 0.563782 0.707672
0.000000 0.655731 0.646576
0.035919 0.657135 0.655579
0.210297 0.661163 0.665802
0.389587 0.668610 0.677673
0.555878 0.679810 0.690125
0.706726 0.690033 0.701263
0.837433 0.697723 0.710663
0.937347 0.702087 0.718384
0.000000 0.765137 0.657898
0.035919 0.769562 0.666321
0.115662 0.776642 0.676147
0.372894 0.787354 0.687622
0.554810 0.800537 0.699463
0.712433 0.812225 0.710022
0.847382 0.821350 0.718994
0.950104 0.825867 0.726471
0.000000 0.860474 0.667969
0.035919 0.865356 0.675537
0.083008 0.872650 0.684479
0.360901 0.884583 0.695404
0.553833 0.899170 0.706512
0.715790 0.912445 0.716583
0.852692 0.922577 0.725220
0.957428 0.928467 0.732574
0.156219 0.068573 0.731110
0.226807 0.070221 0.735718
0.308136 0.072723 0.740875
0.404144 0.075439 0.746674
0.518799 0.076782 0.753662
0.626312 0.075317 0.758636
0.729858 0.071533 0.763275
0.814667 0.068542 0.766479
0.137695 0.145020 0.685181
0.211884 0.146393 0.695435
0.291962 0.148834 0.706848
0.389771 0.152863 0.719940
0.508423 0.157532 0.734314
0.628204 0.160370 0.746857
0.739746 0.161163 0.757172
0.828613 0.162750 0.764801
0.125946 0.244568 0.689941
0.208862 0.245422 0.700531
0.295013 0.247650 0.712311
0.397919 0.251862 0.726044
0.519897 0.257690 0.740723
0.645294 0.262512 0.754242
0.759491 0.265961 0.765381
0.849579 0.268768 0.773987
0.069580 0.381531 0.710815
0.188049 0.380280 0.720032
0.290741 0.380951 0.730591
0.405945 0.384003 0.743469
0.536011 0.390045 0.757904
0.667114 0.395691 0.771210
0.785858 0.400391 0.781677
0.877716 0.403748 0.789886
0.000000 0.520416 0.729858
0.120972 0.520172 0.738739
0.267273 0.521973 0.748962
0.402313 0.526459 0.761414
0.545898 0.534058 0.775116
0.684174 0.541199 0.787659
0.809296 0.547119 0.798492
0.903839 0.550446 0.806763
0.000000 0.647064 0.744354
0.035919 0.648499 0.752869
0.220551 0.652161 0.762970
0.389282 0.658905 0.775238
0.547821 0.668671 0.788452
0.694275 0.677948 0.800507
0.825012 0.685547 0.810974
0.922974 0.689575 0.819122
0.000000 0.761993 0.756378
0.035919 0.765930 0.764587
0.125031 0.771240 0.774170
0.370453 0.780151 0.786163
0.545288 0.791718 0.798920
0.699158 0.801666 0.810303
0.834503 0.809692 0.820221
0.935333 0.813721 0.828064
0.000000 0.857452 0.765381
0.035919 0.862000 0.773102
0.083801 0.868225 0.782043
0.355896 0.879303 0.793671
0.542999 0.892578 0.805817
0.701782 0.904999 0.817078
0.839630 0.915131 0.826752
0.942719 0.920654 0.834534
0.176727 0.057281 0.801056
0.241760 0.058319 0.805389
0.318634 0.060120 0.810913
0.411346 0.062042 0.817383
0.520599 0.062347 0.824860
0.623474 0.060150 0.830292
0.724792 0.055542 0.835571
0.808990 0.051636 0.839203
0.159943 0.137085 0.760895
0.226685 0.138245 0.769104
0.304108 0.140411 0.779236
0.397156 0.143768 0.791656
0.511200 0.147522 0.805908
0.625305 0.149780 0.818604
0.733917 0.150238 0.829254
0.821960 0.151123 0.837219
0.152496 0.236481 0.771118
0.225220 0.237335 0.778870
0.306854 0.239441 0.788361
0.404694 0.243164 0.800415
0.521637 0.248230 0.814209
0.641113 0.252441 0.826965
0.752258 0.255585 0.837799
0.841492 0.258301 0.846039
0.120087 0.369598 0.795868
0.210358 0.369019 0.802612
0.303436 0.370178 0.811157
0.412506 0.373138 0.822083
0.536224 0.378387 0.834717
0.662109 0.383331 0.846558
0.776978 0.387634 0.856598
0.868011 0.390869 0.864258
0.013550 0.510406 0.819489
0.162354 0.510406 0.826111
0.282227 0.512115 0.834381
0.409821 0.516205 0.845093
0.545532 0.522888 0.857025
0.678436 0.529236 0.868164
0.799744 0.534576 0.877655
0.893402 0.537598 0.884613
0.000000 0.639038 0.837189
0.051758 0.640381 0.843658
0.240173 0.643402 0.851715
0.397461 0.649597 0.862366
0.546722 0.658203 0.874084
0.687744 0.666504 0.884918
0.815369 0.672882 0.894012
0.911835 0.676117 0.900665
0.000000 0.757172 0.850128
0.035919 0.760254 0.857697
0.161682 0.764343 0.865326
0.378723 0.772186 0.875702
0.543579 0.781555 0.886749
0.692139 0.790497 0.897034
0.825317 0.798126 0.905945
0.924103 0.801819 0.912476
0.000000 0.854126 0.859131
0.035919 0.858490 0.866425
0.089752 0.863922 0.874481
0.362122 0.874207 0.884674
0.539734 0.886108 0.895355
0.694031 0.897522 0.905365
0.830475 0.907227 0.914062
0.931488 0.912354 0.920593
