static/luts/Warm Haze.cube
#Created by: Adobe Photoshop Export Color Lookup Plugin
#Copyright: (C) Copyright 2018 https://www.presetpro.com and Tim Martin
TITLE "Presetpro - Warm Haze"
#LUT size
LUT_3D_SIZE 5
#data domain
#LUT data points
DOMAIN_MIN 0.000000 0.000000 0.000000
DOMAIN_MAX 0.903226 0.903226 0.903226
0.106873 0.091064 0.076080
0.328522 0.108887 0.074921
0.595642 0.116669 0.063660
0.763763 0.114624 0.054321
0.895508 0.121216 0.051880
0.090668 0.305237 0.093903
0.315826 0.300385 0.088257
0.596039 0.316864 0.072784
0.811371 0.321991 0.054596
0.947723 0.324860 0.048676
0.000000 0.534607 0.092590
0.302795 0.537170 0.085144
0.611633 0.562561 0.058502
0.851044 0.575256 0.022461
0.973053 0.575714 0.014679
0.000000 0.707611 0.090973
0.268219 0.724274 0.082275
0.604248 0.757812 0.050598
0.860748 0.780487 0.010834
0.973053 0.788116 0.005920
0.000000 0.842926 0.117157
0.239258 0.867401 0.110657
0.591156 0.906464 0.093048
0.856567 0.936951 0.074341
0.973053 0.951141 0.079834
0.099579 0.100464 0.257782
0.271912 0.110901 0.288727
0.495605 0.121033 0.279541
0.704498 0.120331 0.274872
0.862915 0.119019 0.277802
0.096558 0.249268 0.216125
0.269287 0.251160 0.233734
0.501526 0.268127 0.247406
0.738922 0.281586 0.258575
0.905640 0.290527 0.269104
0.000000 0.496948 0.236969
0.263336 0.495941 0.251617
0.538635 0.514191 0.261475
0.793182 0.531281 0.269196
0.965546 0.538879 0.278931
0.000000 0.694641 0.256989
0.210663 0.707825 0.269440
0.546295 0.737335 0.277740
0.819489 0.761963 0.283325
0.973053 0.771515 0.293793
0.000000 0.846130 0.287811
0.140533 0.868073 0.298431
0.543610 0.903687 0.306641
0.825256 0.934875 0.312775
0.973053 0.948120 0.323517
0.104767 0.093994 0.508179
0.267487 0.099854 0.523102
0.467590 0.108490 0.524384
0.678986 0.108459 0.525635
0.840393 0.105774 0.526459
0.086548 0.238892 0.428070
0.257629 0.240936 0.450043
0.465637 0.253113 0.473785
0.703400 0.265106 0.494843
0.876862 0.271942 0.510376
0.000000 0.480774 0.454956
0.237854 0.478790 0.474518
0.494293 0.491608 0.495148
0.751556 0.507629 0.513092
0.932861 0.515686 0.527008
0.000000 0.694214 0.476715
0.128235 0.702057 0.494202
0.497162 0.721375 0.513885
0.777344 0.742523 0.529816
0.968903 0.752319 0.542908
0.000000 0.856537 0.498077
0.062866 0.874176 0.513275
0.492554 0.899933 0.531006
0.785706 0.926361 0.545593
0.973053 0.939270 0.558258
0.140961 0.075806 0.676971
0.278351 0.080017 0.685059
0.460022 0.085632 0.695068
0.657745 0.084290 0.702972
0.820496 0.079620 0.708069
0.112183 0.223938 0.617218
0.264679 0.226074 0.637177
0.453827 0.234711 0.662048
0.675507 0.243561 0.686096
0.850830 0.248932 0.703186
0.000000 0.462006 0.649933
0.241669 0.461761 0.667389
0.475555 0.470398 0.689789
0.718231 0.482361 0.711212
0.901886 0.489685 0.726746
0.000000 0.684174 0.674774
0.124756 0.688477 0.690735
0.472656 0.702789 0.711639
0.742340 0.720917 0.731812
0.937042 0.730713 0.746674
0.000000 0.859802 0.692596
0.062866 0.869598 0.706696
0.462006 0.890411 0.725952
0.751251 0.913788 0.744537
0.953400 0.926483 0.758636
0.176727 0.057281 0.801056
0.298584 0.059662 0.809479
0.465485 0.062622 0.821289
0.649078 0.058929 0.831482
0.808990 0.051636 0.839203
0.155273 0.208862 0.767059
0.284485 0.211151 0.781830
0.458618 0.217621 0.803650
0.664337 0.224396 0.826294
0.835571 0.228790 0.842682
0.079254 0.442688 0.808990
0.268372 0.442535 0.821564
0.477051 0.448639 0.840546
0.702332 0.458130 0.860565
0.881622 0.464752 0.874969
0.000000 0.669403 0.840698
0.181824 0.673279 0.853180
0.471741 0.685150 0.871796
0.724670 0.700409 0.890778
0.915436 0.708862 0.903992
0.000000 0.854126 0.859131
0.062866 0.862305 0.872437
0.456238 0.880188 0.890076
0.731812 0.900391 0.907776
0.931488 0.912354 0.920593
