static/luts/Warm Teal.cube
#Created by: Adobe Photoshop Export Color Lookup Plugin
#Copyright: (C) Copyright 2018 https://www.presetpro.com and Tim Martin
TITLE "Presetpro - Warm Teal"
#LUT size
LUT_3D_SIZE 32
#data domain
DOMAIN_MIN 0.0 0.0 0.0
DOMAIN_MAX 1.0 1.0 1.0
#LUT data points
0.082458 0.065125 0.046143
0.093903 0.070129 0.051270
0.102234 0.071625 0.052612
0.117584 0.076019 0.058228
0.129547 0.077911 0.060455
0.150635 0.083557 0.062408
0.164948 0.087158 0.065277
0.185181 0.090637 0.070740
0.207672 0.092529 0.069397
0.230377 0.094604 0.073792
0.256805 0.097656 0.075470
0.298950 0.098938 0.070221
0.336243 0.096283 0.066040
0.383392 0.094147 0.060486
0.424164 0.092896 0.060028
0.465637 0.092407 0.066956
0.502258 0.093018 0.064392
0.536682 0.093475 0.064606
0.571014 0.095245 0.068726
0.603119 0.097626 0.073090
0.632172 0.101379 0.079407
0.661499 0.104156 0.084137
0.688660 0.110535 0.092590
0.711639 0.116638 0.100037
0.733154 0.126740 0.112488
0.748657 0.140320 0.128876
0.764374 0.155121 0.145874
0.776794 0.166199 0.155548
0.787018 0.177246 0.159180
0.800262 0.191681 0.172668
0.811890 0.203918 0.179596
0.827301 0.221191 0.192444
0.087982 0.076599 0.052155
0.099182 0.081818 0.057648
0.109253 0.085114 0.061005
0.122650 0.087616 0.064362
0.140350 0.093567 0.069000
0.157471 0.096710 0.072021
0.173187 0.097992 0.072998
0.190430 0.102478 0.075317
0.212677 0.107208 0.077209
0.237152 0.111115 0.080658
0.264954 0.113495 0.083099
0.296753 0.115082 0.079712
0.336700 0.114319 0.075531
0.378204 0.112366 0.071777
0.427429 0.110931 0.069489
0.470612 0.112885 0.071472
0.506317 0.110657 0.072266
0.544952 0.112488 0.074951
0.577362 0.114655 0.078674
0.609772 0.117676 0.084167
0.636658 0.121338 0.088684
0.663483 0.126099 0.095093
0.693542 0.132751 0.105011
0.719452 0.139069 0.112976
0.737946 0.146393 0.122711
0.755493 0.159668 0.135223
0.770142 0.172729 0.144714
0.782776 0.184204 0.155640
0.794769 0.195892 0.162689
0.808167 0.209839 0.173431
0.820404 0.221313 0.184875
0.833557 0.235748 0.194031
0.094757 0.091461 0.061249
0.103912 0.094421 0.063690
0.113342 0.097900 0.067139
0.131256 0.102661 0.072479
0.145020 0.105621 0.075317
0.161377 0.110748 0.080139
0.176453 0.113770 0.081085
0.198181 0.119568 0.086029
0.216278 0.122498 0.085693
0.238129 0.127106 0.088562
0.266235 0.129547 0.090546
0.301300 0.131531 0.088928
0.338715 0.130554 0.083832
0.378845 0.131958 0.080597
0.427277 0.128448 0.078491
0.468292 0.129608 0.079315
0.509583 0.130096 0.081573
0.544891 0.134918 0.083923
0.579071 0.133820 0.087524
0.613220 0.139160 0.093109
0.642334 0.143372 0.096619
0.667786 0.147003 0.102142
0.696228 0.154724 0.109375
0.719757 0.158844 0.114960
0.743164 0.166565 0.124664
0.761017 0.180023 0.138214
0.777252 0.192902 0.145142
0.789062 0.203766 0.146637
0.801483 0.214325 0.159668
0.813354 0.224030 0.171906
0.826050 0.237122 0.182678
0.839386 0.252045 0.193237
0.098877 0.106384 0.065979
0.109833 0.111450 0.071655
0.119568 0.113525 0.073181
0.135681 0.117767 0.078400
0.151550 0.120544 0.083771
0.167725 0.125031 0.086334
0.184662 0.128906 0.088562
0.203125 0.133636 0.091248
0.222321 0.136627 0.091400
0.243805 0.142975 0.095795
0.268555 0.148132 0.098602
0.304779 0.149017 0.098877
0.341309 0.148621 0.094391
0.378662 0.150208 0.091095
0.428436 0.149323 0.088745
0.473938 0.148529 0.087585
0.510651 0.150269 0.088013
0.548279 0.153290 0.091309
0.578613 0.158020 0.093658
0.611237 0.161743 0.097198
0.644257 0.165833 0.101837
0.670197 0.171844 0.105560
0.696411 0.177429 0.112427
0.721771 0.183746 0.119171
0.743683 0.191437 0.123444
0.767090 0.201843 0.133545
0.784454 0.212494 0.144989
0.796631 0.221954 0.151642
0.808105 0.231201 0.161957
0.819214 0.241364 0.170410
0.832733 0.254272 0.184265
0.845642 0.267792 0.196442
0.106262 0.123627 0.074799
0.114929 0.126740 0.078583
0.125519 0.129089 0.081299
0.139404 0.133423 0.085358
0.160095 0.137756 0.091095
0.173218 0.139496 0.093445
0.191925 0.145020 0.097870
0.209076 0.148315 0.095947
0.228119 0.154846 0.102997
0.248627 0.156494 0.101837
0.273987 0.164001 0.107147
0.304535 0.166016 0.105438
0.344910 0.169830 0.104126
0.381226 0.170441 0.100250
0.424561 0.170227 0.098145
0.467743 0.171021 0.097351
0.512360 0.171600 0.095947
0.546021 0.175842 0.096985
0.575836 0.180145 0.099518
0.608704 0.186646 0.104431
0.640381 0.190063 0.106995
0.670776 0.193726 0.109772
0.697235 0.201904 0.115479
0.721832 0.205902 0.120026
0.745972 0.213348 0.128967
0.768799 0.223022 0.136536
0.788483 0.235260 0.144470
0.802521 0.241272 0.151184
0.814301 0.251831 0.159058
0.827667 0.263000 0.169312
0.838135 0.271729 0.179443
0.850983 0.285248 0.189575
0.109924 0.143677 0.082062
0.121094 0.148956 0.088257
0.129791 0.149475 0.090424
0.145111 0.151123 0.093475
0.164459 0.155853 0.096771
0.181549 0.158508 0.100189
0.200073 0.160583 0.102478
0.219421 0.166260 0.106354
0.235199 0.172028 0.110443
0.253265 0.175446 0.111206
0.279816 0.181061 0.113190
0.307098 0.184479 0.113983
0.343323 0.188263 0.113220
0.382080 0.191010 0.110657
0.422150 0.193024 0.108582
0.461334 0.195404 0.106659
0.500427 0.200470 0.105713
0.541412 0.201416 0.104340
0.572906 0.205170 0.105225
0.607880 0.211761 0.109222
0.642700 0.213989 0.111603
0.672394 0.221069 0.113281
0.698120 0.227173 0.117584
0.723022 0.232971 0.124084
0.746674 0.241516 0.132416
0.769531 0.248199 0.140503
0.790405 0.259094 0.150177
0.804413 0.265594 0.154907
0.819183 0.274353 0.164429
0.830139 0.285400 0.170593
0.844757 0.293701 0.181580
0.856384 0.304596 0.189728
0.115540 0.166168 0.091431
0.125061 0.168488 0.095612
0.136047 0.170746 0.099823
0.150116 0.171692 0.102539
0.168518 0.176910 0.106781
0.189575 0.178162 0.108429
0.211212 0.181885 0.111237
0.229401 0.184021 0.113495
0.248505 0.191071 0.118805
0.269318 0.194702 0.120056
0.289856 0.200226 0.122681
0.311920 0.204834 0.122650
0.345673 0.210327 0.122772
0.377747 0.213898 0.120575
0.418518 0.216614 0.117310
0.456726 0.221161 0.115143
0.494812 0.223602 0.112976
0.538757 0.226074 0.109985
0.575958 0.229309 0.110321
0.606659 0.236053 0.113220
0.642303 0.239319 0.115326
0.669983 0.245941 0.116394
0.701385 0.250031 0.121399
0.725311 0.256989 0.128143
0.747803 0.265411 0.135956
0.768341 0.273468 0.143036
0.790314 0.283142 0.152527
0.809204 0.287231 0.160431
0.821075 0.298889 0.166962
0.833466 0.306396 0.173737
0.848175 0.315094 0.182190
0.860535 0.325745 0.190796
0.117065 0.190918 0.100342
0.127502 0.192932 0.105438
0.137177 0.193695 0.108826
0.151886 0.197876 0.113922
0.168121 0.200409 0.115143
0.191315 0.203125 0.118378
0.214355 0.205414 0.120117
0.239288 0.210419 0.124481
0.263214 0.213715 0.127258
0.285065 0.217377 0.127533
0.306824 0.222961 0.129333
0.328949 0.225708 0.129364
0.354706 0.229279 0.127594
0.385712 0.232971 0.125488
0.418274 0.236633 0.123749
0.456421 0.242798 0.122192
0.498383 0.246521 0.119019
0.539856 0.248810 0.115692
0.575806 0.253601 0.114136
0.607361 0.259186 0.115906
0.639771 0.263306 0.116699
0.672455 0.270508 0.119019
0.700195 0.276154 0.122406
0.725067 0.282196 0.127258
0.749237 0.290894 0.136566
0.770874 0.300751 0.144287
0.792358 0.309662 0.153137
0.808136 0.316467 0.158417
0.822205 0.322937 0.166016
0.836182 0.331757 0.174683
0.848267 0.339630 0.181427
0.861176 0.349457 0.190063
0.112366 0.215424 0.103485
0.123413 0.220123 0.110809
0.136505 0.223541 0.117462
0.149689 0.227325 0.122986
0.166168 0.230103 0.125916
0.187744 0.231201 0.128082
0.215118 0.233032 0.129089
0.244873 0.236450 0.130981
0.274200 0.244507 0.136444
0.297577 0.243774 0.137299
0.326050 0.246826 0.135071
0.350342 0.252258 0.134216
0.379333 0.254852 0.132568
0.404053 0.258636 0.131622
0.431763 0.259460 0.128510
0.460175 0.262787 0.126099
0.496918 0.266388 0.123199
0.539520 0.271088 0.121277
0.578094 0.276855 0.118958
0.611389 0.280792 0.116669
0.641693 0.286926 0.118683
0.672668 0.292633 0.120300
0.701172 0.299103 0.123352
0.726929 0.306458 0.126892
0.748779 0.313446 0.134003
0.769897 0.321838 0.141510
0.792633 0.331329 0.150818
0.811646 0.340179 0.158386
0.822479 0.345734 0.163666
0.837006 0.353638 0.172119
0.850952 0.362610 0.180542
0.864441 0.372650 0.189514
0.097443 0.240997 0.101532
0.107758 0.247406 0.110657
0.121094 0.253174 0.119263
0.138062 0.262268 0.128235
0.157959 0.265076 0.134857
0.175476 0.268341 0.136749
0.208832 0.271667 0.139893
0.243103 0.269226 0.138824
0.274933 0.272247 0.139740
0.311859 0.280487 0.144897
0.339325 0.277130 0.143097
0.374481 0.281952 0.140503
0.400574 0.284088 0.137177
0.432312 0.285980 0.132935
0.457397 0.287506 0.130951
0.485474 0.289459 0.128510
0.509338 0.289856 0.126099
0.539795 0.294037 0.123230
0.581268 0.297577 0.118835
0.615173 0.302490 0.116425
0.644318 0.311279 0.116272
0.673706 0.315643 0.117035
0.702332 0.322601 0.120178
0.729645 0.329620 0.124023
0.752533 0.337646 0.129395
0.774536 0.347321 0.137238
0.796356 0.356384 0.146637
0.813538 0.363312 0.154022
0.829193 0.371124 0.164001
0.841187 0.378357 0.171021
0.853790 0.387238 0.177338
0.865021 0.395142 0.185547
0.081116 0.288055 0.110718
0.091095 0.291565 0.119171
0.100800 0.291840 0.125000
0.115295 0.290253 0.130432
0.134308 0.300812 0.140198
0.160828 0.307678 0.146332
0.185608 0.312103 0.147583
0.229675 0.311188 0.147491
0.277710 0.309113 0.145538
0.309692 0.313538 0.144470
0.356781 0.318359 0.141266
0.389526 0.313904 0.140869
0.432770 0.315948 0.136169
0.463654 0.316589 0.132599
0.490204 0.318542 0.128937
0.513275 0.319183 0.126526
0.539581 0.320648 0.123413
0.562653 0.320190 0.120850
0.590179 0.321747 0.117859
0.618103 0.324524 0.114929
0.646851 0.331940 0.113922
0.678619 0.339233 0.113434
0.703796 0.345612 0.115723
0.733337 0.353729 0.118835
0.755066 0.360901 0.123291
0.776367 0.369720 0.130219
0.796692 0.379761 0.137817
0.816101 0.388885 0.148285
0.830688 0.396515 0.156982
0.844116 0.403564 0.165802
0.856995 0.412354 0.174683
0.869171 0.421112 0.182526
0.047485 0.341705 0.121979
0.056091 0.348602 0.131378
0.069733 0.345398 0.136871
0.082306 0.345764 0.141571
0.102692 0.342712 0.147278
0.121765 0.343964 0.151459
0.163605 0.352509 0.160828
0.199921 0.359863 0.161224
0.261353 0.354279 0.155090
0.307159 0.351105 0.147400
0.355011 0.354309 0.143555
0.408905 0.357025 0.140045
0.446625 0.349762 0.135498
0.495605 0.355164 0.130249
0.522614 0.353119 0.126312
0.549225 0.354858 0.121857
0.574432 0.351257 0.118622
0.596527 0.351746 0.115021
0.616943 0.353180 0.112274
0.634888 0.353760 0.110809
0.652191 0.355804 0.110626
0.680573 0.361755 0.110168
0.707764 0.369781 0.112732
0.735321 0.378662 0.115845
0.760468 0.385345 0.119690
0.781525 0.394409 0.126648
0.801361 0.404327 0.133484
0.818115 0.411896 0.139709
0.833679 0.421204 0.151520
0.846558 0.428101 0.161041
0.858490 0.434021 0.169983
0.872711 0.446289 0.179535
0.049286 0.381073 0.143158
0.050232 0.387878 0.148895
0.050812 0.392029 0.149597
0.060516 0.393341 0.156433
0.066559 0.396637 0.162720
0.084564 0.394592 0.167938
0.106049 0.396393 0.172791
0.163818 0.400299 0.176453
0.234924 0.396118 0.167969
0.298859 0.391998 0.157837
0.352325 0.389587 0.151459
0.404907 0.391724 0.142944
0.464355 0.396942 0.137146
0.504578 0.388214 0.132233
0.552277 0.388947 0.128998
0.582550 0.387665 0.120178
0.607391 0.386993 0.115540
0.627991 0.386322 0.113251
0.642578 0.386902 0.112122
0.658691 0.387421 0.111877
0.674408 0.387909 0.111023
0.689789 0.387878 0.109680
0.710388 0.392578 0.110931
0.737274 0.400787 0.114227
0.762115 0.407440 0.117767
0.783539 0.416840 0.124298
0.804169 0.426819 0.131500
0.819916 0.435516 0.136841
0.835571 0.443329 0.143005
0.848389 0.449982 0.153381
0.862427 0.459839 0.165649
0.874908 0.467896 0.175568
0.054413 0.422974 0.150757
0.055145 0.427460 0.156433
0.056122 0.433380 0.161804
0.056824 0.438751 0.167023
0.062347 0.443207 0.174957
0.067322 0.444458 0.181519
0.072723 0.445587 0.188416
0.090088 0.448761 0.193573
0.180969 0.449463 0.192230
0.277649 0.436768 0.173401
0.343292 0.433289 0.160065
0.404907 0.428345 0.150848
0.465576 0.429474 0.139343
0.527557 0.432617 0.137146
0.567291 0.426941 0.132629
0.615631 0.427124 0.130768
0.642090 0.426147 0.123138
0.656219 0.425415 0.120941
0.670380 0.424652 0.119019
0.686920 0.424713 0.118103
0.699280 0.422607 0.115936
0.715210 0.423737 0.113556
0.729462 0.425018 0.111237
0.745575 0.426056 0.113129
0.766693 0.431335 0.116333
0.789276 0.441467 0.123688
0.809723 0.450836 0.131012
0.825714 0.459473 0.136780
0.840607 0.468781 0.142090
0.852539 0.474243 0.148804
0.866119 0.483398 0.163086
0.879089 0.491516 0.173431
0.059875 0.465881 0.162354
0.060852 0.471466 0.167694
0.061920 0.474640 0.171906
0.066315 0.476990 0.178436
0.071075 0.480560 0.185730
0.076080 0.482697 0.192200
0.081451 0.486481 0.200134
0.087372 0.485291 0.205597
0.103668 0.497192 0.219360
0.243439 0.484161 0.196869
0.322571 0.477386 0.182037
0.396118 0.468933 0.165192
0.459991 0.464020 0.152771
0.524994 0.467255 0.142883
0.586029 0.469055 0.141785
0.623718 0.464722 0.141724
0.665344 0.466156 0.146576
0.684479 0.466919 0.141205
0.698334 0.464752 0.132416
0.711212 0.464600 0.130035
0.723907 0.462067 0.128052
0.738434 0.460358 0.126526
0.751984 0.460754 0.123871
0.765686 0.459717 0.120880
0.781219 0.462250 0.120605
0.794128 0.465363 0.123566
0.812988 0.474365 0.130310
0.829742 0.483337 0.136292
0.845093 0.491943 0.141937
0.857056 0.498535 0.146729
0.869812 0.507019 0.159088
0.882812 0.515991 0.171417
0.064728 0.503967 0.173553
0.068848 0.507294 0.181335
0.073761 0.509705 0.187988
0.079102 0.513031 0.194702
0.084717 0.516815 0.202637
0.090302 0.520355 0.209747
0.094818 0.521851 0.215912
0.100098 0.523590 0.222046
0.109955 0.523621 0.225494
0.208679 0.522827 0.226776
0.299927 0.518890 0.203491
0.377594 0.511444 0.191925
0.452606 0.501251 0.169617
0.516113 0.501282 0.163086
0.577393 0.505524 0.159454
0.639374 0.507141 0.155853
0.670532 0.503113 0.159760
0.702209 0.505890 0.170959
0.720703 0.506317 0.172333
0.735504 0.504120 0.153473
0.747620 0.502441 0.143463
0.760315 0.502106 0.141113
0.774139 0.500916 0.139526
0.785645 0.497864 0.137390
0.798401 0.499237 0.135437
0.810577 0.500488 0.133698
0.821411 0.503723 0.131958
0.834930 0.509491 0.136322
0.850342 0.518768 0.141388
0.863281 0.526245 0.149261
0.874786 0.532074 0.158539
0.887634 0.541443 0.169464
0.074310 0.533600 0.190491
0.079102 0.536224 0.197174
0.083984 0.540131 0.203918
0.089325 0.543701 0.210876
0.094971 0.547424 0.218353
0.099884 0.551270 0.224121
0.104126 0.551880 0.228699
0.110168 0.556152 0.237274
0.115021 0.557495 0.241547
0.159302 0.558533 0.244873
0.276855 0.554352 0.234863
0.353607 0.551422 0.215942
0.434326 0.540344 0.200317
0.506317 0.532715 0.181213
0.570312 0.533295 0.174072
0.626526 0.535797 0.174042
0.679138 0.543030 0.177582
0.704834 0.538086 0.182526
0.729736 0.541870 0.198456
0.748962 0.543579 0.201721
0.762299 0.541138 0.189331
0.776520 0.539551 0.177856
0.789062 0.537231 0.160583
0.802948 0.537567 0.153534
0.814209 0.535858 0.150574
0.823822 0.536316 0.149567
0.834900 0.539398 0.149017
0.845734 0.542236 0.150665
0.856415 0.542908 0.148407
0.867706 0.548401 0.152008
0.879852 0.555939 0.160767
0.891327 0.562103 0.170441
0.086853 0.565704 0.212860
0.091949 0.569305 0.219666
0.097198 0.573761 0.226410
0.101654 0.576569 0.231842
0.105652 0.579224 0.236481
0.111145 0.583801 0.243011
0.116089 0.585938 0.250183
0.120331 0.589478 0.254486
0.125488 0.592468 0.262146
0.136505 0.597504 0.267548
0.256927 0.592651 0.266602
0.337311 0.589722 0.249390
0.409637 0.582397 0.229858
0.494263 0.569214 0.206757
0.558441 0.562012 0.197144
0.621368 0.564728 0.194824
0.672150 0.568146 0.198486
0.713562 0.577576 0.207733
0.733643 0.577606 0.217590
0.754242 0.578339 0.232513
0.772034 0.581482 0.236908
0.786621 0.579071 0.225189
0.800110 0.576019 0.212677
0.814484 0.576050 0.204620
0.826660 0.573090 0.188782
0.839020 0.575470 0.173218
0.850281 0.576172 0.169037
0.859802 0.576782 0.170807
0.868408 0.579529 0.169617
0.877289 0.581787 0.169525
0.886414 0.583679 0.169678
0.894714 0.592102 0.178772
0.098358 0.593384 0.236145
0.103088 0.596863 0.242279
0.108368 0.601379 0.249451
0.112610 0.604034 0.254425
0.117615 0.608368 0.260498
0.121674 0.611237 0.265808
0.126404 0.614655 0.272278
0.130798 0.618652 0.278473
0.135101 0.622314 0.285950
0.145111 0.628662 0.293518
0.245850 0.629303 0.296051
0.325317 0.624603 0.284760
0.393646 0.623322 0.261658
0.473206 0.610413 0.243713
0.547974 0.598083 0.223511
0.607056 0.593628 0.216339
0.664093 0.595428 0.218384
0.712036 0.602325 0.225342
0.741119 0.613220 0.241638
0.759521 0.612915 0.251160
0.777710 0.612762 0.261505
0.795715 0.616699 0.270386
0.809631 0.614899 0.263885
0.823273 0.613129 0.250336
0.837372 0.611694 0.241333
0.849548 0.611389 0.231110
0.860077 0.608826 0.218445
0.869263 0.608429 0.210297
0.878571 0.609375 0.200562
0.888245 0.610870 0.196838
0.895660 0.615234 0.192383
0.899994 0.619080 0.195068
0.108612 0.619598 0.259186
0.114258 0.624725 0.267303
0.119354 0.629089 0.274384
0.123810 0.632477 0.280151
0.127808 0.634735 0.285217
0.132874 0.639679 0.292480
0.136688 0.642609 0.296326
0.141235 0.646973 0.302460
0.144623 0.649200 0.308228
0.156494 0.664368 0.325043
0.244659 0.666901 0.328583
0.332245 0.657715 0.314636
0.393188 0.652252 0.297272
0.459045 0.646271 0.274750
0.540070 0.633728 0.253448
0.601471 0.625092 0.242676
0.656372 0.624237 0.240265
0.704315 0.629639 0.245972
0.738403 0.635376 0.258209
0.765076 0.647186 0.274231
0.781189 0.644775 0.279541
0.798523 0.645416 0.295807
0.816650 0.650177 0.310516
0.832367 0.650757 0.302429
0.845001 0.646606 0.285400
0.858612 0.644897 0.278656
0.868866 0.643219 0.266571
0.878113 0.642761 0.259399
0.887421 0.642334 0.252502
0.896362 0.641754 0.242218
0.902954 0.645355 0.243042
0.907318 0.649811 0.242706
0.116760 0.642365 0.281342
0.121918 0.646729 0.287872
0.126984 0.650940 0.294373
0.131805 0.654938 0.301025
0.136353 0.659027 0.306610
0.140778 0.662659 0.312836
0.144562 0.665527 0.318329
0.149750 0.670837 0.324768
0.155731 0.677307 0.335754
0.172668 0.700195 0.359009
0.264343 0.694153 0.352051
0.342926 0.682953 0.337341
0.394928 0.678009 0.326477
0.457581 0.673492 0.306000
0.520020 0.665527 0.286133
0.590820 0.655365 0.270142
0.649597 0.649139 0.262024
0.697510 0.651550 0.264130
0.736420 0.656158 0.274445
0.761261 0.667542 0.292511
0.785950 0.676086 0.306458
0.803131 0.676147 0.314880
0.818665 0.676849 0.330139
0.836792 0.679474 0.341278
0.849976 0.678101 0.336426
0.862396 0.676178 0.324677
0.875214 0.674164 0.310425
0.884979 0.671783 0.299316
0.894470 0.671234 0.294098
0.903534 0.670349 0.286469
0.908783 0.674469 0.279755
0.912872 0.675842 0.276520
0.126282 0.666779 0.306274
0.131836 0.671570 0.314758
0.135834 0.673889 0.319366
0.141449 0.679901 0.327515
0.145233 0.682159 0.331299
0.150116 0.687195 0.337921
0.154236 0.690491 0.342896
0.162659 0.701385 0.356354
0.178711 0.723053 0.382782
0.198395 0.737579 0.396118
0.294067 0.722595 0.379486
0.359344 0.714020 0.368988
0.413452 0.708282 0.359253
0.463470 0.700226 0.339905
0.521515 0.696838 0.322052
0.580078 0.688354 0.305298
0.643402 0.679657 0.293823
0.690796 0.676605 0.289581
0.730957 0.680023 0.293457
0.761230 0.689331 0.309692
0.784180 0.696899 0.324707
0.806793 0.704376 0.337250
0.824188 0.706665 0.351532
0.839050 0.705383 0.358948
0.855774 0.708984 0.372986
0.868774 0.709198 0.371613
0.879913 0.705597 0.359497
0.889191 0.701996 0.346497
0.900726 0.701416 0.336151
0.909668 0.699249 0.327698
0.914246 0.702728 0.324585
0.918304 0.704437 0.319519
0.135132 0.689148 0.330536
0.139984 0.692871 0.337341
0.145203 0.697815 0.343140
0.149628 0.702301 0.349243
0.154236 0.705688 0.355438
0.165894 0.721039 0.374634
0.176239 0.733307 0.391510
0.189545 0.751312 0.410400
0.200073 0.764221 0.424042
0.249268 0.761108 0.420410
0.335876 0.744751 0.406403
0.385651 0.742340 0.398956
0.436981 0.734222 0.388458
0.477905 0.726898 0.374573
0.527710 0.719543 0.354797
0.587341 0.713867 0.334656
0.638763 0.708679 0.328339
0.688202 0.705078 0.322083
0.731598 0.703552 0.320923
0.761414 0.709290 0.329651
0.784363 0.716431 0.343994
0.809662 0.726776 0.363159
0.828766 0.731812 0.371979
0.845703 0.732574 0.381500
0.860016 0.733093 0.392548
0.874481 0.736542 0.407288
0.885834 0.734528 0.403870
0.896088 0.732208 0.390442
0.906891 0.730347 0.382233
0.915466 0.729858 0.374817
0.919403 0.731445 0.368378
0.923309 0.733673 0.363770
0.160828 0.734222 0.383423
0.167297 0.740997 0.392120
0.172791 0.745636 0.399994
0.179688 0.753326 0.411346
0.186157 0.760864 0.420959
0.193298 0.769073 0.429810
0.201660 0.781067 0.444122
0.209076 0.789764 0.452881
0.257507 0.786896 0.452301
0.311279 0.777924 0.441711
0.371582 0.769653 0.433167
0.419067 0.764801 0.423126
0.461761 0.761597 0.417694
0.506012 0.751312 0.401672
0.541321 0.744354 0.387238
0.588989 0.740997 0.375488
0.637390 0.736389 0.360199
0.691559 0.729767 0.350952
0.733582 0.725555 0.347961
0.762390 0.730377 0.355225
0.786346 0.736908 0.369629
0.810394 0.744751 0.383301
0.830902 0.751740 0.396851
0.850708 0.757812 0.407532
0.865814 0.758698 0.412048
0.880249 0.759033 0.423370
0.892120 0.760406 0.433472
0.902557 0.758911 0.432098
0.913574 0.757141 0.421204
0.921722 0.756622 0.412567
0.925751 0.758942 0.410645
0.928802 0.758118 0.402161
0.184570 0.773010 0.430878
0.190216 0.779022 0.438446
0.194580 0.784668 0.445099
0.199890 0.791748 0.452545
0.204529 0.796082 0.458496
0.210449 0.802643 0.464478
0.217651 0.813049 0.474304
0.232330 0.820526 0.483612
0.286682 0.810425 0.474640
0.347473 0.797760 0.463257
0.402100 0.792511 0.455383
0.443085 0.787750 0.446533
0.483948 0.782196 0.440643
0.525116 0.776093 0.428650
0.556244 0.769012 0.417175
0.592590 0.763794 0.403534
0.636993 0.761597 0.392456
0.682709 0.757721 0.379730
0.731415 0.749542 0.371979
0.763123 0.750061 0.375305
0.790039 0.756531 0.389648
0.810608 0.761688 0.397003
0.831604 0.768127 0.410400
0.851929 0.775391 0.423279
0.872009 0.783081 0.440308
0.885651 0.783234 0.447327
0.897705 0.781067 0.451141
0.909546 0.779938 0.451935
0.918976 0.778259 0.455017
0.927887 0.778137 0.448395
0.931519 0.779602 0.441284
0.934052 0.778259 0.434814
0.205261 0.810638 0.471771
0.209442 0.816071 0.476959
0.214081 0.822174 0.482208
0.218231 0.826874 0.486542
0.222565 0.831451 0.494141
0.227386 0.836975 0.499695
0.233673 0.846588 0.511719
0.275360 0.840332 0.505585
0.333038 0.828552 0.492981
0.387909 0.819366 0.484161
0.431458 0.815369 0.481232
0.477783 0.809265 0.470520
0.512939 0.803986 0.463104
0.547546 0.797119 0.451385
0.578918 0.791534 0.442871
0.607513 0.788330 0.433350
0.648590 0.783722 0.422211
0.687378 0.780212 0.411285
0.726379 0.776367 0.404236
0.761841 0.773956 0.404297
0.789185 0.776245 0.408508
0.812775 0.779816 0.419037
0.833984 0.788025 0.432953
0.854553 0.792999 0.441254
0.873474 0.800629 0.455292
0.888855 0.804352 0.468140
0.902222 0.803284 0.471649
0.914856 0.802582 0.475708
0.925903 0.798706 0.473053
0.933441 0.796082 0.474731
0.937378 0.798981 0.470215
0.941711 0.801819 0.469788
0.222046 0.840546 0.505890
0.225189 0.844543 0.509735
0.229980 0.850189 0.516571
0.234131 0.855774 0.521118
0.238190 0.862000 0.528442
0.242615 0.867737 0.536621
0.281555 0.864227 0.531158
0.334229 0.854492 0.521698
0.386932 0.844604 0.510406
0.425446 0.839325 0.507477
0.466278 0.834534 0.498993
0.505402 0.830505 0.491974
0.540222 0.824188 0.482544
0.568390 0.819794 0.476379
0.599304 0.814514 0.469849
0.628021 0.809265 0.458862
0.658752 0.805237 0.445374
0.693268 0.804443 0.440002
0.729614 0.800995 0.433167
0.763947 0.796967 0.428986
0.792633 0.797272 0.432587
0.816528 0.798828 0.438873
0.835144 0.802582 0.446045
0.856079 0.808899 0.456879
0.870667 0.811188 0.461945
0.889465 0.815155 0.472565
0.904419 0.819000 0.486481
0.919128 0.822876 0.496887
0.930573 0.820007 0.495636
0.940491 0.816895 0.493439
0.943756 0.817688 0.496002
0.946747 0.817749 0.492401
0.235962 0.865356 0.534821
0.240448 0.871490 0.539673
0.243896 0.876740 0.544891
0.248413 0.884308 0.552887
0.268097 0.881195 0.548096
0.298126 0.877228 0.544189
0.342377 0.872803 0.540802
0.385681 0.863983 0.532715
0.417175 0.860687 0.527039
0.460938 0.853943 0.519897
0.503723 0.848999 0.513794
0.536652 0.848938 0.513031
0.563293 0.843903 0.503143
0.589691 0.837433 0.492889
0.615112 0.834320 0.487518
