static/luts/Warm Haze.cube
#Created by: Adobe Photoshop Export Color Lookup Plugin
#Copyright: (C) Copyright 2018 https://www.presetpro.com and Tim Martin
TITLE "Presetpro - Warm Haze"
#LUT size
LUT_3D_SIZE 32
#data domain
DOMAIN_MIN 0.0 0.0 0.0
DOMAIN_MAX 1.0 1.0 1.0
#LUT data points
0.106873 0.091064 0.076080
0.123138 0.091766 0.076111
0.146881 0.093536 0.076172
0.179779 0.096527 0.076263
0.215424 0.099792 0.076233
0.251312 0.102936 0.076050
0.287048 0.105865 0.075714
0.328522 0.108887 0.074921
0.370941 0.111694 0.073914
0.411835 0.113770 0.072632
0.451385 0.115265 0.071106
0.490082 0.116364 0.069427
0.527130 0.116760 0.067535
0.562256 0.116821 0.065613
0.595642 0.116669 0.063660
0.621155 0.116241 0.062256
0.646698 0.115906 0.060852
0.672272 0.115601 0.059387
0.697083 0.115204 0.057892
0.721069 0.114777 0.056458
0.743958 0.114258 0.055176
0.763763 0.114624 0.054321
0.782990 0.115265 0.053497
0.802185 0.116302 0.052673
0.821136 0.117249 0.051910
0.839935 0.118164 0.051331
0.858521 0.119080 0.051514
0.877106 0.120087 0.051697
0.895508 0.121216 0.051880
0.912506 0.122589 0.052216
0.928650 0.124512 0.052673
0.944092 0.126892 0.053223
0.108643 0.110596 0.078217
0.123077 0.111053 0.078186
0.144257 0.112335 0.078186
0.174011 0.114716 0.078217
0.206970 0.117798 0.078186
0.242249 0.121094 0.078033
0.277405 0.124268 0.077728
0.311646 0.127045 0.077240
0.352325 0.130035 0.076385
0.393463 0.132965 0.075317
0.433960 0.135376 0.073914
0.473267 0.137085 0.072327
0.511658 0.138733 0.070526
0.550568 0.139709 0.068390
0.586914 0.140198 0.066254
0.619751 0.140869 0.064270
0.646149 0.140991 0.062744
0.672607 0.141144 0.061157
0.699493 0.141571 0.059357
0.724731 0.141510 0.057709
0.749359 0.141571 0.056152
0.769836 0.142059 0.055054
0.789246 0.142639 0.054199
0.808563 0.143402 0.053375
0.827637 0.144196 0.052704
0.846497 0.144989 0.052155
0.865143 0.145782 0.052216
0.883606 0.146637 0.052277
0.902008 0.147583 0.052368
0.919250 0.148499 0.052490
0.935242 0.150116 0.052917
0.950531 0.152222 0.053406
0.110321 0.134705 0.080933
0.124878 0.134705 0.080780
0.144928 0.135254 0.080627
0.172089 0.137146 0.080597
0.204285 0.139618 0.080414
0.237946 0.142548 0.080200
0.272797 0.145782 0.079895
0.306335 0.148468 0.079346
0.342010 0.151337 0.078674
0.383148 0.154541 0.077606
0.424225 0.157349 0.076202
0.464325 0.159821 0.074707
0.502869 0.161743 0.072876
0.542145 0.163422 0.070740
0.582123 0.164734 0.068420
0.616486 0.165558 0.066223
0.647217 0.166168 0.064209
0.674561 0.166779 0.062531
0.701508 0.167206 0.060638
0.728180 0.167633 0.058777
0.754028 0.168030 0.057007
0.775452 0.168610 0.055847
0.795319 0.169281 0.054840
0.814728 0.169983 0.054016
0.833923 0.170715 0.053345
0.852905 0.171478 0.052856
0.871613 0.172272 0.052795
0.890198 0.173157 0.052734
0.908569 0.173981 0.052704
0.926056 0.174957 0.052734
0.942108 0.176147 0.053009
0.957275 0.177948 0.053467
0.111847 0.164398 0.084290
0.126526 0.163757 0.084015
0.146698 0.163818 0.083771
0.173584 0.164490 0.083466
0.205597 0.166473 0.083160
0.239014 0.168793 0.082825
0.273987 0.171387 0.082275
0.307068 0.173920 0.081696
0.341919 0.176544 0.080902
0.382965 0.179749 0.079681
0.424316 0.182617 0.078186
0.465210 0.185242 0.076508
0.503693 0.187256 0.074554
0.542847 0.188965 0.072388
0.582306 0.190491 0.070038
0.618408 0.191406 0.067566
0.650360 0.192108 0.065369
0.678680 0.192596 0.063385
0.705627 0.193054 0.061432
0.732300 0.193451 0.059509
0.758667 0.193787 0.057587
0.780579 0.194275 0.056427
0.801147 0.194885 0.055420
0.820679 0.195618 0.054565
0.839966 0.196442 0.053925
0.859100 0.197296 0.053406
0.877930 0.198273 0.053253
0.896606 0.199249 0.053101
0.915131 0.200287 0.052917
0.933075 0.201447 0.052795
0.949310 0.202728 0.052948
0.964355 0.204193 0.053314
0.111084 0.196075 0.087219
0.126251 0.194580 0.086975
0.146820 0.193939 0.086548
0.174133 0.194000 0.086121
0.206482 0.194946 0.085480
0.240021 0.196930 0.084991
0.275208 0.199127 0.084320
0.309265 0.201263 0.083527
0.343903 0.203766 0.082672
0.384399 0.206787 0.081329
0.426086 0.209656 0.079651
0.467255 0.212341 0.077850
0.506104 0.214386 0.075836
0.545013 0.216217 0.073547
0.584412 0.217804 0.071106
0.622253 0.218994 0.068268
0.655060 0.219727 0.065918
0.683899 0.220276 0.063843
0.711029 0.220825 0.062042
0.737915 0.221313 0.060089
0.764465 0.221741 0.058167
0.787506 0.222321 0.056641
0.808289 0.222870 0.055573
0.827881 0.223572 0.054596
0.847168 0.224426 0.054077
0.866333 0.225311 0.053558
0.885223 0.226257 0.053253
0.903961 0.227356 0.052917
0.922546 0.228424 0.052643
0.940857 0.229584 0.052307
0.957153 0.230865 0.052460
0.972137 0.232269 0.052826
0.108307 0.229889 0.089966
0.124268 0.227966 0.089691
0.146088 0.226318 0.089233
0.173859 0.225677 0.088654
0.206848 0.226074 0.087891
0.241089 0.227051 0.087097
0.276459 0.228943 0.086304
0.311157 0.230774 0.085358
0.346436 0.232971 0.084320
0.386597 0.235840 0.082916
0.428192 0.238739 0.081085
0.469879 0.241486 0.079132
0.509064 0.243652 0.076996
0.548126 0.245636 0.074585
0.587341 0.247345 0.071991
0.626129 0.248688 0.069000
0.660187 0.249603 0.066406
0.689697 0.250214 0.064209
0.717102 0.250763 0.062286
0.744141 0.251312 0.060333
0.770905 0.251862 0.058411
0.794525 0.252350 0.056702
0.816071 0.252899 0.055481
0.835663 0.253601 0.054443
0.854919 0.254272 0.053802
0.874084 0.255066 0.053345
0.893005 0.255981 0.052948
0.911713 0.256927 0.052460
0.930359 0.258026 0.052063
0.948730 0.259094 0.051605
0.965363 0.260223 0.051758
0.980316 0.261566 0.052155
0.102386 0.267181 0.092407
0.119690 0.264679 0.092102
0.142456 0.262604 0.091644
0.172607 0.260712 0.090942
0.206482 0.260468 0.090088
0.241425 0.260925 0.089172
0.278015 0.261902 0.088104
0.313416 0.263489 0.087067
0.349548 0.265381 0.085907
0.389191 0.268036 0.084381
0.430969 0.271057 0.082458
0.472992 0.273987 0.080383
0.513031 0.276428 0.077972
0.552246 0.278564 0.075409
0.591431 0.280487 0.072693
0.631622 0.282227 0.069489
0.666412 0.283295 0.066772
0.696442 0.283936 0.064545
0.724243 0.284485 0.062378
0.751495 0.285034 0.060242
0.778381 0.285553 0.058014
0.802643 0.285980 0.056030
0.824890 0.286438 0.054565
0.844330 0.286835 0.053864
0.863586 0.287323 0.053192
0.882690 0.287933 0.052643
0.901550 0.288513 0.052032
0.920197 0.289246 0.051514
0.938751 0.290039 0.050964
0.957062 0.290863 0.050323
0.973755 0.291779 0.050507
0.989014 0.292786 0.051178
0.090668 0.305237 0.093903
0.111084 0.302856 0.093628
0.136414 0.300537 0.093201
0.168457 0.298462 0.092529
0.204956 0.297882 0.091675
0.240967 0.298035 0.090698
0.278442 0.298920 0.089569
0.315826 0.300385 0.088257
0.352295 0.302124 0.086975
0.391968 0.304657 0.085297
0.434204 0.307434 0.083099
0.476562 0.310394 0.080872
0.517273 0.312744 0.078308
0.556854 0.314880 0.075623
0.596039 0.316864 0.072784
0.636475 0.318573 0.069305
0.672455 0.319702 0.066284
0.703033 0.320343 0.063843
0.731659 0.320740 0.061249
0.759094 0.321228 0.058929
0.786041 0.321686 0.056519
0.811371 0.321991 0.054596
0.833893 0.322327 0.052979
0.853394 0.322571 0.052216
0.872620 0.322815 0.051392
0.891693 0.323273 0.050751
0.910553 0.323700 0.050018
0.929230 0.324219 0.049255
0.947723 0.324860 0.048676
0.966003 0.325500 0.048248
0.983002 0.326233 0.048431
0.998505 0.327057 0.049194
0.075165 0.342621 0.094940
0.098419 0.340210 0.094727
0.127594 0.338074 0.094299
0.162720 0.335907 0.093689
0.200897 0.335419 0.092804
0.239410 0.335480 0.091797
0.278046 0.336304 0.090637
0.316376 0.337799 0.089233
0.354584 0.339661 0.087738
0.394318 0.342102 0.085938
0.436737 0.344940 0.083557
0.479889 0.347778 0.080994
0.521088 0.350159 0.078247
0.561218 0.352295 0.075348
0.600586 0.354187 0.072388
0.641083 0.355927 0.068726
0.677765 0.357178 0.065308
0.709442 0.357727 0.062500
0.738495 0.358124 0.059784
0.766541 0.358521 0.057159
0.793579 0.358887 0.054565
0.819336 0.359161 0.052368
0.842865 0.359344 0.050720
0.862427 0.359436 0.049866
0.881683 0.359558 0.048981
0.900787 0.359802 0.048096
0.919647 0.360107 0.047241
0.938324 0.360474 0.046448
0.956879 0.360931 0.045715
0.975098 0.361481 0.045441
0.991028 0.362030 0.045685
1.000000 0.362671 0.046478
0.052612 0.377380 0.095245
0.082062 0.374756 0.095245
0.114685 0.372681 0.094879
0.155365 0.370911 0.094238
0.195923 0.370697 0.093292
0.235931 0.370972 0.092163
0.276733 0.372131 0.090820
0.316223 0.373901 0.089325
0.355377 0.375946 0.087708
0.395538 0.378693 0.085785
0.438324 0.381775 0.083344
0.481903 0.384888 0.080627
0.524231 0.387695 0.077515
0.564697 0.389954 0.074371
0.604431 0.391998 0.071075
0.644958 0.393951 0.066956
0.682159 0.395294 0.063263
0.715454 0.396088 0.059814
0.745148 0.396515 0.057007
0.773499 0.396912 0.054382
0.800598 0.397278 0.051849
0.827301 0.397644 0.049194
0.851440 0.397827 0.047211
0.871277 0.397766 0.046051
0.890594 0.397827 0.044983
0.909760 0.397949 0.043945
0.928680 0.398071 0.042816
0.947388 0.398346 0.042114
0.965912 0.398682 0.041534
0.982025 0.399017 0.041656
0.991028 0.399475 0.041840
1.000000 0.399963 0.042450
0.025146 0.411804 0.095123
0.057220 0.409058 0.095123
0.099030 0.406921 0.094879
0.144806 0.405243 0.094238
0.189758 0.405060 0.093292
0.231842 0.405426 0.092163
0.273865 0.406586 0.090759
0.315308 0.408478 0.089081
0.355286 0.410645 0.087341
0.395782 0.413391 0.085297
0.439117 0.416626 0.082489
0.483124 0.419952 0.079620
0.526062 0.422974 0.076202
0.567261 0.425659 0.072571
0.607208 0.427795 0.069092
0.647644 0.430023 0.064911
0.685852 0.431763 0.060852
0.720123 0.432770 0.057129
0.750488 0.433411 0.053894
0.779266 0.433868 0.050903
0.806549 0.434296 0.048218
0.833527 0.434814 0.045105
0.858582 0.435059 0.042603
0.879089 0.435028 0.041077
0.898590 0.435028 0.039673
0.917755 0.435059 0.038696
0.936737 0.435181 0.037903
0.955475 0.435303 0.037354
0.973053 0.435547 0.036865
0.982025 0.435822 0.036835
0.991028 0.436127 0.036926
1.000000 0.436493 0.037384
0.000000 0.445374 0.094757
0.029541 0.442657 0.094788
0.074921 0.440582 0.094513
0.131927 0.438965 0.093964
0.180481 0.438904 0.092987
0.226440 0.439392 0.091827
0.270233 0.440491 0.090424
0.312805 0.442413 0.088623
0.354553 0.444611 0.086700
0.395447 0.447327 0.084473
0.439087 0.450592 0.081573
0.483765 0.454041 0.078339
0.527252 0.457214 0.074646
0.568970 0.460052 0.070770
0.609406 0.462616 0.066772
0.649719 0.464996 0.062531
0.688202 0.466980 0.058258
0.724060 0.468475 0.054199
0.754761 0.469208 0.050690
0.784180 0.469849 0.047241
0.811829 0.470428 0.044098
0.838959 0.470978 0.040680
0.864502 0.471405 0.037689
0.885925 0.471436 0.035645
0.905823 0.471436 0.034149
0.925140 0.471436 0.032867
0.944092 0.471527 0.032410
0.962860 0.471588 0.032104
0.973053 0.471741 0.031891
0.982025 0.471924 0.031769
0.991028 0.472168 0.031830
1.000000 0.472443 0.031921
0.000000 0.475006 0.094238
0.008972 0.472870 0.094391
0.053711 0.471191 0.094116
0.117676 0.470306 0.093445
0.171448 0.470947 0.092316
0.219849 0.471832 0.091003
0.266144 0.473602 0.089355
0.310211 0.475861 0.087341
0.352875 0.478241 0.085205
0.394653 0.480957 0.082703
0.438629 0.484253 0.079742
0.483551 0.487732 0.076447
0.527985 0.491058 0.072571
0.569794 0.493927 0.068665
0.610413 0.496582 0.064606
0.650848 0.499084 0.059814
0.690002 0.501221 0.055084
0.727203 0.502930 0.050323
0.758118 0.503693 0.046295
0.787811 0.504395 0.042511
0.816101 0.505005 0.038666
0.843384 0.505585 0.034790
0.869232 0.506012 0.031616
0.891876 0.506104 0.029541
0.911804 0.506042 0.028625
0.931152 0.505981 0.027710
0.950195 0.505951 0.027252
0.964081 0.505981 0.026855
0.973053 0.506073 0.026520
0.982025 0.506134 0.026215
0.991028 0.506378 0.026459
1.000000 0.506622 0.026794
0.000000 0.504791 0.093506
0.008972 0.502655 0.093597
0.035095 0.501221 0.093323
0.099060 0.500641 0.092621
0.160889 0.501434 0.091400
0.213287 0.502716 0.090027
0.261108 0.504639 0.088348
0.306976 0.507172 0.086243
0.350739 0.509918 0.083954
0.392883 0.512848 0.081421
0.437561 0.516510 0.078064
0.482849 0.520142 0.074585
0.527740 0.523804 0.070404
0.570374 0.527161 0.065918
0.611145 0.529846 0.061768
0.651825 0.532715 0.056427
0.691864 0.535309 0.050690
0.729950 0.537231 0.045410
0.761169 0.538330 0.040619
0.791290 0.539124 0.036591
0.819946 0.539825 0.032532
0.847382 0.540405 0.028992
0.873749 0.540894 0.025513
0.897034 0.541046 0.023376
0.917542 0.540924 0.022247
0.936920 0.540833 0.021698
0.955078 0.540771 0.021149
0.964081 0.540771 0.021057
0.973053 0.540802 0.020782
0.982025 0.540894 0.021027
0.991028 0.541046 0.021393
1.000000 0.541260 0.021942
0.000000 0.534607 0.092590
0.008972 0.532562 0.092621
0.033417 0.531128 0.092285
0.080505 0.530487 0.091522
0.144989 0.531311 0.090271
0.205292 0.532623 0.088867
0.255737 0.534546 0.087219
0.302795 0.537170 0.085144
0.348083 0.540070 0.082825
0.390686 0.543396 0.080231
0.435699 0.547333 0.076752
0.481659 0.551514 0.072845
0.527100 0.555573 0.068237
0.570190 0.559235 0.063446
0.611633 0.562561 0.058502
0.652496 0.565704 0.052734
0.692841 0.568604 0.046448
0.732452 0.571289 0.039734
0.763916 0.572601 0.034546
0.794250 0.573700 0.029846
0.823517 0.574615 0.025818
0.851044 0.575256 0.022461
0.877502 0.575775 0.019470
0.901825 0.576019 0.017151
0.922760 0.575958 0.015991
0.942444 0.575806 0.015259
0.955078 0.575714 0.014587
0.964081 0.575684 0.014496
0.973053 0.575714 0.014679
0.982025 0.575836 0.015472
0.991028 0.575989 0.016418
1.000000 0.576202 0.017334
0.000000 0.563690 0.091278
0.008972 0.562866 0.091370
0.019867 0.561462 0.091156
0.046661 0.560791 0.090515
0.130402 0.561768 0.089203
0.195648 0.563110 0.087677
0.249725 0.565033 0.085876
0.298676 0.567657 0.083557
0.344788 0.570557 0.081116
0.388397 0.573883 0.078247
0.433960 0.577850 0.074463
0.480286 0.582062 0.070282
0.526550 0.586304 0.065063
0.569946 0.589996 0.059845
0.611664 0.593384 0.054565
0.652740 0.596619 0.048248
0.693634 0.599701 0.041718
0.733948 0.602570 0.034668
0.765411 0.603882 0.030060
0.796021 0.605103 0.025269
0.825775 0.606171 0.021027
0.853546 0.607117 0.017273
0.880432 0.607849 0.014038
0.905914 0.608490 0.011230
0.927216 0.608704 0.010559
0.946106 0.608704 0.010193
0.955078 0.608856 0.010254
0.964081 0.608948 0.010254
0.973053 0.609070 0.010498
0.982025 0.609314 0.010986
0.991028 0.609558 0.012299
1.000000 0.609833 0.013641
0.000000 0.590546 0.090515
0.008972 0.590057 0.090424
0.017975 0.590057 0.090027
0.031006 0.589447 0.089478
0.107361 0.591064 0.087982
0.185852 0.592926 0.086243
0.242340 0.595032 0.084290
0.293518 0.598114 0.081635
0.341278 0.601044 0.078918
0.385529 0.604370 0.075867
0.431824 0.608337 0.071930
0.478699 0.612579 0.067474
0.525299 0.616852 0.062134
0.569244 0.620667 0.056580
0.611237 0.624146 0.050903
0.652435 0.627411 0.044312
0.693878 0.630676 0.037079
0.734741 0.633667 0.029785
0.766754 0.635132 0.025177
0.797699 0.636414 0.020905
0.827789 0.637573 0.016571
0.855835 0.638672 0.013153
0.883301 0.639648 0.009735
0.909485 0.640503 0.006805
0.931305 0.640778 0.005890
0.946106 0.640961 0.005798
0.955078 0.641144 0.005981
0.964081 0.641357 0.006592
0.973053 0.641571 0.007080
0.982025 0.641846 0.008057
0.991028 0.642120 0.009369
1.000000 0.642456 0.011078
0.000000 0.615173 0.090271
0.008972 0.615021 0.090057
0.017975 0.615326 0.089508
0.026947 0.616272 0.088501
0.099884 0.618469 0.086792
0.173615 0.621124 0.084808
0.234863 0.624329 0.082397
0.287537 0.627838 0.079498
0.336975 0.631409 0.076385
0.382416 0.634735 0.073029
0.429260 0.638763 0.068909
0.476746 0.643036 0.064362
0.523804 0.647369 0.058929
0.568054 0.651215 0.053345
0.610352 0.654724 0.047577
0.651672 0.658051 0.040710
0.693237 0.661346 0.033234
0.734985 0.664612 0.025055
0.767426 0.666168 0.020447
0.798889 0.667572 0.016205
0.829712 0.668884 0.012329
0.857941 0.670013 0.009216
0.885559 0.671112 0.006287
0.912903 0.672150 0.003510
0.935089 0.672485 0.002563
0.946106 0.672607 0.002319
0.955078 0.672760 0.002380
0.964081 0.672974 0.003082
0.973053 0.673187 0.004181
0.982025 0.673431 0.005890
0.991028 0.673706 0.007721
1.000000 0.673981 0.009705
0.000000 0.638672 0.089874
0.008972 0.638947 0.089264
0.017975 0.639374 0.088623
0.026947 0.640442 0.087524
0.090118 0.642700 0.085876
0.164795 0.645416 0.083954
0.229279 0.648712 0.081665
0.283356 0.652435 0.078918
0.333252 0.656311 0.075806
0.379089 0.660278 0.072449
0.426361 0.664948 0.068054
0.474121 0.669617 0.063324
0.521637 0.674774 0.057709
0.566345 0.679230 0.051941
0.608978 0.683197 0.046051
0.650696 0.687378 0.038940
0.692322 0.691040 0.031494
0.734131 0.694672 0.023376
0.768250 0.696533 0.018280
0.799866 0.697968 0.013947
0.830811 0.699310 0.009918
0.859589 0.700470 0.006531
0.887360 0.701569 0.003906
0.914856 0.702637 0.001709
0.937134 0.703125 0.001007
0.946106 0.703308 0.000916
0.955078 0.703461 0.001221
0.964081 0.703613 0.002136
0.973053 0.703827 0.003357
0.982025 0.704010 0.004974
0.991028 0.704254 0.006805
1.000000 0.704498 0.008759
0.000000 0.661987 0.089447
0.008972 0.662415 0.088959
0.017975 0.663239 0.088318
0.026947 0.664429 0.087097
0.084351 0.666718 0.085632
0.155579 0.669434 0.083832
0.222626 0.672760 0.081635
0.278503 0.676514 0.079071
0.329498 0.680481 0.076202
0.375671 0.684753 0.072906
0.423370 0.689728 0.068695
0.471497 0.694977 0.063721
0.519226 0.700348 0.058075
0.564392 0.705231 0.052185
0.607483 0.709808 0.046112
0.649261 0.714111 0.039001
0.691101 0.718323 0.031281
0.733002 0.722351 0.023224
0.767731 0.724701 0.017609
0.800415 0.726593 0.013092
0.831451 0.727966 0.008972
0.860504 0.729431 0.005737
0.888672 0.730743 0.002716
0.916199 0.731903 0.000824
0.937134 0.732697 0.000092
0.946106 0.733032 0.000214
0.955078 0.733276 0.000702
0.964081 0.733612 0.001556
0.973053 0.733826 0.002930
0.982025 0.734131 0.004425
0.991028 0.734497 0.006042
1.000000 0.734711 0.007935
0.000000 0.685150 0.089020
0.008972 0.685760 0.088745
0.017975 0.686737 0.088257
0.026947 0.688293 0.087555
0.077148 0.690521 0.086304
0.141144 0.693268 0.084717
0.216125 0.696686 0.082733
0.273132 0.700409 0.080322
0.325165 0.704407 0.077667
0.372314 0.708740 0.074707
0.420410 0.713715 0.070648
0.468933 0.718994 0.066010
0.516968 0.724365 0.060364
0.562347 0.729309 0.054474
0.605835 0.733917 0.048401
0.647766 0.738251 0.041321
0.689606 0.742523 0.033569
0.731445 0.746674 0.025208
0.766998 0.749573 0.018921
0.800354 0.751953 0.013824
0.831512 0.754059 0.010010
0.860779 0.755859 0.006927
0.889252 0.757568 0.004089
0.916901 0.759247 0.001740
0.937134 0.760345 0.000763
0.946106 0.761200 0.000458
0.955078 0.761810 0.001129
0.964081 0.762329 0.001953
0.973053 0.762878 0.003021
0.982025 0.763458 0.004272
0.991028 0.764008 0.005707
1.000000 0.764526 0.007233
0.000000 0.707611 0.090973
0.008972 0.709290 0.090637
0.017975 0.710480 0.090118
0.026947 0.712189 0.089355
0.059784 0.714386 0.088135
0.126465 0.717133 0.086609
0.208374 0.720581 0.084625
0.268219 0.724274 0.082275
0.321045 0.728241 0.079651
0.369019 0.732605 0.076630
0.417755 0.737549 0.072662
0.466522 0.742828 0.068054
0.514893 0.748199 0.062439
0.560577 0.753174 0.056610
0.604248 0.757812 0.050598
0.646118 0.762207 0.044464
0.687866 0.766510 0.037292
0.729584 0.770721 0.029327
0.766266 0.773865 0.023315
0.799896 0.776398 0.018066
0.831055 0.778534 0.014191
0.860748 0.780487 0.010834
0.889343 0.782318 0.008026
0.916992 0.784027 0.005493
0.937134 0.785370 0.003906
0.946106 0.786316 0.003448
0.955078 0.786926 0.004059
0.964081 0.787537 0.004944
0.973053 0.788116 0.005920
0.982025 0.788696 0.007141
0.991028 0.789276 0.008453
1.000000 0.789856 0.009918
0.000000 0.729034 0.093597
0.008972 0.730988 0.093231
0.017975 0.733307 0.092499
0.026947 0.735168 0.091644
0.053253 0.737671 0.090363
0.110291 0.740723 0.088715
0.199097 0.744171 0.086700
0.262238 0.747955 0.084320
0.316803 0.751892 0.081818
0.365479 0.756226 0.078796
0.414764 0.761200 0.075043
0.464081 0.766449 0.070587
0.512604 0.771851 0.065125
0.558533 0.776825 0.059601
0.602509 0.781525 0.053650
0.644409 0.785919 0.047882
0.686127 0.790222 0.041504
0.727631 0.794495 0.034271
0.764862 0.797760 0.028198
0.799286 0.800507 0.023102
0.830505 0.802643 0.019226
0.860321 0.804626 0.015778
0.889252 0.806488 0.012634
0.916962 0.808197 0.010010
0.937134 0.809631 0.008148
0.946106 0.810730 0.007172
0.955078 0.811340 0.007782
0.964081 0.811890 0.008575
0.973053 0.812500 0.009735
0.982025 0.813080 0.011261
0.991028 0.813721 0.013245
1.000000 0.814270 0.014679
0.000000 0.748260 0.096924
0.008972 0.750366 0.096436
0.017975 0.752960 0.095581
0.026947 0.756042 0.094330
0.042236 0.759125 0.092896
0.092529 0.762604 0.091156
0.192841 0.767120 0.088776
0.256805 0.770996 0.086395
0.312225 0.775055 0.083862
0.362244 0.779449 0.081207
0.411804 0.784424 0.077759
0.461395 0.789673 0.073730
0.510101 0.795074 0.069061
0.556152 0.800110 0.064026
0.600311 0.804840 0.058807
0.642365 0.809235 0.053345
0.684082 0.813568 0.047241
0.725525 0.817810 0.040588
0.763611 0.821289 0.034119
0.798553 0.824158 0.028778
0.829803 0.826294 0.024780
0.859863 0.828308 0.021118
0.889008 0.830200 0.017822
0.916748 0.831940 0.015015
0.937134 0.833466 0.012848
0.946106 0.834656 0.011536
0.955078 0.835266 0.012024
0.964081 0.835846 0.012817
0.973053 0.836395 0.013947
0.982025 0.837128 0.016876
0.991028 0.837769 0.019745
1.000000 0.838440 0.022766
0.000000 0.767365 0.100067
0.008972 0.769684 0.099457
0.017975 0.772278 0.098755
0.026947 0.775574 0.097565
0.036987 0.778839 0.096436
0.083832 0.782501 0.094849
0.186096 0.787048 0.092712
0.252411 0.791565 0.090668
0.308441 0.795837 0.088135
0.358856 0.800690 0.085541
0.409027 0.806244 0.082123
0.458771 0.811646 0.078278
0.507599 0.817535 0.073578
0.553894 0.822968 0.068756
0.598175 0.827789 0.063873
0.640320 0.832214 0.058716
0.682098 0.836548 0.053040
0.723572 0.840820 0.046631
0.762482 0.844452 0.040314
0.797760 0.847382 0.034821
0.829041 0.849548 0.030792
0.859375 0.851593 0.026917
0.888641 0.853516 0.023682
0.916443 0.855286 0.021057
0.937134 0.857025 0.019745
0.946106 0.858337 0.018616
0.955078 0.859009 0.020142
0.964081 0.859650 0.022644
0.973053 0.860291 0.024170
0.982025 0.860992 0.028076
0.991028 0.861694 0.031860
1.000000 0.862396 0.035645
0.000000 0.786377 0.103394
0.008972 0.788849 0.102814
0.017975 0.791595 0.102081
0.026947 0.794800 0.101166
0.035919 0.798096 0.100159
0.077545 0.801758 0.098907
0.181793 0.806274 0.097137
0.248840 0.810730 0.095306
0.304993 0.815430 0.093231
0.355835 0.820709 0.090637
0.406281 0.826477 0.087311
0.456299 0.832520 0.083527
0.505188 0.838745 0.078827
0.551575 0.844482 0.074066
0.596130 0.849884 0.069183
0.638275 0.854401 0.064178
0.680145 0.858917 0.058868
0.721619 0.863190 0.052948
0.760986 0.867065 0.046936
0.796936 0.870331 0.041870
0.828247 0.872498 0.037781
0.858734 0.874695 0.034210
0.888275 0.876709 0.031097
0.916138 0.878540 0.028687
0.937134 0.880341 0.027679
0.946106 0.881897 0.027588
0.955078 0.882629 0.029968
0.964081 0.883362 0.033112
0.973053 0.884064 0.036652
0.982025 0.884796 0.041016
0.991028 0.885498 0.045349
1.000000 0.886230 0.049866
0.000000 0.805298 0.107758
0.008972 0.808136 0.107361
0.017975 0.810913 0.106720
0.026947 0.813995 0.105927
0.035919 0.817322 0.104919
0.076996 0.820984 0.103729
0.178253 0.825348 0.102112
0.245453 0.829681 0.100433
0.301788 0.834290 0.098511
0.353699 0.839569 0.096039
0.404297 0.845306 0.092896
0.454437 0.851318 0.089233
0.503357 0.857452 0.084991
0.549744 0.863281 0.080414
0.594330 0.868744 0.075775
0.636444 0.873901 0.070923
0.678284 0.878754 0.065857
0.719757 0.883606 0.060486
0.759827 0.888275 0.055481
0.796082 0.891907 0.051056
0.827484 0.894745 0.048248
0.858276 0.897522 0.045563
0.888000 0.899872 0.043152
0.915955 0.901947 0.042267
0.937134 0.903809 0.041779
0.946106 0.905426 0.042084
0.955078 0.906311 0.044861
0.964081 0.907013 0.047974
0.973053 0.907745 0.051483
0.982025 0.908447 0.055084
0.991028 0.909149 0.059021
1.000000 0.909882 0.062988
0.000000 0.824127 0.112366
0.008972 0.827209 0.111877
0.017975 0.830048 0.111359
0.026947 0.833069 0.110626
0.035919 0.836456 0.109650
0.075989 0.840057 0.108521
0.175812 0.844360 0.106964
0.242249 0.848541 0.105469
0.299011 0.853058 0.103729
0.351501 0.858368 0.101379
0.402557 0.864136 0.098907
0.452759 0.870087 0.095581
0.501709 0.876221 0.091919
0.548126 0.882080 0.088318
0.592712 0.887604 0.083954
