static/luts/Warm Teal.cube
#Created by: Adobe Photoshop Export Color Lookup Plugin
#Copyright: (C) Copyright 2018 https://www.presetpro.com and Tim Martin
TITLE "Presetpro - Warm Teal"
#LUT size
LUT_3D_SIZE 8
#data domain
#LUT data points
DOMAIN_MIN 0.000000 0.000000 0.000000
DOMAIN_MAX 0.903226 0.903226 0.903226
0.082458 0.065125 0.046143
0.129547 0.077911 0.060455
0.207672 0.092529 0.069397
0.336243 0.096283 0.066040
0.502258 0.093018 0.064392
0.632172 0.101379 0.079407
0.733154 0.126740 0.112488
0.787018 0.177246 0.159180
0.106262 0.123627 0.074799
0.160095 0.137756 0.091095
0.228119 0.154846 0.102997
0.344910 0.169830 0.104126
0.512360 0.171600 0.095947
0.640381 0.190063 0.106995
0.745972 0.213348 0.128967
0.814301 0.251831 0.159058
0.112366 0.215424 0.103485
0.166168 0.230103 0.125916
0.274200 0.244507 0.136444
0.379333 0.254852 0.132568
0.496918 0.266388 0.123199
0.641693 0.286926 0.118683
0.748779 0.313446 0.134003
0.822479 0.345734 0.163666
0.049286 0.381073 0.143158
0.066559 0.396637 0.162720
0.234924 0.396118 0.167969
0.464355 0.396942 0.137146
0.607391 0.386993 0.115540
0.674408 0.387909 0.111023
0.762115 0.407440 0.117767
0.835571 0.443329 0.143005
0.074310 0.533600 0.190491
0.094971 0.547424 0.218353
0.115021 0.557495 0.241547
0.434326 0.540344 0.200317
0.679138 0.543030 0.177582
0.762299 0.541138 0.189331
0.814209 0.535858 0.150574
0.856415 0.542908 0.148407
0.116760 0.642365 0.281342
0.136353 0.659027 0.306610
0.155731 0.677307 0.335754
0.394928 0.678009 0.326477
0.649597 0.649139 0.262024
0.785950 0.676086 0.306458
0.849976 0.678101 0.336426
0.894470 0.671234 0.294098
0.184570 0.773010 0.430878
0.204529 0.796082 0.458496
0.286682 0.810425 0.474640
0.483948 0.782196 0.440643
0.636993 0.761597 0.392456
0.790039 0.756531 0.389648
0.872009 0.783081 0.440308
0.918976 0.778259 0.455017
0.248383 0.887207 0.557251
0.297577 0.894745 0.564331
0.460052 0.870087 0.538483
0.583527 0.854675 0.515594
0.680878 0.841644 0.491150
0.793823 0.831085 0.468018
0.870300 0.837189 0.486511
0.935028 0.850922 0.518402
0.090759 0.075378 0.077484
0.135162 0.085419 0.093109
0.211304 0.101501 0.107422
0.340607 0.109741 0.110748
0.508057 0.111389 0.116730
0.642334 0.128357 0.135773
0.742432 0.155914 0.161743
0.801117 0.197662 0.199890
0.115082 0.132355 0.105408
0.166718 0.147522 0.124359
0.235901 0.165222 0.137848
0.347839 0.179535 0.142700
0.519348 0.185242 0.139496
0.645203 0.204956 0.149994
0.750366 0.235168 0.172211
0.822052 0.267548 0.206360
0.120331 0.227509 0.141541
0.174561 0.238037 0.161194
0.274139 0.250244 0.174194
0.373749 0.263580 0.173523
0.512817 0.278473 0.165192
0.653259 0.296661 0.166290
0.760834 0.322845 0.182190
0.831451 0.356995 0.210632
0.051239 0.391693 0.188568
0.070099 0.406738 0.208344
0.226532 0.413025 0.221130
0.462830 0.404999 0.203461
0.602417 0.400055 0.179810
0.675415 0.396027 0.164124
0.773987 0.420807 0.179047
0.846039 0.454865 0.204773
0.080658 0.544403 0.248383
0.100830 0.556122 0.267944
0.119446 0.566925 0.296509
0.431641 0.557220 0.267120
0.677521 0.555206 0.258606
0.763611 0.553619 0.265594
0.820007 0.545624 0.222748
0.865295 0.554688 0.214386
0.118042 0.648590 0.337189
0.136963 0.665497 0.361816
0.169220 0.704285 0.413086
0.406677 0.692627 0.396729
0.648285 0.661987 0.341034
0.786499 0.685333 0.387512
0.851776 0.690460 0.416443
0.897919 0.680115 0.371735
0.191284 0.788879 0.494446
0.209808 0.810028 0.521179
0.304596 0.813141 0.530334
0.496063 0.790222 0.503204
0.643188 0.771729 0.461243
0.788513 0.765778 0.456970
0.871826 0.789429 0.504486
0.921173 0.788422 0.520477
0.247650 0.893341 0.605957
0.297516 0.901978 0.614868
0.468262 0.874023 0.587952
0.592194 0.862274 0.570160
0.690125 0.850586 0.550568
0.794464 0.839935 0.528687
0.870148 0.845032 0.548157
0.935150 0.857422 0.576813
0.097900 0.089417 0.126892
0.136963 0.098145 0.148102
0.195770 0.105804 0.179108
0.310883 0.106506 0.215698
0.481232 0.075134 0.222778
0.637787 0.084625 0.236969
0.749084 0.146790 0.262390
0.808411 0.199036 0.293427
0.124512 0.146332 0.153320
0.167816 0.160706 0.177551
0.233978 0.171295 0.209778
0.345673 0.178284 0.237549
0.512787 0.176300 0.239563
0.662689 0.196655 0.255066
0.775330 0.230927 0.268494
0.836090 0.275665 0.298218
0.126740 0.230774 0.191193
0.181335 0.246643 0.217773
0.266571 0.256653 0.235443
0.381531 0.275055 0.251434
0.544189 0.283569 0.244415
0.690338 0.301697 0.240021
0.798065 0.331451 0.261383
0.857758 0.367676 0.283936
0.055023 0.410950 0.261566
0.070587 0.420776 0.288086
0.235199 0.413910 0.302460
0.434143 0.413788 0.299286
0.564850 0.405029 0.276733
0.677856 0.407990 0.251984
0.791412 0.435150 0.266876
0.865082 0.468414 0.296387
0.082397 0.551422 0.334259
0.101593 0.563568 0.360931
0.134064 0.588531 0.392700
0.407349 0.569885 0.374451
0.659607 0.563019 0.369110
0.753357 0.561707 0.371704
0.815552 0.553131 0.319031
0.876007 0.568939 0.295898
0.129883 0.673126 0.444458
0.160095 0.706696 0.487488
0.181915 0.731171 0.513580
0.430511 0.696167 0.477661
0.637329 0.677460 0.439850
0.781860 0.692871 0.479370
0.849915 0.701233 0.503693
0.900330 0.693176 0.464661
0.205688 0.814453 0.584686
0.221680 0.834961 0.608124
0.357910 0.812469 0.588623
0.522644 0.793732 0.565704
0.647095 0.780121 0.538300
0.788574 0.775879 0.536621
0.870667 0.798218 0.575867
0.922668 0.799835 0.595703
0.250977 0.906281 0.668640
0.346039 0.896301 0.659912
0.487030 0.874084 0.638062
0.605438 0.863678 0.624573
0.700623 0.857422 0.612915
0.796509 0.848206 0.594513
0.870819 0.853485 0.617706
0.935120 0.866425 0.643188
0.105164 0.103149 0.205841
0.147552 0.111908 0.236267
0.202545 0.122742 0.273651
0.285278 0.117737 0.315186
0.429749 0.086884 0.353668
0.590027 0.088531 0.388306
0.710815 0.106201 0.419037
0.809723 0.207062 0.486755
0.129272 0.161835 0.229034
0.175812 0.176941 0.259216
0.231445 0.190491 0.299469
0.321960 0.186401 0.339874
0.439301 0.146515 0.360748
0.595337 0.151672 0.391785
0.752899 0.223480 0.455933
0.834686 0.281921 0.496704
0.138641 0.245667 0.264160
0.192749 0.261169 0.289642
0.255920 0.280121 0.329315
0.361969 0.279999 0.374176
0.513428 0.277740 0.413635
0.674072 0.302734 0.436676
0.794891 0.338989 0.479004
0.863312 0.376190 0.488281
0.054291 0.391144 0.324707
0.076019 0.404877 0.353729
0.248352 0.407104 0.380249
0.389893 0.405945 0.392914
0.554291 0.415192 0.404755
0.709930 0.424072 0.415436
0.822113 0.450409 0.433655
0.884613 0.485870 0.465332
0.087189 0.564911 0.434509
0.104767 0.577240 0.457214
0.144653 0.612427 0.508453
0.407318 0.567657 0.476868
0.624969 0.563782 0.474762
0.727142 0.556885 0.455536
0.803925 0.555817 0.435059
0.884247 0.586975 0.469788
0.130524 0.682037 0.518372
0.162567 0.719849 0.564728
0.292572 0.724976 0.581635
0.466034 0.700684 0.559662
0.623657 0.686462 0.531799
0.780487 0.699829 0.570099
0.845764 0.706299 0.584442
0.902405 0.700500 0.543213
0.207611 0.823700 0.649200
0.238678 0.843903 0.675385
0.435211 0.809723 0.650299
0.551147 0.796143 0.633484
0.666626 0.789368 0.619873
0.787476 0.785217 0.612579
0.871521 0.808258 0.653320
0.924713 0.810211 0.665497
0.255402 0.914276 0.725525
0.396515 0.893311 0.710938
0.533386 0.872375 0.691254
0.624298 0.867432 0.682343
0.716400 0.865540 0.679504
0.800751 0.858032 0.663727
0.874847 0.864044 0.680847
0.937439 0.875183 0.702789
0.116638 0.108063 0.299744
0.162903 0.121124 0.334320
0.219666 0.136536 0.376709
0.285431 0.127380 0.403931
0.410004 0.109985 0.433075
0.569550 0.101776 0.486053
0.694061 0.105957 0.531250
0.771637 0.155853 0.575256
0.137726 0.172607 0.319641
0.187836 0.188629 0.352386
0.245117 0.204346 0.399536
0.313995 0.205902 0.432709
0.420776 0.168121 0.449158
0.578156 0.161804 0.494568
0.695099 0.168915 0.537415
0.809143 0.259857 0.602356
0.144073 0.266754 0.351929
0.200439 0.280945 0.381439
0.262878 0.299072 0.424805
0.341827 0.313904 0.476471
0.486847 0.288696 0.505035
0.629639 0.269043 0.540558
0.760101 0.313629 0.589111
0.854004 0.377960 0.625854
0.065948 0.399017 0.417175
0.143433 0.410553 0.440216
0.257416 0.415466 0.454163
0.357300 0.433868 0.494263
0.532562 0.415344 0.529907
0.684174 0.418732 0.569031
0.798950 0.461029 0.603668
0.879669 0.507202 0.635193
0.085785 0.532166 0.470490
0.103821 0.547333 0.495422
0.236420 0.568115 0.536835
0.420227 0.557831 0.544983
0.565704 0.542908 0.537445
0.714111 0.552612 0.566895
0.819580 0.574829 0.589233
0.895386 0.603912 0.613922
0.134491 0.693542 0.599213
0.165863 0.731689 0.646912
0.298615 0.735107 0.658844
0.497314 0.707886 0.636871
0.623383 0.689484 0.619446
0.769775 0.697449 0.631195
0.837921 0.699799 0.634003
0.896393 0.694794 0.610687
0.209259 0.831940 0.708130
0.237946 0.851959 0.732727
0.425812 0.819275 0.704376
0.583923 0.803925 0.690460
0.684937 0.796356 0.682251
0.785950 0.790680 0.671082
0.872406 0.814606 0.706085
0.929260 0.820404 0.718933
0.248718 0.910767 0.760071
0.345551 0.906097 0.758789
0.533020 0.875519 0.731537
0.656219 0.869019 0.728638
0.736511 0.869263 0.728058
0.813019 0.867950 0.725067
0.879791 0.872498 0.734680
0.940674 0.883331 0.755859
0.128479 0.113403 0.383575
0.182495 0.129730 0.417297
0.241791 0.145660 0.452301
0.310425 0.148621 0.482971
0.392181 0.137604 0.508698
0.560059 0.119141 0.551910
0.692078 0.118958 0.602386
0.759918 0.121613 0.627258
0.151001 0.182800 0.409698
0.205841 0.202911 0.444122
0.264954 0.218475 0.480408
0.335449 0.226685 0.513245
0.402069 0.195801 0.524323
0.568268 0.179108 0.564148
0.692932 0.181152 0.609894
0.763031 0.183807 0.630890
0.154633 0.288483 0.448853
0.211639 0.299622 0.474731
0.277008 0.317474 0.511292
0.354340 0.332062 0.550659
0.445465 0.329590 0.581177
0.611847 0.281982 0.603699
0.725281 0.273560 0.639954
0.820496 0.321503 0.682556
0.081360 0.428406 0.502045
0.157104 0.435181 0.518707
0.241943 0.450195 0.543640
0.332336 0.464447 0.576385
0.460358 0.471191 0.614502
0.667358 0.424713 0.632294
0.780457 0.431641 0.679108
0.865509 0.473755 0.711456
0.103363 0.542877 0.557892
0.135712 0.569244 0.594116
0.293213 0.555939 0.590942
0.418732 0.551910 0.594025
0.545441 0.563354 0.615784
0.699493 0.554688 0.648132
0.809692 0.572113 0.689880
0.893066 0.613403 0.722717
0.140747 0.685455 0.633087
0.166107 0.713470 0.669617
0.326569 0.701050 0.667938
0.493896 0.689667 0.666229
0.629242 0.682739 0.666840
0.730469 0.670776 0.663971
0.832001 0.690399 0.691620
0.908234 0.714844 0.721497
0.212524 0.838928 0.758362
0.251160 0.855286 0.779785
0.457581 0.820923 0.751556
0.597229 0.813202 0.745026
0.707703 0.807190 0.739929
0.787384 0.798035 0.729584
0.872467 0.817200 0.758362
0.929840 0.821625 0.761200
0.252899 0.919159 0.807526
0.381836 0.901001 0.792938
0.543060 0.876099 0.771393
0.655243 0.871552 0.768738
0.754211 0.871826 0.771515
0.830475 0.875427 0.780151
0.885132 0.879730 0.788391
0.943237 0.889740 0.810791
0.169952 0.140656 0.469360
0.221802 0.153534 0.500061
0.280334 0.167023 0.534424
0.345825 0.173035 0.559540
0.406158 0.141602 0.556488
0.532227 0.149475 0.601440
0.684540 0.135345 0.644745
0.761108 0.136353 0.674042
0.191772 0.215607 0.496674
0.242004 0.232727 0.526550
0.298767 0.245270 0.559174
0.365631 0.252472 0.591858
0.438049 0.237366 0.601624
0.542297 0.207611 0.618500
0.687469 0.196106 0.653076
0.763275 0.198853 0.678253
0.183655 0.323547 0.533539
0.236938 0.335876 0.556519
0.300568 0.351990 0.587311
0.379700 0.361694 0.625488
0.465363 0.358185 0.647858
0.577026 0.313843 0.658264
0.702545 0.263916 0.671356
0.791565 0.289948 0.706055
0.099365 0.470581 0.584869
0.167847 0.478851 0.601501
0.263092 0.483429 0.619781
0.353668 0.491486 0.649597
0.454071 0.499390 0.681000
0.641357 0.453583 0.690460
0.772675 0.441376 0.725769
0.849365 0.454742 0.750305
0.122711 0.576263 0.632690
0.172821 0.586731 0.649628
0.313416 0.572571 0.644012
0.423431 0.579163 0.659180
0.532867 0.589630 0.686035
0.675842 0.580170 0.709808
0.798401 0.575989 0.743439
0.883240 0.588776 0.772705
0.159393 0.696899 0.695526
0.227020 0.703094 0.709961
0.386597 0.683350 0.699585
0.508698 0.677185 0.701416
0.609741 0.673157 0.702209
0.713959 0.686554 0.727417
0.822388 0.692566 0.761841
0.908844 0.711914 0.793640
0.205292 0.819000 0.772339
0.259033 0.831604 0.790924
0.446899 0.799347 0.765320
0.580475 0.793274 0.764587
0.694427 0.792175 0.768219
0.785645 0.798340 0.775543
0.851776 0.794495 0.781342
0.926697 0.813782 0.809021
0.256287 0.921356 0.846100
0.411285 0.896240 0.825592
0.557648 0.876434 0.809387
0.674347 0.872192 0.807617
0.771088 0.874268 0.812439
0.847443 0.882660 0.827972
0.898560 0.888428 0.838196
0.949951 0.898438 0.852020
0.253265 0.213440 0.576996
0.293488 0.223724 0.596252
0.342438 0.232758 0.617371
0.403412 0.231995 0.636932
0.469666 0.214050 0.644135
0.522430 0.168060 0.637939
0.675812 0.150757 0.683563
0.763641 0.152161 0.713135
0.253510 0.294250 0.603699
0.299103 0.306244 0.624390
0.351807 0.312561 0.644714
0.413391 0.310974 0.664276
0.485870 0.296448 0.673950
0.534576 0.234009 0.659760
0.683502 0.210632 0.693787
0.766327 0.213409 0.719025
0.218048 0.405792 0.636871
0.272888 0.412659 0.652557
0.338745 0.418488 0.671692
0.411438 0.422913 0.694855
0.494263 0.411957 0.709625
0.579468 0.384277 0.718384
0.691895 0.267944 0.705078
0.773010 0.272736 0.729126
0.131897 0.548889 0.692169
0.220490 0.545197 0.696655
0.308899 0.542908 0.706421
0.390198 0.545380 0.722961
0.483215 0.541382 0.740082
0.628387 0.502686 0.742432
0.755981 0.450958 0.759308
0.838806 0.456085 0.784271
0.180817 0.635620 0.725189
0.293060 0.620453 0.718109
0.384644 0.619354 0.724548
0.483978 0.622467 0.736542
0.567780 0.624939 0.750793
0.662689 0.621216 0.769196
0.788849 0.590607 0.783020
0.877869 0.594177 0.811096
0.212402 0.726501 0.769226
0.325409 0.712463 0.762024
0.443573 0.701324 0.756073
0.543396 0.698914 0.758057
0.633911 0.701874 0.765228
0.719086 0.712646 0.785889
0.812408 0.709076 0.802490
0.907379 0.715057 0.835083
0.219757 0.823334 0.817322
0.351196 0.804810 0.803864
0.486572 0.791351 0.795776
0.597626 0.788605 0.795044
0.686890 0.791931 0.802734
0.772186 0.793671 0.805878
0.840607 0.805084 0.824615
0.931641 0.818359 0.857819
0.247070 0.908051 0.864655
0.402252 0.886292 0.846649
0.537384 0.870453 0.833038
0.646851 0.867554 0.833160
0.750305 0.870422 0.837219
0.836426 0.880127 0.850220
0.905029 0.893188 0.868866
0.956726 0.904541 0.882690
