static/luts/Warm Teal.cube
#Created by: Adobe Photoshop Export Color Lookup Plugin
#Copyright: (C) Copyright 2018 https://www.presetpro.com and Tim Martin
TITLE "Presetpro - Warm Teal"
#LUT size
LUT_3D_SIZE 5
#data domain
#LUT data points
DOMAIN_MIN 0.000000 0.000000 0.000000
DOMAIN_MAX 0.903226 0.903226 0.903226
0.082458 0.065125 0.046143
0.185181 0.090637 0.070740
0.424164 0.092896 0.060028
0.661499 0.104156 0.084137
0.787018 0.177246 0.159180
0.117065 0.190918 0.100342
0.239288 0.210419 0.124481
0.418274 0.236633 0.123749
0.672455 0.270508 0.119019
0.822205 0.322937 0.166016
0.059875 0.465881 0.162354
0.087372 0.485291 0.205597
0.586029 0.469055 0.141785
0.738434 0.460358 0.126526
0.845093 0.491943 0.141937
0.126282 0.666779 0.306274
0.162659 0.701385 0.356354
0.521515 0.696838 0.322052
0.806793 0.704376 0.337250
0.900726 0.701416 0.336151
0.248383 0.887207 0.557251
0.422089 0.873413 0.541779
0.633881 0.846100 0.504333
0.815613 0.830231 0.470520
0.935028 0.850922 0.518402
0.093903 0.084259 0.112030
0.179688 0.100677 0.153656
0.400757 0.100769 0.183777
0.675232 0.117401 0.199738
0.806549 0.198395 0.266571
0.130646 0.204865 0.170837
0.242096 0.225342 0.203491
0.455994 0.252533 0.217865
0.717102 0.281799 0.223053
0.849365 0.340607 0.264221
0.064728 0.487701 0.274811
0.096558 0.504547 0.311615
0.567017 0.491302 0.302826
0.735016 0.476349 0.251373
0.865509 0.517914 0.261658
0.153595 0.713989 0.471222
0.187012 0.750031 0.509247
0.530731 0.713440 0.460938
0.805206 0.719940 0.483704
0.905975 0.719757 0.478912
0.250153 0.903107 0.652313
0.445953 0.880127 0.630798
0.652496 0.861206 0.606689
0.818665 0.847504 0.583801
0.936218 0.865051 0.630371
0.110870 0.107452 0.253021
0.196350 0.128265 0.315918
0.333069 0.104218 0.372925
0.606506 0.098389 0.452972
0.798889 0.196350 0.540344
0.143341 0.233521 0.301758
0.237427 0.258728 0.358673
0.411346 0.259613 0.437378
0.668976 0.260132 0.510162
0.856232 0.367401 0.583282
0.068146 0.469116 0.402740
0.175690 0.493927 0.456512
0.480133 0.477539 0.472198
0.740692 0.496796 0.501160
0.891235 0.547760 0.545227
0.160095 0.736542 0.606445
0.267090 0.767273 0.649017
0.572235 0.721497 0.606537
0.803192 0.731903 0.627289
0.907257 0.733185 0.618134
0.252258 0.914825 0.747406
0.503784 0.876740 0.715118
0.683289 0.867981 0.705872
0.822327 0.862335 0.695892
0.938019 0.878876 0.727600
0.134735 0.113770 0.400024
0.235504 0.149017 0.465912
0.345032 0.135071 0.501740
0.594910 0.121490 0.576111
0.759552 0.125641 0.638580
0.164642 0.265015 0.460724
0.266113 0.293182 0.514038
0.399109 0.311035 0.575867
0.612244 0.227753 0.600311
0.775818 0.246033 0.657837
0.089325 0.496155 0.548737
0.224121 0.506561 0.575287
0.423523 0.526398 0.619019
0.714996 0.497528 0.667145
0.876617 0.536224 0.731354
0.161407 0.727203 0.677673
0.316528 0.733307 0.696564
0.584381 0.715118 0.691376
0.766693 0.704010 0.694763
0.913116 0.742828 0.739594
0.258118 0.923004 0.820374
0.520569 0.877472 0.783020
0.711884 0.871521 0.779938
0.848785 0.878052 0.795990
0.945160 0.893036 0.825958
0.253265 0.213440 0.576996
0.329834 0.231384 0.613037
0.436188 0.226624 0.642548
0.545197 0.172272 0.648071
0.763641 0.152161 0.713135
0.231781 0.378998 0.629456
0.329712 0.392456 0.661926
0.454193 0.389771 0.697968
0.601685 0.324738 0.706909
0.771118 0.258728 0.726471
0.153809 0.594635 0.708496
0.330139 0.583618 0.714325
0.469604 0.589752 0.739685
0.687042 0.550262 0.754028
0.857910 0.528564 0.797455
0.195251 0.759094 0.790466
0.425079 0.727478 0.769104
0.604279 0.720093 0.767365
0.753021 0.734650 0.795227
0.915802 0.743225 0.841278
0.247070 0.908051 0.864655
0.505707 0.871887 0.834106
0.700684 0.867584 0.833710
0.852295 0.881592 0.853485
0.956726 0.904541 0.882690
